(G-CODE GENERATED BY FLATCAM v8.994 - www.flatcam.org - Version Date: 2020/11/7)

(Name: HIT2024-Edge_Cuts.gbr_edit_cutout_cnc)
(Type: G-code from Geometry)
(Units: MM)

(Created on Friday, 31 May 2024 at 16:12)

(This preprocessor is the default preprocessor used by FlatCAM.)
(It is made to work with MACH3 compatible motion controllers.)

(TOOL DIAMETER: 1.0 mm)
(Feedrate_XY: 120.0 mm/min)
(Feedrate_Z: 60.0 mm/min)
(Feedrate rapids 1500.0 mm/min)

(Z_Cut: -1.8 mm)
(DepthPerCut: 0.5 mm <=>4 passes)
(Z_Move: 1.0 mm)
(Z Start: None mm)
(Z End: 15.0 mm)
(X,Y End: None mm)
(Steps per circle: 64)
(Preprocessor Geometry: default)

(X range:   -0.6250 ...   26.6250  mm)
(Y range:   -0.6250 ...   61.6250  mm)

(Spindle Speed: 0.0 RPM)
G21
G90
G94

G01 F120.00

M5
G00 Z15.0000
G00 X0.0000 Y0.0000
T1
M6    
(MSG, Change to Tool Dia = 1.0000)
M0
G00 Z15.0000

M03
G01 F120.00
G00 X4.0000 Y3.0000
G01 F60.00
G01 Z-0.5000
G01 F120.00
G01 X4.0000 Y2.0000
G01 X23.0000 Y2.0000
G01 X23.0000 Y3.0000
G01 X4.0000 Y3.0000
G00 X4.0000 Y3.0000
G01 F60.00
G01 Z-1.0000
G01 F120.00
G01 X4.0000 Y2.0000
G01 X23.0000 Y2.0000
G01 X23.0000 Y3.0000
G01 X4.0000 Y3.0000
G00 X4.0000 Y3.0000
G01 F60.00
G01 Z-1.5000
G01 F120.00
G01 X4.0000 Y2.0000
G01 X23.0000 Y2.0000
G01 X23.0000 Y3.0000
G01 X4.0000 Y3.0000
G00 X4.0000 Y3.0000
G01 F60.00
G01 Z-1.8000
G01 F120.00
G01 X4.0000 Y2.0000
G01 X23.0000 Y2.0000
G01 X23.0000 Y3.0000
G01 X4.0000 Y3.0000
G00 Z1.0000
G00 X4.0000 Y25.0000
G01 F60.00
G01 Z-0.5000
G01 F120.00
G01 X4.0000 Y24.0000
G01 X23.0000 Y24.0000
G01 X23.0000 Y25.0000
G01 X4.0000 Y25.0000
G00 X4.0000 Y25.0000
G01 F60.00
G01 Z-1.0000
G01 F120.00
G01 X4.0000 Y24.0000
G01 X23.0000 Y24.0000
G01 X23.0000 Y25.0000
G01 X4.0000 Y25.0000
G00 X4.0000 Y25.0000
G01 F60.00
G01 Z-1.5000
G01 F120.00
G01 X4.0000 Y24.0000
G01 X23.0000 Y24.0000
G01 X23.0000 Y25.0000
G01 X4.0000 Y25.0000
G00 X4.0000 Y25.0000
G01 F60.00
G01 Z-1.8000
G01 F120.00
G01 X4.0000 Y24.0000
G01 X23.0000 Y24.0000
G01 X23.0000 Y25.0000
G01 X4.0000 Y25.0000
G00 Z1.0000
G00 X-0.6248 Y59.0153
G01 F60.00
G01 Z-0.5000
G01 F120.00
G01 X-0.6146 Y59.2267
G01 X-0.6122 Y59.2585
G01 X-0.6086 Y59.2877
G01 X-0.5798 Y59.4819
G01 X-0.5748 Y59.5109
G01 X-0.5679 Y59.5420
G01 X-0.5202 Y59.7324
G01 X-0.5123 Y59.7608
G01 X-0.5024 Y59.7911
G01 X-0.4362 Y59.9759
G01 X-0.4256 Y60.0034
G01 X-0.4128 Y60.0326
G01 X-0.3288 Y60.2100
G01 X-0.3156 Y60.2363
G01 X-0.2999 Y60.2641
G01 X-0.1990 Y60.4325
G01 X-0.1819 Y60.4594
G01 X-0.1650 Y60.4835
G01 X-0.0480 Y60.6411
G01 X-0.0299 Y60.6643
G01 X-0.0091 Y60.6885
G01 X0.1227 Y60.8339
G01 X0.1430 Y60.8553
G01 X0.1661 Y60.8773
G01 X0.3115 Y61.0091
G01 X0.3357 Y61.0299
G01 X0.3589 Y61.0480
G01 X0.5165 Y61.1650
G01 X0.5406 Y61.1819
G01 X0.5675 Y61.1990
G01 X0.7359 Y61.2999
G01 X0.7637 Y61.3156
G01 X0.7900 Y61.3288
G01 X0.9674 Y61.4128
G01 X0.9966 Y61.4256
G01 X1.0241 Y61.4362
G01 X1.2089 Y61.5024
G01 X1.2368 Y61.5116
G01 X1.2676 Y61.5202
G01 X1.4723 Y61.5713
G01 X1.4891 Y61.5748
G01 X1.5181 Y61.5798
G01 X1.7123 Y61.6086
G01 X1.7415 Y61.6122
G01 X1.7733 Y61.6146
G01 X1.9693 Y61.6243
G01 X2.0000 Y61.6250
G01 X10.5000 Y61.6250
G01 X10.5319 Y61.6242
G01 X10.5613 Y61.6220
G01 X10.5929 Y61.6180
G01 X10.6219 Y61.6130
G01 X10.6530 Y61.6060
G01 X10.6814 Y61.5981
G01 X10.7094 Y61.5889
G01 X10.7392 Y61.5774
G01 X10.7683 Y61.5645
G01 X10.7946 Y61.5512
G01 X10.8203 Y61.5367
G01 X10.8472 Y61.5197
G01 X10.8713 Y61.5027
G01 X10.8965 Y61.4831
G01 X10.9206 Y61.4623
G01 X10.9420 Y61.4419
G01 X10.9623 Y61.4206
G01 X10.9831 Y61.3965
G01 X11.0027 Y61.3713
G01 X11.0197 Y61.3472
G01 X11.0354 Y61.3224
G01 X11.0512 Y61.2946
G01 X11.0655 Y61.2661
G01 X11.0774 Y61.2392
G01 X11.0880 Y61.2117
G01 X11.0981 Y61.1814
G01 X11.1060 Y61.1530
G01 X11.1130 Y61.1219
G01 X11.1184 Y61.0905
G01 X11.1220 Y61.0613
G01 X11.1242 Y61.0319
G01 X11.1250 Y61.0000
G01 X11.1248 Y53.9853
G01 X11.1242 Y53.9681
G01 X11.1220 Y53.9387
G01 X11.1180 Y53.9071
G01 X11.1130 Y53.8781
G01 X11.1060 Y53.8470
G01 X11.0981 Y53.8186
G01 X11.0880 Y53.7883
G01 X11.0774 Y53.7608
G01 X11.0645 Y53.7317
G01 X11.0512 Y53.7054
G01 X11.0367 Y53.6797
G01 X11.0197 Y53.6528
G01 X11.0027 Y53.6287
G01 X10.9831 Y53.6035
G01 X10.9639 Y53.5812
G01 X10.9420 Y53.5581
G01 X10.9188 Y53.5361
G01 X10.8965 Y53.5169
G01 X10.8713 Y53.4973
G01 X10.8472 Y53.4803
G01 X10.8224 Y53.4646
G01 X10.7946 Y53.4488
G01 X10.7661 Y53.4345
G01 X10.7392 Y53.4226
G01 X10.7094 Y53.4111
G01 X10.6814 Y53.4019
G01 X10.6530 Y53.3940
G01 X10.6250 Y53.3877
G01 X10.6250 Y52.6250
G01 X14.8750 Y52.6250
G01 X14.8752 Y61.0147
G01 X14.8758 Y61.0319
G01 X14.8780 Y61.0613
G01 X14.8816 Y61.0905
G01 X14.8870 Y61.1219
G01 X14.8940 Y61.1530
G01 X14.9019 Y61.1814
G01 X14.9111 Y61.2094
G01 X14.9226 Y61.2392
G01 X14.9355 Y61.2683
G01 X14.9488 Y61.2946
G01 X14.9646 Y61.3224
G01 X14.9803 Y61.3472
G01 X14.9973 Y61.3713
G01 X15.0169 Y61.3965
G01 X15.0377 Y61.4206
G01 X15.0580 Y61.4419
G01 X15.0794 Y61.4623
G01 X15.1035 Y61.4831
G01 X15.1287 Y61.5027
G01 X15.1528 Y61.5197
G01 X15.1797 Y61.5367
G01 X15.2054 Y61.5512
G01 X15.2339 Y61.5655
G01 X15.2608 Y61.5774
G01 X15.2883 Y61.5880
G01 X15.3186 Y61.5981
G01 X15.3493 Y61.6066
G01 X15.3781 Y61.6130
G01 X15.4071 Y61.6180
G01 X15.4387 Y61.6220
G01 X15.4681 Y61.6242
G01 X15.5000 Y61.6250
G01 X24.0000 Y61.6250
G01 X24.0307 Y61.6243
G01 X24.2267 Y61.6146
G01 X24.2561 Y61.6125
G01 X24.2732 Y61.6106
G01 X24.4819 Y61.5798
G01 X24.5109 Y61.5748
G01 X24.5420 Y61.5679
G01 X24.7324 Y61.5202
G01 X24.7632 Y61.5116
G01 X24.7911 Y61.5024
G01 X24.9759 Y61.4362
G01 X25.0034 Y61.4256
G01 X25.0326 Y61.4128
G01 X25.2100 Y61.3288
G01 X25.2385 Y61.3144
G01 X25.2641 Y61.2999
G01 X25.4325 Y61.1990
G01 X25.4594 Y61.1819
G01 X25.4835 Y61.1650
G01 X25.6411 Y61.0480
G01 X25.6662 Y61.0284
G01 X25.6885 Y61.0091
G01 X25.8339 Y60.8773
G01 X25.8553 Y60.8570
G01 X25.8773 Y60.8339
G01 X26.0091 Y60.6885
G01 X26.0299 Y60.6643
G01 X26.0480 Y60.6411
G01 X26.1650 Y60.4835
G01 X26.1833 Y60.4573
G01 X26.1990 Y60.4325
G01 X26.2999 Y60.2641
G01 X26.3156 Y60.2363
G01 X26.3288 Y60.2100
G01 X26.4189 Y60.0192
G01 X26.4256 Y60.0034
G01 X26.4362 Y59.9759
G01 X26.5024 Y59.7911
G01 X26.5116 Y59.7632
G01 X26.5202 Y59.7324
G01 X26.5679 Y59.5420
G01 X26.5743 Y59.5133
G01 X26.5798 Y59.4819
G01 X26.6086 Y59.2877
G01 X26.6122 Y59.2585
G01 X26.6146 Y59.2267
G01 X26.6243 Y59.0307
G01 X26.6250 Y59.0000
G01 X26.6248 Y1.9853
G01 X26.6146 Y1.7733
G01 X26.6125 Y1.7439
G01 X26.6086 Y1.7123
G01 X26.5798 Y1.5181
G01 X26.5743 Y1.4867
G01 X26.5679 Y1.4580
G01 X26.5202 Y1.2676
G01 X26.5116 Y1.2368
G01 X26.5024 Y1.2089
G01 X26.4362 Y1.0241
G01 X26.4256 Y0.9966
G01 X26.4128 Y0.9674
G01 X26.3288 Y0.7900
G01 X26.3156 Y0.7637
G01 X26.2999 Y0.7359
G01 X26.1990 Y0.5675
G01 X26.1833 Y0.5427
G01 X26.1650 Y0.5165
G01 X26.0480 Y0.3589
G01 X26.0284 Y0.3338
G01 X26.0091 Y0.3115
G01 X25.8773 Y0.1661
G01 X25.8553 Y0.1430
G01 X25.8339 Y0.1227
G01 X25.6885 Y-0.0091
G01 X25.6662 Y-0.0284
G01 X25.6411 Y-0.0480
G01 X25.4835 Y-0.1650
G01 X25.4573 Y-0.1833
G01 X25.4325 Y-0.1990
G01 X25.2641 Y-0.2999
G01 X25.2363 Y-0.3156
G01 X25.2100 Y-0.3288
G01 X25.0192 Y-0.4189
G01 X25.0034 Y-0.4256
G01 X24.9759 Y-0.4362
G01 X24.7911 Y-0.5024
G01 X24.7632 Y-0.5116
G01 X24.7324 Y-0.5202
G01 X24.5420 Y-0.5679
G01 X24.5133 Y-0.5743
G01 X24.4819 Y-0.5798
G01 X24.2877 Y-0.6086
G01 X24.2585 Y-0.6122
G01 X24.2267 Y-0.6146
G01 X24.0307 Y-0.6243
G01 X24.0000 Y-0.6250
G01 X2.0000 Y-0.6250
G01 X1.9693 Y-0.6243
G01 X1.7733 Y-0.6146
G01 X1.7439 Y-0.6125
G01 X1.7123 Y-0.6086
G01 X1.5181 Y-0.5798
G01 X1.4891 Y-0.5748
G01 X1.4580 Y-0.5679
G01 X1.2676 Y-0.5202
G01 X1.2368 Y-0.5116
G01 X1.2089 Y-0.5024
G01 X1.0241 Y-0.4362
G01 X0.9966 Y-0.4256
G01 X0.9674 Y-0.4128
G01 X0.7900 Y-0.3288
G01 X0.7615 Y-0.3144
G01 X0.7359 Y-0.2999
G01 X0.5675 Y-0.1990
G01 X0.5406 Y-0.1819
G01 X0.5165 Y-0.1650
G01 X0.3589 Y-0.0480
G01 X0.3357 Y-0.0299
G01 X0.3115 Y-0.0091
G01 X0.1661 Y0.1227
G01 X0.1430 Y0.1447
G01 X0.1227 Y0.1661
G01 X-0.0091 Y0.3115
G01 X-0.0299 Y0.3357
G01 X-0.0480 Y0.3589
G01 X-0.1650 Y0.5165
G01 X-0.1833 Y0.5427
G01 X-0.1990 Y0.5675
G01 X-0.2999 Y0.7359
G01 X-0.3156 Y0.7637
G01 X-0.3288 Y0.7900
G01 X-0.4189 Y0.9808
G01 X-0.4256 Y0.9966
G01 X-0.4362 Y1.0241
G01 X-0.5024 Y1.2089
G01 X-0.5116 Y1.2368
G01 X-0.5202 Y1.2676
G01 X-0.5679 Y1.4580
G01 X-0.5743 Y1.4867
G01 X-0.5798 Y1.5181
G01 X-0.6086 Y1.7123
G01 X-0.6122 Y1.7415
G01 X-0.6146 Y1.7733
G01 X-0.6243 Y1.9693
G01 X-0.6250 Y2.0000
G01 X-0.6248 Y59.0153
G00 X-0.6248 Y59.0153
G01 F60.00
G01 Z-1.0000
G01 F120.00
G01 X-0.6250 Y2.0000
G01 X-0.6243 Y1.9693
G01 X-0.6146 Y1.7733
G01 X-0.6122 Y1.7415
G01 X-0.6086 Y1.7123
G01 X-0.5798 Y1.5181
G01 X-0.5743 Y1.4867
G01 X-0.5679 Y1.4580
G01 X-0.5202 Y1.2676
G01 X-0.5116 Y1.2368
G01 X-0.5024 Y1.2089
G01 X-0.4362 Y1.0241
G01 X-0.4256 Y0.9966
G01 X-0.4189 Y0.9808
G01 X-0.3288 Y0.7900
G01 X-0.3156 Y0.7637
G01 X-0.2999 Y0.7359
G01 X-0.1990 Y0.5675
G01 X-0.1833 Y0.5427
G01 X-0.1650 Y0.5165
G01 X-0.0480 Y0.3589
G01 X-0.0299 Y0.3357
G01 X-0.0091 Y0.3115
G01 X0.1227 Y0.1661
G01 X0.1447 Y0.1430
G01 X0.1661 Y0.1227
G01 X0.3115 Y-0.0091
G01 X0.3338 Y-0.0284
G01 X0.3589 Y-0.0480
G01 X0.5165 Y-0.1650
G01 X0.5406 Y-0.1819
G01 X0.5675 Y-0.1990
G01 X0.7359 Y-0.2999
G01 X0.7615 Y-0.3144
G01 X0.7900 Y-0.3288
G01 X0.9674 Y-0.4128
G01 X0.9966 Y-0.4256
G01 X1.0241 Y-0.4362
G01 X1.2089 Y-0.5024
G01 X1.2368 Y-0.5116
G01 X1.2676 Y-0.5202
G01 X1.4580 Y-0.5679
G01 X1.4891 Y-0.5748
G01 X1.5181 Y-0.5798
G01 X1.7123 Y-0.6086
G01 X1.7439 Y-0.6125
G01 X1.7733 Y-0.6146
G01 X1.9693 Y-0.6243
G01 X2.0000 Y-0.6250
G01 X24.0000 Y-0.6250
G01 X24.0307 Y-0.6243
G01 X24.2267 Y-0.6146
G01 X24.2585 Y-0.6122
G01 X24.2877 Y-0.6086
G01 X24.4819 Y-0.5798
G01 X24.5133 Y-0.5743
G01 X24.5420 Y-0.5679
G01 X24.7324 Y-0.5202
G01 X24.7632 Y-0.5116
G01 X24.7911 Y-0.5024
G01 X24.9759 Y-0.4362
G01 X25.0034 Y-0.4256
G01 X25.0192 Y-0.4189
G01 X25.2100 Y-0.3288
G01 X25.2363 Y-0.3156
G01 X25.2641 Y-0.2999
G01 X25.4325 Y-0.1990
G01 X25.4573 Y-0.1833
G01 X25.4835 Y-0.1650
G01 X25.6411 Y-0.0480
G01 X25.6662 Y-0.0284
G01 X25.6885 Y-0.0091
G01 X25.8339 Y0.1227
G01 X25.8553 Y0.1430
G01 X25.8773 Y0.1661
G01 X26.0091 Y0.3115
G01 X26.0284 Y0.3338
G01 X26.0480 Y0.3589
G01 X26.1650 Y0.5165
G01 X26.1833 Y0.5427
G01 X26.1990 Y0.5675
G01 X26.2999 Y0.7359
G01 X26.3156 Y0.7637
G01 X26.3288 Y0.7900
G01 X26.4128 Y0.9674
G01 X26.4256 Y0.9966
G01 X26.4362 Y1.0241
G01 X26.5024 Y1.2089
G01 X26.5116 Y1.2368
G01 X26.5202 Y1.2676
G01 X26.5679 Y1.4580
G01 X26.5743 Y1.4867
G01 X26.5798 Y1.5181
G01 X26.6086 Y1.7123
G01 X26.6125 Y1.7439
G01 X26.6146 Y1.7733
G01 X26.6248 Y1.9853
G01 X26.6250 Y59.0000
G01 X26.6243 Y59.0307
G01 X26.6146 Y59.2267
G01 X26.6122 Y59.2585
G01 X26.6086 Y59.2877
G01 X26.5798 Y59.4819
G01 X26.5743 Y59.5133
G01 X26.5679 Y59.5420
G01 X26.5202 Y59.7324
G01 X26.5116 Y59.7632
G01 X26.5024 Y59.7911
G01 X26.4362 Y59.9759
G01 X26.4256 Y60.0034
G01 X26.4189 Y60.0192
G01 X26.3288 Y60.2100
G01 X26.3156 Y60.2363
G01 X26.2999 Y60.2641
G01 X26.1990 Y60.4325
G01 X26.1833 Y60.4573
G01 X26.1650 Y60.4835
G01 X26.0480 Y60.6411
G01 X26.0299 Y60.6643
G01 X26.0091 Y60.6885
G01 X25.8773 Y60.8339
G01 X25.8553 Y60.8570
G01 X25.8339 Y60.8773
G01 X25.6885 Y61.0091
G01 X25.6662 Y61.0284
G01 X25.6411 Y61.0480
G01 X25.4835 Y61.1650
G01 X25.4594 Y61.1819
G01 X25.4325 Y61.1990
G01 X25.2641 Y61.2999
G01 X25.2385 Y61.3144
G01 X25.2100 Y61.3288
G01 X25.0326 Y61.4128
G01 X25.0034 Y61.4256
G01 X24.9759 Y61.4362
G01 X24.7911 Y61.5024
G01 X24.7632 Y61.5116
G01 X24.7324 Y61.5202
G01 X24.5420 Y61.5679
G01 X24.5109 Y61.5748
G01 X24.4819 Y61.5798
G01 X24.2732 Y61.6106
G01 X24.2561 Y61.6125
G01 X24.2267 Y61.6146
G01 X24.0307 Y61.6243
G01 X24.0000 Y61.6250
G01 X15.5000 Y61.6250
G01 X15.4681 Y61.6242
G01 X15.4387 Y61.6220
G01 X15.4071 Y61.6180
G01 X15.3781 Y61.6130
G01 X15.3493 Y61.6066
G01 X15.3186 Y61.5981
G01 X15.2883 Y61.5880
G01 X15.2608 Y61.5774
G01 X15.2339 Y61.5655
G01 X15.2054 Y61.5512
G01 X15.1797 Y61.5367
G01 X15.1528 Y61.5197
G01 X15.1287 Y61.5027
G01 X15.1035 Y61.4831
G01 X15.0794 Y61.4623
G01 X15.0580 Y61.4419
G01 X15.0377 Y61.4206
G01 X15.0169 Y61.3965
G01 X14.9973 Y61.3713
G01 X14.9803 Y61.3472
G01 X14.9646 Y61.3224
G01 X14.9488 Y61.2946
G01 X14.9355 Y61.2683
G01 X14.9226 Y61.2392
G01 X14.9111 Y61.2094
G01 X14.9019 Y61.1814
G01 X14.8940 Y61.1530
G01 X14.8870 Y61.1219
G01 X14.8816 Y61.0905
G01 X14.8780 Y61.0613
G01 X14.8758 Y61.0319
G01 X14.8752 Y61.0147
G01 X14.8750 Y52.6250
G01 X10.6250 Y52.6250
G01 X10.6250 Y53.3877
G01 X10.6530 Y53.3940
G01 X10.6814 Y53.4019
G01 X10.7094 Y53.4111
G01 X10.7392 Y53.4226
G01 X10.7661 Y53.4345
G01 X10.7946 Y53.4488
G01 X10.8224 Y53.4646
G01 X10.8472 Y53.4803
G01 X10.8713 Y53.4973
G01 X10.8965 Y53.5169
G01 X10.9188 Y53.5361
G01 X10.9420 Y53.5581
G01 X10.9639 Y53.5812
G01 X10.9831 Y53.6035
G01 X11.0027 Y53.6287
G01 X11.0197 Y53.6528
G01 X11.0367 Y53.6797
G01 X11.0512 Y53.7054
G01 X11.0645 Y53.7317
G01 X11.0774 Y53.7608
G01 X11.0880 Y53.7883
G01 X11.0981 Y53.8186
G01 X11.1060 Y53.8470
G01 X11.1130 Y53.8781
G01 X11.1180 Y53.9071
G01 X11.1220 Y53.9387
G01 X11.1242 Y53.9681
G01 X11.1248 Y53.9853
G01 X11.1250 Y61.0000
G01 X11.1242 Y61.0319
G01 X11.1220 Y61.0613
G01 X11.1184 Y61.0905
G01 X11.1130 Y61.1219
G01 X11.1060 Y61.1530
G01 X11.0981 Y61.1814
G01 X11.0880 Y61.2117
G01 X11.0774 Y61.2392
G01 X11.0655 Y61.2661
G01 X11.0512 Y61.2946
G01 X11.0354 Y61.3224
G01 X11.0197 Y61.3472
G01 X11.0027 Y61.3713
G01 X10.9831 Y61.3965
G01 X10.9623 Y61.4206
G01 X10.9420 Y61.4419
G01 X10.9206 Y61.4623
G01 X10.8965 Y61.4831
G01 X10.8713 Y61.5027
G01 X10.8472 Y61.5197
G01 X10.8203 Y61.5367
G01 X10.7946 Y61.5512
G01 X10.7683 Y61.5645
G01 X10.7392 Y61.5774
G01 X10.7094 Y61.5889
G01 X10.6814 Y61.5981
G01 X10.6530 Y61.6060
G01 X10.6219 Y61.6130
G01 X10.5929 Y61.6180
G01 X10.5613 Y61.6220
G01 X10.5319 Y61.6242
G01 X10.5000 Y61.6250
G01 X2.0000 Y61.6250
G01 X1.9693 Y61.6243
G01 X1.7733 Y61.6146
G01 X1.7415 Y61.6122
G01 X1.7123 Y61.6086
G01 X1.5181 Y61.5798
G01 X1.4891 Y61.5748
G01 X1.4723 Y61.5713
G01 X1.2676 Y61.5202
G01 X1.2368 Y61.5116
G01 X1.2089 Y61.5024
G01 X1.0241 Y61.4362
G01 X0.9966 Y61.4256
G01 X0.9674 Y61.4128
G01 X0.7900 Y61.3288
G01 X0.7637 Y61.3156
G01 X0.7359 Y61.2999
G01 X0.5675 Y61.1990
G01 X0.5406 Y61.1819
G01 X0.5165 Y61.1650
G01 X0.3589 Y61.0480
G01 X0.3357 Y61.0299
G01 X0.3115 Y61.0091
G01 X0.1661 Y60.8773
G01 X0.1430 Y60.8553
G01 X0.1227 Y60.8339
G01 X-0.0091 Y60.6885
G01 X-0.0299 Y60.6643
G01 X-0.0480 Y60.6411
G01 X-0.1650 Y60.4835
G01 X-0.1819 Y60.4594
G01 X-0.1990 Y60.4325
G01 X-0.2999 Y60.2641
G01 X-0.3156 Y60.2363
G01 X-0.3288 Y60.2100
G01 X-0.4128 Y60.0326
G01 X-0.4256 Y60.0034
G01 X-0.4362 Y59.9759
G01 X-0.5024 Y59.7911
G01 X-0.5123 Y59.7608
G01 X-0.5202 Y59.7324
G01 X-0.5679 Y59.5420
G01 X-0.5748 Y59.5109
G01 X-0.5798 Y59.4819
G01 X-0.6086 Y59.2877
G01 X-0.6122 Y59.2585
G01 X-0.6146 Y59.2267
G01 X-0.6248 Y59.0153
G00 X-0.6248 Y59.0153
G01 F60.00
G01 Z-1.5000
G01 F120.00
G01 X-0.6146 Y59.2267
G01 X-0.6122 Y59.2585
G01 X-0.6086 Y59.2877
G01 X-0.5798 Y59.4819
G01 X-0.5748 Y59.5109
G01 X-0.5679 Y59.5420
G01 X-0.5202 Y59.7324
G01 X-0.5123 Y59.7608
G01 X-0.5024 Y59.7911
G01 X-0.4362 Y59.9759
G01 X-0.4256 Y60.0034
G01 X-0.4128 Y60.0326
G01 X-0.3288 Y60.2100
G01 X-0.3156 Y60.2363
G01 X-0.2999 Y60.2641
G01 X-0.1990 Y60.4325
G01 X-0.1819 Y60.4594
G01 X-0.1650 Y60.4835
G01 X-0.0480 Y60.6411
G01 X-0.0299 Y60.6643
G01 X-0.0091 Y60.6885
G01 X0.1227 Y60.8339
G01 X0.1430 Y60.8553
G01 X0.1661 Y60.8773
G01 X0.3115 Y61.0091
G01 X0.3357 Y61.0299
G01 X0.3589 Y61.0480
G01 X0.5165 Y61.1650
G01 X0.5406 Y61.1819
G01 X0.5675 Y61.1990
G01 X0.7359 Y61.2999
G01 X0.7637 Y61.3156
G01 X0.7900 Y61.3288
G01 X0.9674 Y61.4128
G01 X0.9966 Y61.4256
G01 X1.0241 Y61.4362
G01 X1.2089 Y61.5024
G01 X1.2368 Y61.5116
G01 X1.2676 Y61.5202
G01 X1.4723 Y61.5713
G01 X1.4891 Y61.5748
G01 X1.5181 Y61.5798
G01 X1.7123 Y61.6086
G01 X1.7415 Y61.6122
G01 X1.7733 Y61.6146
G01 X1.9693 Y61.6243
G01 X2.0000 Y61.6250
G01 X10.5000 Y61.6250
G01 X10.5319 Y61.6242
G01 X10.5613 Y61.6220
G01 X10.5929 Y61.6180
G01 X10.6219 Y61.6130
G01 X10.6530 Y61.6060
G01 X10.6814 Y61.5981
G01 X10.7094 Y61.5889
G01 X10.7392 Y61.5774
G01 X10.7683 Y61.5645
G01 X10.7946 Y61.5512
G01 X10.8203 Y61.5367
G01 X10.8472 Y61.5197
G01 X10.8713 Y61.5027
G01 X10.8965 Y61.4831
G01 X10.9206 Y61.4623
G01 X10.9420 Y61.4419
G01 X10.9623 Y61.4206
G01 X10.9831 Y61.3965
G01 X11.0027 Y61.3713
G01 X11.0197 Y61.3472
G01 X11.0354 Y61.3224
G01 X11.0512 Y61.2946
G01 X11.0655 Y61.2661
G01 X11.0774 Y61.2392
G01 X11.0880 Y61.2117
G01 X11.0981 Y61.1814
G01 X11.1060 Y61.1530
G01 X11.1130 Y61.1219
G01 X11.1184 Y61.0905
G01 X11.1220 Y61.0613
G01 X11.1242 Y61.0319
G01 X11.1250 Y61.0000
G01 X11.1248 Y53.9853
G01 X11.1242 Y53.9681
G01 X11.1220 Y53.9387
G01 X11.1180 Y53.9071
G01 X11.1130 Y53.8781
G01 X11.1060 Y53.8470
G01 X11.0981 Y53.8186
G01 X11.0880 Y53.7883
G01 X11.0774 Y53.7608
G01 X11.0645 Y53.7317
G01 X11.0512 Y53.7054
G01 X11.0367 Y53.6797
G01 X11.0197 Y53.6528
G01 X11.0027 Y53.6287
G01 X10.9831 Y53.6035
G01 X10.9639 Y53.5812
G01 X10.9420 Y53.5581
G01 X10.9188 Y53.5361
G01 X10.8965 Y53.5169
G01 X10.8713 Y53.4973
G01 X10.8472 Y53.4803
G01 X10.8224 Y53.4646
G01 X10.7946 Y53.4488
G01 X10.7661 Y53.4345
G01 X10.7392 Y53.4226
G01 X10.7094 Y53.4111
G01 X10.6814 Y53.4019
G01 X10.6530 Y53.3940
G01 X10.6250 Y53.3877
G01 X10.6250 Y52.6250
G01 X14.8750 Y52.6250
G01 X14.8752 Y61.0147
G01 X14.8758 Y61.0319
G01 X14.8780 Y61.0613
G01 X14.8816 Y61.0905
G01 X14.8870 Y61.1219
G01 X14.8940 Y61.1530
G01 X14.9019 Y61.1814
G01 X14.9111 Y61.2094
G01 X14.9226 Y61.2392
G01 X14.9355 Y61.2683
G01 X14.9488 Y61.2946
G01 X14.9646 Y61.3224
G01 X14.9803 Y61.3472
G01 X14.9973 Y61.3713
G01 X15.0169 Y61.3965
G01 X15.0377 Y61.4206
G01 X15.0580 Y61.4419
G01 X15.0794 Y61.4623
G01 X15.1035 Y61.4831
G01 X15.1287 Y61.5027
G01 X15.1528 Y61.5197
G01 X15.1797 Y61.5367
G01 X15.2054 Y61.5512
G01 X15.2339 Y61.5655
G01 X15.2608 Y61.5774
G01 X15.2883 Y61.5880
G01 X15.3186 Y61.5981
G01 X15.3493 Y61.6066
G01 X15.3781 Y61.6130
G01 X15.4071 Y61.6180
G01 X15.4387 Y61.6220
G01 X15.4681 Y61.6242
G01 X15.5000 Y61.6250
G01 X24.0000 Y61.6250
G01 X24.0307 Y61.6243
G01 X24.2267 Y61.6146
G01 X24.2561 Y61.6125
G01 X24.2732 Y61.6106
G01 X24.4819 Y61.5798
G01 X24.5109 Y61.5748
G01 X24.5420 Y61.5679
G01 X24.7324 Y61.5202
G01 X24.7632 Y61.5116
G01 X24.7911 Y61.5024
G01 X24.9759 Y61.4362
G01 X25.0034 Y61.4256
G01 X25.0326 Y61.4128
G01 X25.2100 Y61.3288
G01 X25.2385 Y61.3144
G01 X25.2641 Y61.2999
G01 X25.4325 Y61.1990
G01 X25.4594 Y61.1819
G01 X25.4835 Y61.1650
G01 X25.6411 Y61.0480
G01 X25.6662 Y61.0284
G01 X25.6885 Y61.0091
G01 X25.8339 Y60.8773
G01 X25.8553 Y60.8570
G01 X25.8773 Y60.8339
G01 X26.0091 Y60.6885
G01 X26.0299 Y60.6643
G01 X26.0480 Y60.6411
G01 X26.1650 Y60.4835
G01 X26.1833 Y60.4573
G01 X26.1990 Y60.4325
G01 X26.2999 Y60.2641
G01 X26.3156 Y60.2363
G01 X26.3288 Y60.2100
G01 X26.4189 Y60.0192
G01 X26.4256 Y60.0034
G01 X26.4362 Y59.9759
G01 X26.5024 Y59.7911
G01 X26.5116 Y59.7632
G01 X26.5202 Y59.7324
G01 X26.5679 Y59.5420
G01 X26.5743 Y59.5133
G01 X26.5798 Y59.4819
G01 X26.6086 Y59.2877
G01 X26.6122 Y59.2585
G01 X26.6146 Y59.2267
G01 X26.6243 Y59.0307
G01 X26.6250 Y59.0000
G01 X26.6248 Y1.9853
G01 X26.6146 Y1.7733
G01 X26.6125 Y1.7439
G01 X26.6086 Y1.7123
G01 X26.5798 Y1.5181
G01 X26.5743 Y1.4867
G01 X26.5679 Y1.4580
G01 X26.5202 Y1.2676
G01 X26.5116 Y1.2368
G01 X26.5024 Y1.2089
G01 X26.4362 Y1.0241
G01 X26.4256 Y0.9966
G01 X26.4128 Y0.9674
G01 X26.3288 Y0.7900
G01 X26.3156 Y0.7637
G01 X26.2999 Y0.7359
G01 X26.1990 Y0.5675
G01 X26.1833 Y0.5427
G01 X26.1650 Y0.5165
G01 X26.0480 Y0.3589
G01 X26.0284 Y0.3338
G01 X26.0091 Y0.3115
G01 X25.8773 Y0.1661
G01 X25.8553 Y0.1430
G01 X25.8339 Y0.1227
G01 X25.6885 Y-0.0091
G01 X25.6662 Y-0.0284
G01 X25.6411 Y-0.0480
G01 X25.4835 Y-0.1650
G01 X25.4573 Y-0.1833
G01 X25.4325 Y-0.1990
G01 X25.2641 Y-0.2999
G01 X25.2363 Y-0.3156
G01 X25.2100 Y-0.3288
G01 X25.0192 Y-0.4189
G01 X25.0034 Y-0.4256
G01 X24.9759 Y-0.4362
G01 X24.7911 Y-0.5024
G01 X24.7632 Y-0.5116
G01 X24.7324 Y-0.5202
G01 X24.5420 Y-0.5679
G01 X24.5133 Y-0.5743
G01 X24.4819 Y-0.5798
G01 X24.2877 Y-0.6086
G01 X24.2585 Y-0.6122
G01 X24.2267 Y-0.6146
G01 X24.0307 Y-0.6243
G01 X24.0000 Y-0.6250
G01 X2.0000 Y-0.6250
G01 X1.9693 Y-0.6243
G01 X1.7733 Y-0.6146
G01 X1.7439 Y-0.6125
G01 X1.7123 Y-0.6086
G01 X1.5181 Y-0.5798
G01 X1.4891 Y-0.5748
G01 X1.4580 Y-0.5679
G01 X1.2676 Y-0.5202
G01 X1.2368 Y-0.5116
G01 X1.2089 Y-0.5024
G01 X1.0241 Y-0.4362
G01 X0.9966 Y-0.4256
G01 X0.9674 Y-0.4128
G01 X0.7900 Y-0.3288
G01 X0.7615 Y-0.3144
G01 X0.7359 Y-0.2999
G01 X0.5675 Y-0.1990
G01 X0.5406 Y-0.1819
G01 X0.5165 Y-0.1650
G01 X0.3589 Y-0.0480
G01 X0.3357 Y-0.0299
G01 X0.3115 Y-0.0091
G01 X0.1661 Y0.1227
G01 X0.1430 Y0.1447
G01 X0.1227 Y0.1661
G01 X-0.0091 Y0.3115
G01 X-0.0299 Y0.3357
G01 X-0.0480 Y0.3589
G01 X-0.1650 Y0.5165
G01 X-0.1833 Y0.5427
G01 X-0.1990 Y0.5675
G01 X-0.2999 Y0.7359
G01 X-0.3156 Y0.7637
G01 X-0.3288 Y0.7900
G01 X-0.4189 Y0.9808
G01 X-0.4256 Y0.9966
G01 X-0.4362 Y1.0241
G01 X-0.5024 Y1.2089
G01 X-0.5116 Y1.2368
G01 X-0.5202 Y1.2676
G01 X-0.5679 Y1.4580
G01 X-0.5743 Y1.4867
G01 X-0.5798 Y1.5181
G01 X-0.6086 Y1.7123
G01 X-0.6122 Y1.7415
G01 X-0.6146 Y1.7733
G01 X-0.6243 Y1.9693
G01 X-0.6250 Y2.0000
G01 X-0.6248 Y59.0153
G00 X-0.6248 Y59.0153
G01 F60.00
G01 Z-1.8000
G01 F120.00
G01 X-0.6250 Y2.0000
G01 X-0.6243 Y1.9693
G01 X-0.6146 Y1.7733
G01 X-0.6122 Y1.7415
G01 X-0.6086 Y1.7123
G01 X-0.5798 Y1.5181
G01 X-0.5743 Y1.4867
G01 X-0.5679 Y1.4580
G01 X-0.5202 Y1.2676
G01 X-0.5116 Y1.2368
G01 X-0.5024 Y1.2089
G01 X-0.4362 Y1.0241
G01 X-0.4256 Y0.9966
G01 X-0.4189 Y0.9808
G01 X-0.3288 Y0.7900
G01 X-0.3156 Y0.7637
G01 X-0.2999 Y0.7359
G01 X-0.1990 Y0.5675
G01 X-0.1833 Y0.5427
G01 X-0.1650 Y0.5165
G01 X-0.0480 Y0.3589
G01 X-0.0299 Y0.3357
G01 X-0.0091 Y0.3115
G01 X0.1227 Y0.1661
G01 X0.1447 Y0.1430
G01 X0.1661 Y0.1227
G01 X0.3115 Y-0.0091
G01 X0.3338 Y-0.0284
G01 X0.3589 Y-0.0480
G01 X0.5165 Y-0.1650
G01 X0.5406 Y-0.1819
G01 X0.5675 Y-0.1990
G01 X0.7359 Y-0.2999
G01 X0.7615 Y-0.3144
G01 X0.7900 Y-0.3288
G01 X0.9674 Y-0.4128
G01 X0.9966 Y-0.4256
G01 X1.0241 Y-0.4362
G01 X1.2089 Y-0.5024
G01 X1.2368 Y-0.5116
G01 X1.2676 Y-0.5202
G01 X1.4580 Y-0.5679
G01 X1.4891 Y-0.5748
G01 X1.5181 Y-0.5798
G01 X1.7123 Y-0.6086
G01 X1.7439 Y-0.6125
G01 X1.7733 Y-0.6146
G01 X1.9693 Y-0.6243
G01 X2.0000 Y-0.6250
G01 X24.0000 Y-0.6250
G01 X24.0307 Y-0.6243
G01 X24.2267 Y-0.6146
G01 X24.2585 Y-0.6122
G01 X24.2877 Y-0.6086
G01 X24.4819 Y-0.5798
G01 X24.5133 Y-0.5743
G01 X24.5420 Y-0.5679
G01 X24.7324 Y-0.5202
G01 X24.7632 Y-0.5116
G01 X24.7911 Y-0.5024
G01 X24.9759 Y-0.4362
G01 X25.0034 Y-0.4256
G01 X25.0192 Y-0.4189
G01 X25.2100 Y-0.3288
G01 X25.2363 Y-0.3156
G01 X25.2641 Y-0.2999
G01 X25.4325 Y-0.1990
G01 X25.4573 Y-0.1833
G01 X25.4835 Y-0.1650
G01 X25.6411 Y-0.0480
G01 X25.6662 Y-0.0284
G01 X25.6885 Y-0.0091
G01 X25.8339 Y0.1227
G01 X25.8553 Y0.1430
G01 X25.8773 Y0.1661
G01 X26.0091 Y0.3115
G01 X26.0284 Y0.3338
G01 X26.0480 Y0.3589
G01 X26.1650 Y0.5165
G01 X26.1833 Y0.5427
G01 X26.1990 Y0.5675
G01 X26.2999 Y0.7359
G01 X26.3156 Y0.7637
G01 X26.3288 Y0.7900
G01 X26.4128 Y0.9674
G01 X26.4256 Y0.9966
G01 X26.4362 Y1.0241
G01 X26.5024 Y1.2089
G01 X26.5116 Y1.2368
G01 X26.5202 Y1.2676
G01 X26.5679 Y1.4580
G01 X26.5743 Y1.4867
G01 X26.5798 Y1.5181
G01 X26.6086 Y1.7123
G01 X26.6125 Y1.7439
G01 X26.6146 Y1.7733
G01 X26.6248 Y1.9853
G01 X26.6250 Y59.0000
G01 X26.6243 Y59.0307
G01 X26.6146 Y59.2267
G01 X26.6122 Y59.2585
G01 X26.6086 Y59.2877
G01 X26.5798 Y59.4819
G01 X26.5743 Y59.5133
G01 X26.5679 Y59.5420
G01 X26.5202 Y59.7324
G01 X26.5116 Y59.7632
G01 X26.5024 Y59.7911
G01 X26.4362 Y59.9759
G01 X26.4256 Y60.0034
G01 X26.4189 Y60.0192
G01 X26.3288 Y60.2100
G01 X26.3156 Y60.2363
G01 X26.2999 Y60.2641
G01 X26.1990 Y60.4325
G01 X26.1833 Y60.4573
G01 X26.1650 Y60.4835
G01 X26.0480 Y60.6411
G01 X26.0299 Y60.6643
G01 X26.0091 Y60.6885
G01 X25.8773 Y60.8339
G01 X25.8553 Y60.8570
G01 X25.8339 Y60.8773
G01 X25.6885 Y61.0091
G01 X25.6662 Y61.0284
G01 X25.6411 Y61.0480
G01 X25.4835 Y61.1650
G01 X25.4594 Y61.1819
G01 X25.4325 Y61.1990
G01 X25.2641 Y61.2999
G01 X25.2385 Y61.3144
G01 X25.2100 Y61.3288
G01 X25.0326 Y61.4128
G01 X25.0034 Y61.4256
G01 X24.9759 Y61.4362
G01 X24.7911 Y61.5024
G01 X24.7632 Y61.5116
G01 X24.7324 Y61.5202
G01 X24.5420 Y61.5679
G01 X24.5109 Y61.5748
G01 X24.4819 Y61.5798
G01 X24.2732 Y61.6106
G01 X24.2561 Y61.6125
G01 X24.2267 Y61.6146
G01 X24.0307 Y61.6243
G01 X24.0000 Y61.6250
G01 X15.5000 Y61.6250
G01 X15.4681 Y61.6242
G01 X15.4387 Y61.6220
G01 X15.4071 Y61.6180
G01 X15.3781 Y61.6130
G01 X15.3493 Y61.6066
G01 X15.3186 Y61.5981
G01 X15.2883 Y61.5880
G01 X15.2608 Y61.5774
G01 X15.2339 Y61.5655
G01 X15.2054 Y61.5512
G01 X15.1797 Y61.5367
G01 X15.1528 Y61.5197
G01 X15.1287 Y61.5027
G01 X15.1035 Y61.4831
G01 X15.0794 Y61.4623
G01 X15.0580 Y61.4419
G01 X15.0377 Y61.4206
G01 X15.0169 Y61.3965
G01 X14.9973 Y61.3713
G01 X14.9803 Y61.3472
G01 X14.9646 Y61.3224
G01 X14.9488 Y61.2946
G01 X14.9355 Y61.2683
G01 X14.9226 Y61.2392
G01 X14.9111 Y61.2094
G01 X14.9019 Y61.1814
G01 X14.8940 Y61.1530
G01 X14.8870 Y61.1219
G01 X14.8816 Y61.0905
G01 X14.8780 Y61.0613
G01 X14.8758 Y61.0319
G01 X14.8752 Y61.0147
G01 X14.8750 Y52.6250
G01 X10.6250 Y52.6250
G01 X10.6250 Y53.3877
G01 X10.6530 Y53.3940
G01 X10.6814 Y53.4019
G01 X10.7094 Y53.4111
G01 X10.7392 Y53.4226
G01 X10.7661 Y53.4345
G01 X10.7946 Y53.4488
G01 X10.8224 Y53.4646
G01 X10.8472 Y53.4803
G01 X10.8713 Y53.4973
G01 X10.8965 Y53.5169
G01 X10.9188 Y53.5361
G01 X10.9420 Y53.5581
G01 X10.9639 Y53.5812
G01 X10.9831 Y53.6035
G01 X11.0027 Y53.6287
G01 X11.0197 Y53.6528
G01 X11.0367 Y53.6797
G01 X11.0512 Y53.7054
G01 X11.0645 Y53.7317
G01 X11.0774 Y53.7608
G01 X11.0880 Y53.7883
G01 X11.0981 Y53.8186
G01 X11.1060 Y53.8470
G01 X11.1130 Y53.8781
G01 X11.1180 Y53.9071
G01 X11.1220 Y53.9387
G01 X11.1242 Y53.9681
G01 X11.1248 Y53.9853
G01 X11.1250 Y61.0000
G01 X11.1242 Y61.0319
G01 X11.1220 Y61.0613
G01 X11.1184 Y61.0905
G01 X11.1130 Y61.1219
G01 X11.1060 Y61.1530
G01 X11.0981 Y61.1814
G01 X11.0880 Y61.2117
G01 X11.0774 Y61.2392
G01 X11.0655 Y61.2661
G01 X11.0512 Y61.2946
G01 X11.0354 Y61.3224
G01 X11.0197 Y61.3472
G01 X11.0027 Y61.3713
G01 X10.9831 Y61.3965
G01 X10.9623 Y61.4206
G01 X10.9420 Y61.4419
G01 X10.9206 Y61.4623
G01 X10.8965 Y61.4831
G01 X10.8713 Y61.5027
G01 X10.8472 Y61.5197
G01 X10.8203 Y61.5367
G01 X10.7946 Y61.5512
G01 X10.7683 Y61.5645
G01 X10.7392 Y61.5774
G01 X10.7094 Y61.5889
G01 X10.6814 Y61.5981
G01 X10.6530 Y61.6060
G01 X10.6219 Y61.6130
G01 X10.5929 Y61.6180
G01 X10.5613 Y61.6220
G01 X10.5319 Y61.6242
G01 X10.5000 Y61.6250
G01 X2.0000 Y61.6250
G01 X1.9693 Y61.6243
G01 X1.7733 Y61.6146
G01 X1.7415 Y61.6122
G01 X1.7123 Y61.6086
G01 X1.5181 Y61.5798
G01 X1.4891 Y61.5748
G01 X1.4723 Y61.5713
G01 X1.2676 Y61.5202
G01 X1.2368 Y61.5116
G01 X1.2089 Y61.5024
G01 X1.0241 Y61.4362
G01 X0.9966 Y61.4256
G01 X0.9674 Y61.4128
G01 X0.7900 Y61.3288
G01 X0.7637 Y61.3156
G01 X0.7359 Y61.2999
G01 X0.5675 Y61.1990
G01 X0.5406 Y61.1819
G01 X0.5165 Y61.1650
G01 X0.3589 Y61.0480
G01 X0.3357 Y61.0299
G01 X0.3115 Y61.0091
G01 X0.1661 Y60.8773
G01 X0.1430 Y60.8553
G01 X0.1227 Y60.8339
G01 X-0.0091 Y60.6885
G01 X-0.0299 Y60.6643
G01 X-0.0480 Y60.6411
G01 X-0.1650 Y60.4835
G01 X-0.1819 Y60.4594
G01 X-0.1990 Y60.4325
G01 X-0.2999 Y60.2641
G01 X-0.3156 Y60.2363
G01 X-0.3288 Y60.2100
G01 X-0.4128 Y60.0326
G01 X-0.4256 Y60.0034
G01 X-0.4362 Y59.9759
G01 X-0.5024 Y59.7911
G01 X-0.5123 Y59.7608
G01 X-0.5202 Y59.7324
G01 X-0.5679 Y59.5420
G01 X-0.5748 Y59.5109
G01 X-0.5798 Y59.4819
G01 X-0.6086 Y59.2877
G01 X-0.6122 Y59.2585
G01 X-0.6146 Y59.2267
G01 X-0.6248 Y59.0153
G00 Z1.0000
M05
G00 Z1.0000
G00 Z15.00


