(G-CODE GENERATED BY FLATCAM v8.994 - www.flatcam.org - Version Date: 2020/11/7)

(Name: HIT2024-F_Cu.gbr_iso_combined_cnc)
(Type: G-code from Geometry)
(Units: MM)

(Created on Friday, 31 May 2024 at 16:13)

(This preprocessor is the default preprocessor used by FlatCAM.)
(It is made to work with MACH3 compatible motion controllers.)

(TOOL DIAMETER: 0.3039 mm)
(Feedrate_XY: 500.0 mm/min)
(Feedrate_Z: 60.0 mm/min)
(Feedrate rapids 1500.0 mm/min)

(Z_Cut: -0.09 mm)
(Z_Move: 1.0 mm)
(Z Start: None mm)
(Z End: 15.0 mm)
(X,Y End: None mm)
(Steps per circle: 64)
(Preprocessor Geometry: default)

(X range:   -0.1992 ...   25.6992  mm)
(Y range:    3.3010 ...   59.4491  mm)

(Spindle Speed: 15000.0 RPM)
G21
G90
G94

G01 F500.00

M5
G00 Z15.0000
G00 X0.0000 Y0.0000
T2
M6    
(MSG, Change to Tool Dia = 0.3039)
M0
G00 Z15.0000

M03 S15000.0
G01 F500.00
G00 X4.5745 Y5.6120
G01 F60.00
G01 Z-0.0900
G01 F500.00
G01 X4.5546 Y5.6048
G01 X4.5348 Y5.5982
G01 X4.5147 Y5.5927
G01 X4.4824 Y5.5851
G01 X4.4497 Y5.5797
G01 X4.4290 Y5.5772
G01 X4.3959 Y5.5751
G01 X4.3750 Y5.5745
G01 X4.1250 Y5.5745
G01 X4.1041 Y5.5751
G01 X4.0814 Y5.5763
G01 X4.0607 Y5.5783
G01 X4.0382 Y5.5815
G01 X4.0279 Y5.5832
G01 X4.0074 Y5.5873
G01 X3.9853 Y5.5927
G01 X3.9652 Y5.5982
G01 X3.9454 Y5.6048
G01 X3.9255 Y5.6120
G01 X3.9255 Y5.4255
G01 X4.5745 Y5.4255
G01 X4.5745 Y5.6120
G00 Z1.0000
G00 X6.5745 Y5.6120
G01 F60.00
G01 Z-0.0900
G01 F500.00
G01 X6.5546 Y5.6048
G01 X6.5348 Y5.5982
G01 X6.5147 Y5.5927
G01 X6.4926 Y5.5873
G01 X6.4721 Y5.5832
G01 X6.4497 Y5.5797
G01 X6.4290 Y5.5772
G01 X6.4186 Y5.5763
G01 X6.3959 Y5.5751
G01 X6.3750 Y5.5745
G01 X6.1250 Y5.5745
G01 X6.1041 Y5.5751
G01 X6.0710 Y5.5772
G01 X6.0382 Y5.5815
G01 X6.0176 Y5.5851
G01 X5.9853 Y5.5927
G01 X5.9652 Y5.5982
G01 X5.9454 Y5.6048
G01 X5.9255 Y5.6120
G01 X5.9255 Y5.4255
G01 X6.5745 Y5.4255
G01 X6.5745 Y5.6120
G00 Z1.0000
G00 X8.5745 Y5.6120
G01 F60.00
G01 Z-0.0900
G01 F500.00
G01 X8.5546 Y5.6048
G01 X8.5348 Y5.5982
G01 X8.5147 Y5.5927
G01 X8.4926 Y5.5873
G01 X8.4721 Y5.5832
G01 X8.4497 Y5.5797
G01 X8.4290 Y5.5772
G01 X8.4186 Y5.5763
G01 X8.3959 Y5.5751
G01 X8.3750 Y5.5745
G01 X8.1250 Y5.5745
G01 X8.1041 Y5.5751
G01 X8.0710 Y5.5772
G01 X8.0382 Y5.5815
G01 X8.0176 Y5.5851
G01 X7.9853 Y5.5927
G01 X7.9652 Y5.5982
G01 X7.9454 Y5.6048
G01 X7.9255 Y5.6120
G01 X7.9255 Y5.4255
G01 X8.5745 Y5.4255
G01 X8.5745 Y5.6120
G00 Z1.0000
G00 X10.5745 Y5.6120
G01 F60.00
G01 Z-0.0900
G01 F500.00
G01 X10.5546 Y5.6048
G01 X10.5348 Y5.5982
G01 X10.5147 Y5.5927
G01 X10.4926 Y5.5873
G01 X10.4721 Y5.5832
G01 X10.4497 Y5.5797
G01 X10.4290 Y5.5772
G01 X10.4186 Y5.5763
G01 X10.3959 Y5.5751
G01 X10.3750 Y5.5745
G01 X10.1250 Y5.5745
G01 X10.1041 Y5.5751
G01 X10.0710 Y5.5772
G01 X10.0382 Y5.5815
G01 X10.0176 Y5.5851
G01 X9.9853 Y5.5927
G01 X9.9652 Y5.5982
G01 X9.9454 Y5.6048
G01 X9.9255 Y5.6120
G01 X9.9255 Y5.4255
G01 X10.5745 Y5.4255
G01 X10.5745 Y5.6120
G00 Z1.0000
G00 X12.5745 Y5.6120
G01 F60.00
G01 Z-0.0900
G01 F500.00
G01 X12.5546 Y5.6048
G01 X12.5348 Y5.5982
G01 X12.5147 Y5.5927
G01 X12.4926 Y5.5873
G01 X12.4721 Y5.5832
G01 X12.4497 Y5.5797
G01 X12.4290 Y5.5772
G01 X12.4186 Y5.5763
G01 X12.3959 Y5.5751
G01 X12.3750 Y5.5745
G01 X12.1250 Y5.5745
G01 X12.1041 Y5.5751
G01 X12.0710 Y5.5772
G01 X12.0382 Y5.5815
G01 X12.0176 Y5.5851
G01 X11.9853 Y5.5927
G01 X11.9652 Y5.5982
G01 X11.9454 Y5.6048
G01 X11.9255 Y5.6120
G01 X11.9255 Y5.4255
G01 X12.5745 Y5.4255
G01 X12.5745 Y5.6120
G00 Z1.0000
G00 X14.5745 Y5.6120
G01 F60.00
G01 Z-0.0900
G01 F500.00
G01 X14.5546 Y5.6048
G01 X14.5348 Y5.5982
G01 X14.5147 Y5.5927
G01 X14.4926 Y5.5873
G01 X14.4721 Y5.5832
G01 X14.4497 Y5.5797
G01 X14.4290 Y5.5772
G01 X14.4186 Y5.5763
G01 X14.3959 Y5.5751
G01 X14.3750 Y5.5745
G01 X14.1250 Y5.5745
G01 X14.1041 Y5.5751
G01 X14.0710 Y5.5772
G01 X14.0382 Y5.5815
G01 X14.0176 Y5.5851
G01 X13.9853 Y5.5927
G01 X13.9652 Y5.5982
G01 X13.9454 Y5.6048
G01 X13.9255 Y5.6120
G01 X13.9255 Y5.4255
G01 X14.5745 Y5.4255
G01 X14.5745 Y5.6120
G00 Z1.0000
G00 X16.5745 Y5.6120
G01 F60.00
G01 Z-0.0900
G01 F500.00
G01 X16.5546 Y5.6048
G01 X16.5348 Y5.5982
G01 X16.5147 Y5.5927
G01 X16.4926 Y5.5873
G01 X16.4721 Y5.5832
G01 X16.4497 Y5.5797
G01 X16.4393 Y5.5783
G01 X16.4186 Y5.5763
G01 X16.3959 Y5.5751
G01 X16.3750 Y5.5745
G01 X16.1250 Y5.5745
G01 X16.1041 Y5.5751
G01 X16.0710 Y5.5772
G01 X16.0382 Y5.5815
G01 X16.0176 Y5.5851
G01 X15.9972 Y5.5897
G01 X15.9652 Y5.5982
G01 X15.9454 Y5.6048
G01 X15.9255 Y5.6120
G01 X15.9255 Y5.4255
G01 X16.5745 Y5.4255
G01 X16.5745 Y5.6120
G00 Z1.0000
G00 X18.5745 Y5.6120
G01 F60.00
G01 Z-0.0900
G01 F500.00
G01 X18.5546 Y5.6048
G01 X18.5348 Y5.5982
G01 X18.5147 Y5.5927
G01 X18.4926 Y5.5873
G01 X18.4721 Y5.5832
G01 X18.4497 Y5.5797
G01 X18.4393 Y5.5783
G01 X18.4186 Y5.5763
G01 X18.3959 Y5.5751
G01 X18.3750 Y5.5745
G01 X18.1250 Y5.5745
G01 X18.1041 Y5.5751
G01 X18.0710 Y5.5772
G01 X18.0382 Y5.5815
G01 X18.0176 Y5.5851
G01 X17.9972 Y5.5897
G01 X17.9652 Y5.5982
G01 X17.9454 Y5.6048
G01 X17.9255 Y5.6120
G01 X17.9255 Y5.4255
G01 X18.5745 Y5.4255
G01 X18.5745 Y5.6120
G00 Z1.0000
G00 X20.5745 Y5.6120
G01 F60.00
G01 Z-0.0900
G01 F500.00
G01 X20.5546 Y5.6048
G01 X20.5348 Y5.5982
G01 X20.5147 Y5.5927
G01 X20.4926 Y5.5873
G01 X20.4721 Y5.5832
G01 X20.4497 Y5.5797
G01 X20.4393 Y5.5783
G01 X20.4186 Y5.5763
G01 X20.3959 Y5.5751
G01 X20.3750 Y5.5745
G01 X20.1250 Y5.5745
G01 X20.1041 Y5.5751
G01 X20.0710 Y5.5772
G01 X20.0382 Y5.5815
G01 X20.0176 Y5.5851
G01 X19.9972 Y5.5897
G01 X19.9652 Y5.5982
G01 X19.9454 Y5.6048
G01 X19.9255 Y5.6120
G01 X19.9255 Y5.4255
G01 X20.5745 Y5.4255
G01 X20.5745 Y5.6120
G00 Z1.0000
G00 X22.5745 Y5.6120
G01 F60.00
G01 Z-0.0900
G01 F500.00
G01 X22.5546 Y5.6048
G01 X22.5348 Y5.5982
G01 X22.5147 Y5.5927
G01 X22.4926 Y5.5873
G01 X22.4721 Y5.5832
G01 X22.4497 Y5.5797
G01 X22.4393 Y5.5783
G01 X22.4186 Y5.5763
G01 X22.3959 Y5.5751
G01 X22.3750 Y5.5745
G01 X22.1250 Y5.5745
G01 X22.1041 Y5.5751
G01 X22.0710 Y5.5772
G01 X22.0382 Y5.5815
G01 X22.0176 Y5.5851
G01 X21.9972 Y5.5897
G01 X21.9652 Y5.5982
G01 X21.9454 Y5.6048
G01 X21.9255 Y5.6120
G01 X21.9255 Y5.4255
G01 X22.5745 Y5.4255
G01 X22.5745 Y5.6120
G00 Z1.0000
G00 X21.5745 Y21.3880
G01 F60.00
G01 Z-0.0900
G01 F500.00
G01 X21.5745 Y21.5743
G01 X20.9255 Y21.5743
G01 X20.9255 Y21.3880
G01 X20.9454 Y21.3952
G01 X20.9652 Y21.4018
G01 X20.9853 Y21.4073
G01 X21.0074 Y21.4127
G01 X21.0279 Y21.4168
G01 X21.0503 Y21.4203
G01 X21.0710 Y21.4228
G01 X21.0814 Y21.4237
G01 X21.1041 Y21.4249
G01 X21.1250 Y21.4255
G01 X21.3750 Y21.4255
G01 X21.3959 Y21.4249
G01 X21.4290 Y21.4228
G01 X21.4618 Y21.4185
G01 X21.4824 Y21.4149
G01 X21.5028 Y21.4103
G01 X21.5348 Y21.4018
G01 X21.5546 Y21.3952
G01 X21.5745 Y21.3880
G00 Z1.0000
G00 X19.5745 Y21.3880
G01 F60.00
G01 Z-0.0900
G01 F500.00
G01 X19.5745 Y21.5743
G01 X18.9255 Y21.5743
G01 X18.9255 Y21.3880
G01 X18.9454 Y21.3952
G01 X18.9652 Y21.4018
G01 X18.9853 Y21.4073
G01 X19.0074 Y21.4127
G01 X19.0279 Y21.4168
G01 X19.0503 Y21.4203
G01 X19.0710 Y21.4228
G01 X19.0814 Y21.4237
G01 X19.1041 Y21.4249
G01 X19.1250 Y21.4255
G01 X19.3750 Y21.4255
G01 X19.3959 Y21.4249
G01 X19.4290 Y21.4228
G01 X19.4618 Y21.4185
G01 X19.4824 Y21.4149
G01 X19.5028 Y21.4103
G01 X19.5348 Y21.4018
G01 X19.5546 Y21.3952
G01 X19.5745 Y21.3880
G00 Z1.0000
G00 X17.5745 Y21.3880
G01 F60.00
G01 Z-0.0900
G01 F500.00
G01 X17.5745 Y21.5743
G01 X16.9255 Y21.5743
G01 X16.9255 Y21.3880
G01 X16.9454 Y21.3952
G01 X16.9652 Y21.4018
G01 X16.9853 Y21.4073
G01 X17.0074 Y21.4127
G01 X17.0279 Y21.4168
G01 X17.0503 Y21.4203
G01 X17.0710 Y21.4228
G01 X17.0814 Y21.4237
G01 X17.1041 Y21.4249
G01 X17.1250 Y21.4255
G01 X17.3750 Y21.4255
G01 X17.3959 Y21.4249
G01 X17.4290 Y21.4228
G01 X17.4618 Y21.4185
G01 X17.4824 Y21.4149
G01 X17.5028 Y21.4103
G01 X17.5348 Y21.4018
G01 X17.5546 Y21.3952
G01 X17.5745 Y21.3880
G00 Z1.0000
G00 X15.5745 Y21.3880
G01 F60.00
G01 Z-0.0900
G01 F500.00
G01 X15.5745 Y21.5743
G01 X14.9255 Y21.5743
G01 X14.9255 Y21.3880
G01 X14.9454 Y21.3952
G01 X14.9652 Y21.4018
G01 X14.9853 Y21.4073
G01 X15.0074 Y21.4127
G01 X15.0279 Y21.4168
G01 X15.0503 Y21.4203
G01 X15.0607 Y21.4217
G01 X15.0814 Y21.4237
G01 X15.1041 Y21.4249
G01 X15.1250 Y21.4255
G01 X15.3750 Y21.4255
G01 X15.3959 Y21.4249
G01 X15.4290 Y21.4228
G01 X15.4618 Y21.4185
G01 X15.4824 Y21.4149
G01 X15.5147 Y21.4073
G01 X15.5348 Y21.4018
G01 X15.5546 Y21.3952
G01 X15.5745 Y21.3880
G00 Z1.0000
G00 X13.5745 Y21.3880
G01 F60.00
G01 Z-0.0900
G01 F500.00
G01 X13.5745 Y21.5743
G01 X12.9255 Y21.5743
G01 X12.9255 Y21.3880
G01 X12.9454 Y21.3952
G01 X12.9652 Y21.4018
G01 X12.9853 Y21.4073
G01 X13.0074 Y21.4127
G01 X13.0279 Y21.4168
G01 X13.0503 Y21.4203
G01 X13.0607 Y21.4217
G01 X13.0814 Y21.4237
G01 X13.1041 Y21.4249
G01 X13.1250 Y21.4255
G01 X13.3750 Y21.4255
G01 X13.3959 Y21.4249
G01 X13.4290 Y21.4228
G01 X13.4618 Y21.4185
G01 X13.4824 Y21.4149
G01 X13.5147 Y21.4073
G01 X13.5348 Y21.4018
G01 X13.5546 Y21.3952
G01 X13.5745 Y21.3880
G00 Z1.0000
G00 X11.5745 Y21.3880
G01 F60.00
G01 Z-0.0900
G01 F500.00
G01 X11.5745 Y21.5743
G01 X10.9255 Y21.5743
G01 X10.9255 Y21.3880
G01 X10.9454 Y21.3952
G01 X10.9652 Y21.4018
G01 X10.9853 Y21.4073
G01 X11.0074 Y21.4127
G01 X11.0279 Y21.4168
G01 X11.0503 Y21.4203
G01 X11.0607 Y21.4217
G01 X11.0814 Y21.4237
G01 X11.1041 Y21.4249
G01 X11.1250 Y21.4255
G01 X11.3750 Y21.4255
G01 X11.3959 Y21.4249
G01 X11.4290 Y21.4228
G01 X11.4618 Y21.4185
G01 X11.4824 Y21.4149
G01 X11.5147 Y21.4073
G01 X11.5348 Y21.4018
G01 X11.5546 Y21.3952
G01 X11.5745 Y21.3880
G00 Z1.0000
G00 X9.5745 Y21.3880
G01 F60.00
G01 Z-0.0900
G01 F500.00
G01 X9.5745 Y21.5743
G01 X8.9255 Y21.5743
G01 X8.9255 Y21.3880
G01 X8.9454 Y21.3952
G01 X8.9652 Y21.4018
G01 X8.9853 Y21.4073
G01 X9.0074 Y21.4127
G01 X9.0279 Y21.4168
G01 X9.0503 Y21.4203
G01 X9.0607 Y21.4217
G01 X9.0814 Y21.4237
G01 X9.1041 Y21.4249
G01 X9.1250 Y21.4255
G01 X9.3750 Y21.4255
G01 X9.3959 Y21.4249
G01 X9.4290 Y21.4228
G01 X9.4618 Y21.4185
G01 X9.4824 Y21.4149
G01 X9.5147 Y21.4073
G01 X9.5348 Y21.4018
G01 X9.5546 Y21.3952
G01 X9.5745 Y21.3880
G00 Z1.0000
G00 X7.5745 Y21.3880
G01 F60.00
G01 Z-0.0900
G01 F500.00
G01 X7.5745 Y21.5743
G01 X6.9255 Y21.5743
G01 X6.9255 Y21.3880
G01 X6.9454 Y21.3952
G01 X6.9652 Y21.4018
G01 X6.9853 Y21.4073
G01 X7.0074 Y21.4127
G01 X7.0279 Y21.4168
G01 X7.0503 Y21.4203
G01 X7.0607 Y21.4217
G01 X7.0814 Y21.4237
G01 X7.1041 Y21.4249
G01 X7.1250 Y21.4255
G01 X7.3750 Y21.4255
G01 X7.3959 Y21.4249
G01 X7.4290 Y21.4228
G01 X7.4618 Y21.4185
G01 X7.4824 Y21.4149
G01 X7.5147 Y21.4073
G01 X7.5348 Y21.4018
G01 X7.5546 Y21.3952
G01 X7.5745 Y21.3880
G00 Z1.0000
G00 X5.5745 Y21.3880
G01 F60.00
G01 Z-0.0900
G01 F500.00
G01 X5.5745 Y21.5743
G01 X4.9255 Y21.5743
G01 X4.9255 Y21.3880
G01 X4.9454 Y21.3952
G01 X4.9652 Y21.4018
G01 X4.9853 Y21.4073
G01 X5.0074 Y21.4127
G01 X5.0279 Y21.4168
G01 X5.0503 Y21.4203
G01 X5.0607 Y21.4217
G01 X5.0814 Y21.4237
G01 X5.1041 Y21.4249
G01 X5.1250 Y21.4255
G01 X5.3750 Y21.4255
G01 X5.3959 Y21.4249
G01 X5.4290 Y21.4228
G01 X5.4618 Y21.4185
G01 X5.4824 Y21.4149
G01 X5.5147 Y21.4073
G01 X5.5348 Y21.4018
G01 X5.5546 Y21.3952
G01 X5.5745 Y21.3880
G00 Z1.0000
G00 X3.5745 Y21.3880
G01 F60.00
G01 Z-0.0900
G01 F500.00
G01 X3.5745 Y21.5743
G01 X2.5000 Y21.5743
G01 X2.4791 Y21.5748
G01 X2.4301 Y21.5772
G01 X2.4197 Y21.5779
G01 X2.3989 Y21.5799
G01 X2.3400 Y21.5885
G01 X2.3194 Y21.5921
G01 X2.2990 Y21.5967
G01 X2.2514 Y21.6086
G01 X2.2313 Y21.6142
G01 X2.2213 Y21.6173
G01 X2.1652 Y21.6372
G01 X2.1457 Y21.6448
G01 X2.1267 Y21.6532
G01 X2.0729 Y21.6788
G01 X2.0636 Y21.6836
G01 X2.0455 Y21.6939
G01 X2.0033 Y21.7191
G01 X1.9857 Y21.7303
G01 X1.9686 Y21.7423
G01 X1.9257 Y21.7742
G01 X1.9257 Y21.4593
G01 X2.0465 Y21.4276
G01 X3.0009 Y21.4256
G01 X3.0209 Y21.4251
G01 X3.0454 Y21.4239
G01 X3.0665 Y21.4223
G01 X3.0919 Y21.4243
G01 X3.1250 Y21.4255
G01 X3.3854 Y21.4253
G01 X3.4081 Y21.4243
G01 X3.4290 Y21.4228
G01 X3.4618 Y21.4185
G01 X3.4824 Y21.4149
G01 X3.5147 Y21.4073
G01 X3.5348 Y21.4018
G01 X3.5546 Y21.3952
G01 X3.5745 Y21.3880
G00 Z1.0000
G00 X1.8478 Y27.5000
G01 F60.00
G01 Z-0.0900
G01 F500.00
G01 X1.8478 Y22.5000
G01 X1.8509 Y22.4361
G01 X1.8591 Y22.3801
G01 X1.8620 Y22.3655
G01 X1.8739 Y22.3179
G01 X1.8782 Y22.3036
G01 X1.8974 Y22.2504
G01 X1.9215 Y22.1992
G01 X1.9285 Y22.1861
G01 X1.9577 Y22.1377
G01 X1.9913 Y22.0921
G01 X2.0007 Y22.0806
G01 X2.0388 Y22.0388
G01 X2.0806 Y22.0007
G01 X2.0921 Y21.9913
G01 X2.1377 Y21.9577
G01 X2.1861 Y21.9285
G01 X2.1992 Y21.9215
G01 X2.2504 Y21.8974
G01 X2.3036 Y21.8782
G01 X2.3179 Y21.8739
G01 X2.3691 Y21.8611
G01 X2.3801 Y21.8591
G01 X2.4361 Y21.8509
G01 X2.5000 Y21.8478
G01 X3.8481 Y21.8478
G01 X3.8481 Y6.1250
G01 X3.8494 Y6.0979
G01 X3.8534 Y6.0710
G01 X3.8600 Y6.0446
G01 X3.8691 Y6.0190
G01 X3.8808 Y5.9944
G01 X3.8947 Y5.9711
G01 X3.9109 Y5.9493
G01 X3.9266 Y5.9318
G01 X3.9437 Y5.9158
G01 X3.9552 Y5.9063
G01 X3.9743 Y5.8927
G01 X3.9912 Y5.8826
G01 X3.9978 Y5.8790
G01 X4.0190 Y5.8691
G01 X4.0446 Y5.8600
G01 X4.0710 Y5.8534
G01 X4.0905 Y5.8503
G01 X4.1016 Y5.8491
G01 X4.1250 Y5.8481
G01 X4.3787 Y5.8481
G01 X4.3984 Y5.8491
G01 X4.4095 Y5.8503
G01 X4.4290 Y5.8534
G01 X4.4482 Y5.8580
G01 X4.4625 Y5.8623
G01 X4.4844 Y5.8706
G01 X4.5056 Y5.8808
G01 X4.5289 Y5.8947
G01 X4.5507 Y5.9109
G01 X4.5654 Y5.9240
G01 X4.5760 Y5.9346
G01 X4.5914 Y5.9522
G01 X4.6053 Y5.9711
G01 X4.6174 Y5.9912
G01 X4.6278 Y6.0122
G01 X4.6336 Y6.0260
G01 X4.6400 Y6.0446
G01 X4.6466 Y6.0710
G01 X4.6506 Y6.0979
G01 X4.6518 Y6.1175
G01 X4.6520 Y21.8478
G01 X5.8481 Y21.8478
G01 X5.8481 Y6.1213
G01 X5.8494 Y6.0979
G01 X5.8534 Y6.0710
G01 X5.8600 Y6.0446
G01 X5.8691 Y6.0190
G01 X5.8808 Y5.9944
G01 X5.8947 Y5.9711
G01 X5.9109 Y5.9493
G01 X5.9292 Y5.9292
G01 X5.9493 Y5.9109
G01 X5.9711 Y5.8947
G01 X5.9944 Y5.8808
G01 X6.0190 Y5.8691
G01 X6.0446 Y5.8600
G01 X6.0710 Y5.8534
G01 X6.0979 Y5.8494
G01 X6.1250 Y5.8481
G01 X6.3750 Y5.8481
G01 X6.3984 Y5.8491
G01 X6.4059 Y5.8498
G01 X6.4254 Y5.8527
G01 X6.4327 Y5.8541
G01 X6.4518 Y5.8589
G01 X6.4589 Y5.8611
G01 X6.4775 Y5.8677
G01 X6.4844 Y5.8706
G01 X6.5022 Y5.8790
G01 X6.5226 Y5.8907
G01 X6.5319 Y5.8968
G01 X6.5507 Y5.9109
G01 X6.5654 Y5.9240
G01 X6.5734 Y5.9318
G01 X6.5891 Y5.9493
G01 X6.6010 Y5.9650
G01 X6.6073 Y5.9743
G01 X6.6192 Y5.9944
G01 X6.6278 Y6.0122
G01 X6.6323 Y6.0225
G01 X6.6400 Y6.0446
G01 X6.6459 Y6.0673
G01 X6.6479 Y6.0783
G01 X6.6506 Y6.0979
G01 X6.6519 Y6.1213
G01 X6.6520 Y21.8478
G01 X7.8481 Y21.8478
G01 X7.8481 Y6.1213
G01 X7.8494 Y6.0979
G01 X7.8534 Y6.0710
G01 X7.8600 Y6.0446
G01 X7.8691 Y6.0190
G01 X7.8808 Y5.9944
G01 X7.8947 Y5.9711
G01 X7.9109 Y5.9493
G01 X7.9292 Y5.9292
G01 X7.9493 Y5.9109
G01 X7.9711 Y5.8947
G01 X7.9944 Y5.8808
G01 X8.0190 Y5.8691
G01 X8.0446 Y5.8600
G01 X8.0710 Y5.8534
G01 X8.0979 Y5.8494
G01 X8.1250 Y5.8481
G01 X8.3750 Y5.8481
G01 X8.3984 Y5.8491
G01 X8.4059 Y5.8498
G01 X8.4254 Y5.8527
G01 X8.4327 Y5.8541
G01 X8.4518 Y5.8589
G01 X8.4589 Y5.8611
G01 X8.4775 Y5.8677
G01 X8.4844 Y5.8706
G01 X8.5022 Y5.8790
G01 X8.5226 Y5.8907
G01 X8.5319 Y5.8968
G01 X8.5507 Y5.9109
G01 X8.5654 Y5.9240
G01 X8.5734 Y5.9318
G01 X8.5891 Y5.9493
G01 X8.6010 Y5.9650
G01 X8.6073 Y5.9743
G01 X8.6192 Y5.9944
G01 X8.6278 Y6.0122
G01 X8.6323 Y6.0225
G01 X8.6400 Y6.0446
G01 X8.6459 Y6.0673
G01 X8.6479 Y6.0783
G01 X8.6506 Y6.0979
G01 X8.6519 Y6.1213
G01 X8.6520 Y21.8478
G01 X9.8481 Y21.8478
G01 X9.8481 Y6.1213
G01 X9.8494 Y6.0979
G01 X9.8534 Y6.0710
G01 X9.8600 Y6.0446
G01 X9.8691 Y6.0190
G01 X9.8808 Y5.9944
G01 X9.8947 Y5.9711
G01 X9.9109 Y5.9493
G01 X9.9292 Y5.9292
G01 X9.9493 Y5.9109
G01 X9.9711 Y5.8947
G01 X9.9944 Y5.8808
G01 X10.0190 Y5.8691
G01 X10.0446 Y5.8600
G01 X10.0710 Y5.8534
G01 X10.0979 Y5.8494
G01 X10.1250 Y5.8481
G01 X10.3750 Y5.8481
G01 X10.3984 Y5.8491
G01 X10.4059 Y5.8498
G01 X10.4254 Y5.8527
G01 X10.4327 Y5.8541
G01 X10.4518 Y5.8589
G01 X10.4589 Y5.8611
G01 X10.4775 Y5.8677
G01 X10.4844 Y5.8706
G01 X10.5022 Y5.8790
G01 X10.5226 Y5.8907
G01 X10.5319 Y5.8968
G01 X10.5507 Y5.9109
G01 X10.5654 Y5.9240
G01 X10.5734 Y5.9318
G01 X10.5891 Y5.9493
G01 X10.6010 Y5.9650
G01 X10.6073 Y5.9743
G01 X10.6192 Y5.9944
G01 X10.6278 Y6.0122
G01 X10.6323 Y6.0225
G01 X10.6400 Y6.0446
G01 X10.6459 Y6.0673
G01 X10.6479 Y6.0783
G01 X10.6506 Y6.0979
G01 X10.6519 Y6.1213
G01 X10.6520 Y21.8478
G01 X11.8481 Y21.8478
G01 X11.8481 Y6.1213
G01 X11.8494 Y6.0979
G01 X11.8534 Y6.0710
G01 X11.8600 Y6.0446
G01 X11.8691 Y6.0190
G01 X11.8808 Y5.9944
G01 X11.8947 Y5.9711
G01 X11.9109 Y5.9493
G01 X11.9292 Y5.9292
G01 X11.9493 Y5.9109
G01 X11.9711 Y5.8947
G01 X11.9944 Y5.8808
G01 X12.0190 Y5.8691
G01 X12.0446 Y5.8600
G01 X12.0710 Y5.8534
G01 X12.0979 Y5.8494
G01 X12.1250 Y5.8481
G01 X12.3750 Y5.8481
G01 X12.3984 Y5.8491
G01 X12.4059 Y5.8498
G01 X12.4254 Y5.8527
G01 X12.4327 Y5.8541
G01 X12.4518 Y5.8589
G01 X12.4589 Y5.8611
G01 X12.4775 Y5.8677
G01 X12.4844 Y5.8706
G01 X12.5022 Y5.8790
G01 X12.5226 Y5.8907
G01 X12.5319 Y5.8968
G01 X12.5507 Y5.9109
G01 X12.5654 Y5.9240
G01 X12.5734 Y5.9318
G01 X12.5891 Y5.9493
G01 X12.6010 Y5.9650
G01 X12.6073 Y5.9743
G01 X12.6192 Y5.9944
G01 X12.6278 Y6.0122
G01 X12.6323 Y6.0225
G01 X12.6400 Y6.0446
G01 X12.6459 Y6.0673
G01 X12.6479 Y6.0783
G01 X12.6506 Y6.0979
G01 X12.6519 Y6.1213
G01 X12.6520 Y21.8478
G01 X13.8481 Y21.8478
G01 X13.8481 Y6.1213
G01 X13.8494 Y6.0979
G01 X13.8534 Y6.0710
G01 X13.8600 Y6.0446
G01 X13.8691 Y6.0190
G01 X13.8808 Y5.9944
G01 X13.8947 Y5.9711
G01 X13.9109 Y5.9493
G01 X13.9292 Y5.9292
G01 X13.9493 Y5.9109
G01 X13.9711 Y5.8947
G01 X13.9944 Y5.8808
G01 X14.0190 Y5.8691
G01 X14.0446 Y5.8600
G01 X14.0710 Y5.8534
G01 X14.0979 Y5.8494
G01 X14.1250 Y5.8481
G01 X14.3750 Y5.8481
G01 X14.3984 Y5.8491
G01 X14.4059 Y5.8498
G01 X14.4254 Y5.8527
G01 X14.4327 Y5.8541
G01 X14.4518 Y5.8589
G01 X14.4589 Y5.8611
G01 X14.4775 Y5.8677
G01 X14.4844 Y5.8706
G01 X14.5022 Y5.8790
G01 X14.5226 Y5.8907
G01 X14.5319 Y5.8968
G01 X14.5507 Y5.9109
G01 X14.5654 Y5.9240
G01 X14.5734 Y5.9318
G01 X14.5891 Y5.9493
G01 X14.6010 Y5.9650
G01 X14.6073 Y5.9743
G01 X14.6192 Y5.9944
G01 X14.6278 Y6.0122
G01 X14.6323 Y6.0225
G01 X14.6400 Y6.0446
G01 X14.6459 Y6.0673
G01 X14.6479 Y6.0783
G01 X14.6506 Y6.0979
G01 X14.6519 Y6.1213
G01 X14.6520 Y21.8478
G01 X15.8481 Y21.8478
G01 X15.8481 Y6.1213
G01 X15.8494 Y6.0979
G01 X15.8534 Y6.0710
G01 X15.8600 Y6.0446
G01 X15.8691 Y6.0190
G01 X15.8808 Y5.9944
G01 X15.8947 Y5.9711
G01 X15.9109 Y5.9493
G01 X15.9292 Y5.9292
G01 X15.9493 Y5.9109
G01 X15.9711 Y5.8947
G01 X15.9944 Y5.8808
G01 X16.0190 Y5.8691
G01 X16.0446 Y5.8600
G01 X16.0710 Y5.8534
G01 X16.0979 Y5.8494
G01 X16.1250 Y5.8481
G01 X16.3750 Y5.8481
G01 X16.3984 Y5.8491
G01 X16.4059 Y5.8498
G01 X16.4254 Y5.8527
G01 X16.4327 Y5.8541
G01 X16.4518 Y5.8589
G01 X16.4589 Y5.8611
G01 X16.4775 Y5.8677
G01 X16.4844 Y5.8706
G01 X16.5022 Y5.8790
G01 X16.5120 Y5.8844
G01 X16.5319 Y5.8968
G01 X16.5507 Y5.9109
G01 X16.5654 Y5.9240
G01 X16.5734 Y5.9318
G01 X16.5891 Y5.9493
G01 X16.6010 Y5.9650
G01 X16.6073 Y5.9743
G01 X16.6192 Y5.9944
G01 X16.6278 Y6.0122
G01 X16.6323 Y6.0225
G01 X16.6400 Y6.0446
G01 X16.6459 Y6.0673
G01 X16.6479 Y6.0783
G01 X16.6506 Y6.0979
G01 X16.6519 Y6.1213
G01 X16.6520 Y21.8478
G01 X17.8481 Y21.8478
G01 X17.8481 Y6.1213
G01 X17.8494 Y6.0979
G01 X17.8534 Y6.0710
G01 X17.8600 Y6.0446
G01 X17.8691 Y6.0190
G01 X17.8808 Y5.9944
G01 X17.8947 Y5.9711
G01 X17.9109 Y5.9493
G01 X17.9292 Y5.9292
G01 X17.9493 Y5.9109
G01 X17.9711 Y5.8947
G01 X17.9944 Y5.8808
G01 X18.0190 Y5.8691
G01 X18.0446 Y5.8600
G01 X18.0710 Y5.8534
G01 X18.0979 Y5.8494
G01 X18.1250 Y5.8481
G01 X18.3750 Y5.8481
G01 X18.3984 Y5.8491
G01 X18.4059 Y5.8498
G01 X18.4254 Y5.8527
G01 X18.4327 Y5.8541
G01 X18.4518 Y5.8589
G01 X18.4589 Y5.8611
G01 X18.4775 Y5.8677
G01 X18.4844 Y5.8706
G01 X18.5022 Y5.8790
G01 X18.5120 Y5.8844
G01 X18.5319 Y5.8968
G01 X18.5507 Y5.9109
G01 X18.5654 Y5.9240
G01 X18.5734 Y5.9318
G01 X18.5891 Y5.9493
G01 X18.6010 Y5.9650
G01 X18.6073 Y5.9743
G01 X18.6192 Y5.9944
G01 X18.6278 Y6.0122
G01 X18.6323 Y6.0225
G01 X18.6400 Y6.0446
G01 X18.6459 Y6.0673
G01 X18.6479 Y6.0783
G01 X18.6506 Y6.0979
G01 X18.6519 Y6.1213
G01 X18.6520 Y21.8478
G01 X19.8481 Y21.8478
G01 X19.8481 Y6.1213
G01 X19.8494 Y6.0979
G01 X19.8534 Y6.0710
G01 X19.8600 Y6.0446
G01 X19.8691 Y6.0190
G01 X19.8808 Y5.9944
G01 X19.8947 Y5.9711
G01 X19.9109 Y5.9493
G01 X19.9292 Y5.9292
G01 X19.9493 Y5.9109
G01 X19.9711 Y5.8947
G01 X19.9944 Y5.8808
G01 X20.0190 Y5.8691
G01 X20.0446 Y5.8600
G01 X20.0710 Y5.8534
G01 X20.0979 Y5.8494
G01 X20.1250 Y5.8481
G01 X20.3750 Y5.8481
G01 X20.3984 Y5.8491
G01 X20.4059 Y5.8498
G01 X20.4254 Y5.8527
G01 X20.4327 Y5.8541
G01 X20.4518 Y5.8589
G01 X20.4589 Y5.8611
G01 X20.4775 Y5.8677
G01 X20.4844 Y5.8706
G01 X20.5022 Y5.8790
G01 X20.5120 Y5.8844
G01 X20.5319 Y5.8968
G01 X20.5507 Y5.9109
G01 X20.5654 Y5.9240
G01 X20.5734 Y5.9318
G01 X20.5891 Y5.9493
G01 X20.6010 Y5.9650
G01 X20.6073 Y5.9743
G01 X20.6192 Y5.9944
G01 X20.6278 Y6.0122
G01 X20.6323 Y6.0225
G01 X20.6400 Y6.0446
G01 X20.6459 Y6.0673
G01 X20.6479 Y6.0783
G01 X20.6506 Y6.0979
G01 X20.6519 Y6.1213
G01 X20.6520 Y21.8478
G01 X21.8481 Y21.8478
G01 X21.8482 Y6.1175
G01 X21.8494 Y6.0979
G01 X21.8534 Y6.0710
G01 X21.8600 Y6.0446
G01 X21.8664 Y6.0260
G01 X21.8722 Y6.0122
G01 X21.8826 Y5.9912
G01 X21.8947 Y5.9711
G01 X21.9086 Y5.9522
G01 X21.9240 Y5.9346
G01 X21.9346 Y5.9240
G01 X21.9493 Y5.9109
G01 X21.9711 Y5.8947
G01 X21.9944 Y5.8808
G01 X22.0122 Y5.8722
G01 X22.0260 Y5.8664
G01 X22.0482 Y5.8589
G01 X22.0710 Y5.8534
G01 X22.0905 Y5.8503
G01 X22.1016 Y5.8491
G01 X22.1213 Y5.8481
G01 X22.3750 Y5.8481
G01 X22.3947 Y5.8488
G01 X22.4059 Y5.8498
G01 X22.4290 Y5.8534
G01 X22.4554 Y5.8600
G01 X22.4810 Y5.8691
G01 X22.4989 Y5.8774
G01 X22.5120 Y5.8844
G01 X22.5319 Y5.8968
G01 X22.5507 Y5.9109
G01 X22.5682 Y5.9266
G01 X22.5760 Y5.9346
G01 X22.5891 Y5.9493
G01 X22.6053 Y5.9711
G01 X22.6192 Y5.9944
G01 X22.6309 Y6.0190
G01 X22.6400 Y6.0446
G01 X22.6466 Y6.0710
G01 X22.6506 Y6.0979
G01 X22.6519 Y6.1250
G01 X22.6520 Y21.8478
G01 X24.5000 Y21.8478
G01 X24.5639 Y21.8509
G01 X24.6236 Y21.8596
G01 X24.6345 Y21.8620
G01 X24.6893 Y21.8759
G01 X24.7426 Y21.8948
G01 X24.7564 Y21.9005
G01 X24.8074 Y21.9248
G01 X24.8560 Y21.9537
G01 X24.8684 Y21.9620
G01 X24.9138 Y21.9958
G01 X24.9612 Y22.0388
G01 X24.9993 Y22.0806
G01 X25.0087 Y22.0921
G01 X25.0423 Y22.1377
G01 X25.0715 Y22.1861
G01 X25.0785 Y22.1992
G01 X25.1011 Y22.2470
G01 X25.1052 Y22.2574
G01 X25.1241 Y22.3107
G01 X25.1397 Y22.3728
G01 X25.1491 Y22.4361
G01 X25.1522 Y22.5000
G01 X25.1522 Y27.5000
G01 X25.1491 Y27.5639
G01 X25.1409 Y27.6199
G01 X25.1380 Y27.6345
G01 X25.1261 Y27.6821
G01 X25.1218 Y27.6964
G01 X25.1026 Y27.7496
G01 X25.0752 Y27.8074
G01 X25.0423 Y27.8623
G01 X25.0087 Y27.9079
G01 X24.9993 Y27.9194
G01 X24.9663 Y27.9558
G01 X24.9558 Y27.9663
G01 X24.9138 Y28.0042
G01 X24.8623 Y28.0423
G01 X24.8074 Y28.0752
G01 X24.7564 Y28.0995
G01 X24.7426 Y28.1052
G01 X24.6964 Y28.1218
G01 X24.6821 Y28.1261
G01 X24.6272 Y28.1397
G01 X24.5639 Y28.1491
G01 X24.5000 Y28.1522
G01 X19.0746 Y28.1522
G01 X23.9638 Y33.0415
G01 X24.0042 Y33.0862
G01 X24.0380 Y33.1316
G01 X24.0463 Y33.1440
G01 X24.0752 Y33.1926
G01 X24.1026 Y33.2504
G01 X24.1218 Y33.3036
G01 X24.1261 Y33.3179
G01 X24.1380 Y33.3655
G01 X24.1409 Y33.3801
G01 X24.1491 Y33.4361
G01 X24.1522 Y33.5000
G01 X24.1522 Y42.0000
G01 X24.1491 Y42.0639
G01 X24.1404 Y42.1236
G01 X24.1380 Y42.1345
G01 X24.1241 Y42.1893
G01 X24.1052 Y42.2426
G01 X24.0995 Y42.2564
G01 X24.0785 Y42.3008
G01 X24.0715 Y42.3139
G01 X24.0423 Y42.3623
G01 X24.0087 Y42.4079
G01 X23.9993 Y42.4194
G01 X23.9612 Y42.4612
G01 X23.6703 Y42.7520
G01 X23.5936 Y42.9957
G01 X23.5901 Y43.0055
G01 X23.5851 Y43.0170
G01 X23.5656 Y43.0713
G01 X23.5612 Y43.0816
G01 X23.5178 Y43.1733
G01 X23.4988 Y43.2078
G01 X21.9976 Y45.8080
G01 X21.9917 Y45.8175
G01 X21.9862 Y45.8250
G01 X21.9618 Y45.8657
G01 X21.9557 Y45.8751
G01 X21.8928 Y45.9599
G01 X21.8856 Y45.9685
G01 X21.8172 Y46.0439
G01 X21.8092 Y46.0517
G01 X21.7364 Y46.1176
G01 X21.7249 Y46.1271
G01 X21.6400 Y46.1899
G01 X21.5430 Y46.2480
G01 X21.4477 Y46.2933
G01 X21.4339 Y46.2990
G01 X21.3344 Y46.3344
G01 X21.2247 Y46.3619
G01 X21.1203 Y46.3775
G01 X21.1055 Y46.3790
G01 X21.0000 Y46.3840
G01 X20.8871 Y46.3785
G01 X20.7753 Y46.3619
G01 X20.6728 Y46.3364
G01 X20.6585 Y46.3321
G01 X20.5661 Y46.2990
G01 X20.5523 Y46.2933
G01 X20.4570 Y46.2480
G01 X20.3600 Y46.1899
G01 X20.2692 Y46.1225
G01 X20.1908 Y46.0517
G01 X20.1803 Y46.0412
G01 X20.1144 Y45.9685
G01 X20.1049 Y45.9570
G01 X20.0422 Y45.8720
G01 X19.9877 Y45.7816
G01 X19.9807 Y45.7684
G01 X19.9388 Y45.6797
G01 X19.9331 Y45.6659
G01 X19.8977 Y45.5664
G01 X19.8702 Y45.4568
G01 X19.8545 Y45.3524
G01 X19.8530 Y45.3375
G01 X19.8481 Y45.2321
G01 X19.8533 Y45.1229
G01 X19.8545 Y45.1117
G01 X19.8702 Y45.0073
G01 X19.8977 Y44.8977
G01 X19.9357 Y44.7912
G01 X19.9807 Y44.6957
G01 X19.9853 Y44.6868
G01 X20.0024 Y44.6561
G01 X21.5024 Y42.0580
G01 X21.5083 Y42.0485
G01 X21.5138 Y42.0410
G01 X21.5382 Y42.0003
G01 X21.5443 Y41.9909
G01 X21.6049 Y41.9091
G01 X21.6144 Y41.8975
G01 X21.6803 Y41.8248
G01 X21.6908 Y41.8143
G01 X21.7692 Y41.7435
G01 X21.8539 Y41.6805
G01 X21.8631 Y41.6741
G01 X21.9537 Y41.6198
G01 X21.9603 Y41.6163
G01 X21.9795 Y41.6072
G01 X21.9882 Y41.6018
G01 X22.8478 Y41.1121
G01 X22.8478 Y33.7702
G01 X17.2298 Y28.1522
G01 X17.0000 Y28.1522
G01 X15.3559 Y28.5949
G01 X15.3379 Y28.6012
G01 X15.3308 Y28.6034
G01 X15.2320 Y28.6282
G01 X15.2174 Y28.6311
G01 X15.1129 Y28.6464
G01 X15.0000 Y28.6519
G01 X11.0000 Y28.6519
G01 X10.8908 Y28.6467
G01 X10.8797 Y28.6455
G01 X10.7753 Y28.6298
G01 X10.6728 Y28.6043
G01 X10.6621 Y28.6012
G01 X10.6441 Y28.5949
G01 X9.0000 Y28.1522
G01 X8.7702 Y28.1522
G01 X3.1522 Y33.7702
G01 X3.1522 Y41.1843
G01 X3.9934 Y41.5715
G01 X4.0064 Y41.5783
G01 X4.0310 Y41.5899
G01 X4.0409 Y41.5950
G01 X4.1303 Y41.6488
G01 X4.2170 Y41.7131
G01 X4.2971 Y41.7857
G01 X4.3647 Y41.8601
G01 X4.3719 Y41.8686
G01 X4.4321 Y41.9497
G01 X4.4720 Y42.0136
G01 X5.9296 Y44.5383
G01 X5.9365 Y44.5517
G01 X5.9471 Y44.5698
G01 X5.9933 Y44.6674
G01 X6.0297 Y44.7692
G01 X6.0559 Y44.8739
G01 X6.0718 Y44.9808
G01 X6.0769 Y45.0812
G01 X6.0769 Y45.0961
G01 X6.0718 Y45.1966
G01 X6.0559 Y45.3034
G01 X6.0317 Y45.4010
G01 X6.0274 Y45.4153
G01 X5.9933 Y45.5099
G01 X5.9471 Y45.6075
G01 X5.8916 Y45.7002
G01 X5.8318 Y45.7811
G01 X5.8224 Y45.7926
G01 X5.7547 Y45.8670
G01 X5.6747 Y45.9395
G01 X5.5940 Y45.9996
G01 X5.5816 Y46.0079
G01 X5.5017 Y46.0557
G01 X5.4886 Y46.0628
G01 X5.3976 Y46.1056
G01 X5.3030 Y46.1397
G01 X5.2887 Y46.1440
G01 X5.1911 Y46.1682
G01 X5.0843 Y46.1841
G01 X4.9838 Y46.1892
G01 X4.9689 Y46.1892
G01 X4.8759 Y46.1846
G01 X4.8611 Y46.1832
G01 X4.7616 Y46.1682
G01 X4.6569 Y46.1420
G01 X4.5552 Y46.1056
G01 X4.4642 Y46.0628
G01 X4.4510 Y46.0557
G01 X4.3712 Y46.0079
G01 X4.3588 Y45.9996
G01 X4.2781 Y45.9395
G01 X4.2035 Y45.8721
G01 X4.1929 Y45.8616
G01 X4.1304 Y45.7926
G01 X4.1232 Y45.7840
G01 X4.0630 Y45.7029
G01 X4.0231 Y45.6390
G01 X2.5655 Y43.1143
G01 X2.5586 Y43.1009
G01 X2.5463 Y43.0796
G01 X2.5033 Y42.9886
G01 X2.4991 Y42.9783
G01 X2.4829 Y42.9329
G01 X2.4785 Y42.9232
G01 X2.4640 Y42.8863
G01 X2.0388 Y42.4612
G01 X2.0007 Y42.4194
G01 X1.9935 Y42.4108
G01 X1.9620 Y42.3684
G01 X1.9537 Y42.3560
G01 X1.9248 Y42.3074
G01 X1.9005 Y42.2564
G01 X1.8948 Y42.2426
G01 X1.8759 Y42.1893
G01 X1.8603 Y42.1272
G01 X1.8509 Y42.0639
G01 X1.8478 Y42.0000
G01 X1.8478 Y33.5000
G01 X1.8509 Y33.4361
G01 X1.8591 Y33.3801
G01 X1.8620 Y33.3655
G01 X1.8739 Y33.3179
G01 X1.8782 Y33.3036
G01 X1.8974 Y33.2504
G01 X1.9248 Y33.1926
G01 X1.9537 Y33.1440
G01 X1.9620 Y33.1316
G01 X1.9958 Y33.0862
G01 X2.0362 Y33.0415
G01 X6.9254 Y28.1522
G01 X2.5000 Y28.1522
G01 X2.4435 Y28.1496
G01 X2.4324 Y28.1486
G01 X2.3728 Y28.1397
G01 X2.3107 Y28.1241
G01 X2.2504 Y28.1026
G01 X2.1926 Y28.0752
G01 X2.1377 Y28.0423
G01 X2.0862 Y28.0042
G01 X2.0388 Y27.9612
G01 X2.0007 Y27.9194
G01 X1.9913 Y27.9079
G01 X1.9598 Y27.8654
G01 X1.9537 Y27.8560
G01 X1.9338 Y27.8227
G01 X1.9266 Y27.8107
G01 X1.9215 Y27.8008
G01 X1.9005 Y27.7564
G01 X1.8948 Y27.7426
G01 X1.8759 Y27.6893
G01 X1.8603 Y27.6272
G01 X1.8509 Y27.5639
G01 X1.8478 Y27.5000
G00 Z1.0000
G00 X1.9257 Y28.2258
G01 F60.00
G01 Z-0.0900
G01 F500.00
G01 X1.9686 Y28.2577
G01 X1.9857 Y28.2697
G01 X2.0033 Y28.2809
G01 X2.0545 Y28.3114
G01 X2.0729 Y28.3212
G01 X2.1267 Y28.3468
G01 X2.1457 Y28.3552
G01 X2.1652 Y28.3628
G01 X2.2115 Y28.3793
G01 X2.2313 Y28.3858
G01 X2.2514 Y28.3914
G01 X2.2990 Y28.4033
G01 X2.3194 Y28.4079
G01 X2.3400 Y28.4115
G01 X2.3885 Y28.4187
G01 X2.4093 Y28.4213
G01 X2.4301 Y28.4228
G01 X2.4791 Y28.4252
G01 X2.5000 Y28.4257
G01 X6.2651 Y28.4257
G01 X1.9257 Y32.7651
G01 X1.9257 Y28.2258
G00 Z1.0000
G00 X2.1992 Y28.6603
G01 F60.00
G01 Z-0.0900
G01 F500.00
G01 X2.2326 Y28.6687
G01 X2.2660 Y28.6762
G01 X2.2998 Y28.6820
G01 X2.3654 Y28.6916
G01 X2.3995 Y28.6949
G01 X2.4167 Y28.6960
G01 X2.4657 Y28.6984
G01 X2.5000 Y28.6992
G01 X5.6048 Y28.6992
G01 X2.1992 Y32.1048
G01 X2.1992 Y28.6603
G00 Z1.0000
G00 X7.6830 Y30.0129
G01 F60.00
G01 Z-0.0900
G01 F500.00
G01 X8.9821 Y28.7139
G01 X9.8343 Y28.9433
G01 X9.5720 Y29.0344
G01 X9.5428 Y29.0453
G01 X8.9808 Y29.2834
G01 X8.9665 Y29.2896
G01 X8.9384 Y29.3030
G01 X8.4076 Y29.5713
G01 X8.3801 Y29.5860
G01 X7.8416 Y29.9049
G01 X7.8155 Y29.9220
G01 X7.6830 Y30.0129
G00 Z1.0000
G00 X8.1166 Y26.5743
G01 F60.00
G01 Z-0.0900
G01 F500.00
G01 X3.4257 Y26.5743
G01 X3.4257 Y23.4257
G01 X23.5743 Y23.4257
G01 X23.5743 Y26.5743
G01 X17.8834 Y26.5743
G01 X17.1546 Y25.8454
G01 X17.1395 Y25.8310
G01 X17.1031 Y25.7981
G01 X17.0953 Y25.7911
G01 X17.0791 Y25.7779
G01 X17.0314 Y25.7423
G01 X17.0143 Y25.7303
G01 X16.9967 Y25.7191
G01 X16.9545 Y25.6939
G01 X16.9455 Y25.6886
G01 X16.9271 Y25.6788
G01 X16.8733 Y25.6532
G01 X16.8543 Y25.6448
G01 X16.8348 Y25.6372
G01 X16.7885 Y25.6207
G01 X16.7687 Y25.6142
G01 X16.7486 Y25.6086
G01 X16.7010 Y25.5967
G01 X16.6806 Y25.5921
G01 X16.6600 Y25.5885
G01 X16.6011 Y25.5799
G01 X16.5803 Y25.5779
G01 X16.5209 Y25.5748
G01 X16.5000 Y25.5743
G01 X9.5000 Y25.5743
G01 X9.4791 Y25.5748
G01 X9.4197 Y25.5779
G01 X9.4093 Y25.5787
G01 X9.3885 Y25.5813
G01 X9.3400 Y25.5885
G01 X9.3194 Y25.5921
G01 X9.2990 Y25.5967
G01 X9.2514 Y25.6086
G01 X9.2313 Y25.6142
G01 X9.2115 Y25.6207
G01 X9.1652 Y25.6372
G01 X9.1457 Y25.6448
G01 X9.1267 Y25.6532
G01 X9.0823 Y25.6742
G01 X9.0636 Y25.6836
G01 X9.0455 Y25.6939
G01 X8.9945 Y25.7246
G01 X8.9857 Y25.7303
G01 X8.9686 Y25.7423
G01 X8.9292 Y25.7716
G01 X8.9127 Y25.7844
G01 X8.8832 Y25.8105
G01 X8.8605 Y25.8310
G01 X8.8454 Y25.8454
G01 X8.1166 Y26.5743
G00 Z1.0000
G00 X8.0033 Y26.3008
G01 F60.00
G01 Z-0.0900
G01 F500.00
G01 X3.6992 Y26.3008
G01 X3.6992 Y23.6992
G01 X23.3008 Y23.6992
G01 X23.3008 Y26.3008
G01 X17.9967 Y26.3008
G01 X17.3357 Y25.6400
G01 X17.2868 Y25.5954
G01 X17.2608 Y25.5730
G01 X17.2337 Y25.5519
G01 X17.1804 Y25.5126
G01 X17.1519 Y25.4935
G01 X17.1373 Y25.4845
G01 X17.0952 Y25.4593
G01 X17.0653 Y25.4424
G01 X17.0347 Y25.4270
G01 X16.9747 Y25.3988
G01 X16.9430 Y25.3857
G01 X16.9269 Y25.3797
G01 X16.8807 Y25.3632
G01 X16.8481 Y25.3524
G01 X16.8151 Y25.3433
G01 X16.7507 Y25.3274
G01 X16.7171 Y25.3207
G01 X16.7002 Y25.3180
G01 X16.6346 Y25.3084
G01 X16.6005 Y25.3051
G01 X16.5343 Y25.3016
G01 X16.5000 Y25.3008
G01 X9.5000 Y25.3008
G01 X9.4657 Y25.3016
G01 X9.3995 Y25.3051
G01 X9.3654 Y25.3084
G01 X9.3484 Y25.3108
G01 X9.2829 Y25.3207
G01 X9.2493 Y25.3274
G01 X9.1849 Y25.3433
G01 X9.1519 Y25.3524
G01 X9.1193 Y25.3632
G01 X9.0570 Y25.3857
G01 X9.0253 Y25.3988
G01 X9.0097 Y25.4060
G01 X8.9499 Y25.4345
G01 X8.9197 Y25.4507
G01 X8.8627 Y25.4845
G01 X8.8337 Y25.5029
G01 X8.8196 Y25.5126
G01 X8.7843 Y25.5385
G01 X8.7526 Y25.5623
G01 X8.7392 Y25.5730
G01 X8.7132 Y25.5954
G01 X8.6643 Y25.6400
G01 X8.0033 Y26.3008
G00 Z1.0000
G00 X9.0442 Y26.0337
G01 F60.00
G01 Z-0.0900
G01 F500.00
G01 X8.2298 Y26.8478
G01 X3.1522 Y26.8478
G01 X3.1522 Y23.1522
G01 X23.8478 Y23.1522
G01 X23.8478 Y26.8478
G01 X17.7702 Y26.8478
G01 X16.9612 Y26.0388
G01 X16.9138 Y25.9958
G01 X16.8623 Y25.9577
G01 X16.8139 Y25.9285
G01 X16.8008 Y25.9215
G01 X16.7496 Y25.8974
G01 X16.6893 Y25.8759
G01 X16.6345 Y25.8620
G01 X16.6199 Y25.8591
G01 X16.5713 Y25.8519
G01 X16.5565 Y25.8504
G01 X16.5000 Y25.8478
G01 X9.4963 Y25.8478
G01 X9.4361 Y25.8509
G01 X9.3728 Y25.8603
G01 X9.3107 Y25.8759
G01 X9.2504 Y25.8974
G01 X9.1926 Y25.9248
G01 X9.1377 Y25.9577
G01 X9.0862 Y25.9958
G01 X9.0442 Y26.0337
G00 Z1.0000
G00 X15.1209 Y28.9200
G01 F60.00
G01 Z-0.0900
G01 F500.00
G01 X15.1397 Y28.9186
G01 X15.1604 Y28.9160
G01 X15.2678 Y28.9000
G01 X15.2781 Y28.8981
G01 X15.2985 Y28.8935
G01 X15.3937 Y28.8696
G01 X15.4138 Y28.8641
G01 X15.4376 Y28.8561
G01 X17.0298 Y28.4274
G01 X17.1177 Y28.4269
G01 X22.5743 Y33.8834
G01 X22.5743 Y40.9531
G01 X21.8595 Y41.3604
G01 X21.8315 Y41.3750
G01 X21.8099 Y41.3871
G01 X21.7257 Y41.4376
G01 X21.7081 Y41.4487
G01 X21.6910 Y41.4608
G01 X21.6406 Y41.4981
G01 X21.8046 Y41.0723
G01 X21.8110 Y41.0545
G01 X21.9901 Y40.4774
G01 X21.9953 Y40.4592
G01 X22.1376 Y39.8621
G01 X22.1412 Y39.8435
G01 X22.2401 Y39.2570
G01 X22.2439 Y39.2288
G01 X22.3034 Y38.6370
G01 X22.3053 Y38.6087
G01 X22.3254 Y38.0047
G01 X22.3252 Y37.9858
G01 X22.3053 Y37.3913
G01 X22.3034 Y37.3630
G01 X22.2439 Y36.7712
G01 X22.2401 Y36.7430
G01 X22.1412 Y36.1565
G01 X22.1376 Y36.1379
G01 X21.9953 Y35.5408
G01 X21.9901 Y35.5226
G01 X21.8110 Y34.9455
G01 X21.8046 Y34.9277
G01 X21.5908 Y34.3726
G01 X21.5797 Y34.3464
G01 X21.3293 Y33.8069
G01 X21.3210 Y33.7899
G01 X21.0260 Y33.2517
G01 X21.0162 Y33.2355
G01 X20.6961 Y32.7341
G01 X20.6801 Y32.7107
G01 X20.3272 Y32.2319
G01 X20.3096 Y32.2095
G01 X19.9256 Y31.7553
G01 X19.9130 Y31.7411
G01 X19.4930 Y31.3067
G01 X19.4796 Y31.2934
G01 X19.0244 Y30.8817
G01 X19.0098 Y30.8696
G01 X18.5430 Y30.5010
G01 X18.5201 Y30.4841
G01 X18.0297 Y30.1475
G01 X18.0058 Y30.1322
G01 X17.4940 Y29.8291
G01 X17.4775 Y29.8198
G01 X16.9382 Y29.5472
G01 X16.9211 Y29.5390
G01 X16.3561 Y29.2994
G01 X16.3383 Y29.2928
G01 X15.7764 Y29.0977
G01 X15.7493 Y29.0892
G01 X15.1756 Y28.9321
G01 X15.1572 Y28.9275
G01 X15.1209 Y28.9200
G00 Z1.0000
G00 X16.1657 Y28.9433
G01 F60.00
G01 Z-0.0900
G01 F500.00
G01 X17.0179 Y28.7139
G01 X18.3170 Y30.0129
G01 X18.1845 Y29.9220
G01 X18.1584 Y29.9049
G01 X17.6199 Y29.5860
G01 X17.5924 Y29.5713
G01 X17.0616 Y29.3030
G01 X17.0335 Y29.2896
G01 X17.0192 Y29.2834
G01 X16.4572 Y29.0453
G01 X16.4280 Y29.0344
G01 X16.1657 Y28.9433
G00 Z1.0000
G00 X20.9897 Y32.6856
G01 F60.00
G01 Z-0.0900
G01 F500.00
G01 X22.3008 Y33.9967
G01 X22.3008 Y35.6422
G01 X22.2637 Y35.4866
G01 X22.2558 Y35.4565
G01 X22.0704 Y34.8587
G01 X22.0598 Y34.8294
G01 X21.8460 Y34.2743
G01 X21.8342 Y34.2455
G01 X21.5774 Y33.6918
G01 X21.5637 Y33.6638
G01 X21.5564 Y33.6501
G01 X21.2629 Y33.1149
G01 X21.2467 Y33.0883
G01 X20.9897 Y32.6856
G00 Z1.0000
G00 X22.3008 Y40.3578
G01 F60.00
G01 Z-0.0900
G01 F500.00
G01 X22.3008 Y40.7941
G01 X22.1519 Y40.8790
G01 X22.2558 Y40.5435
G01 X22.2637 Y40.5134
G01 X22.3008 Y40.3578
G00 Z1.0000
G00 X19.9210 Y44.2500
G01 F60.00
G01 Z-0.0900
G01 F500.00
G01 X19.9065 Y44.2658
G01 X19.4864 Y44.7000
G01 X19.4726 Y44.7131
G01 X19.0315 Y45.1120
G01 X19.0171 Y45.1244
G01 X18.5430 Y45.4990
G01 X18.5278 Y45.5104
G01 X18.0297 Y45.8525
G01 X18.0058 Y45.8678
G01 X17.4940 Y46.1709
G01 X17.4775 Y46.1802
G01 X16.9382 Y46.4528
G01 X16.9124 Y46.4648
G01 X16.3648 Y46.6970
G01 X16.3383 Y46.7072
G01 X15.7674 Y46.9053
G01 X15.7493 Y46.9108
G01 X15.2163 Y47.0568
G01 X15.2185 Y48.4057
G01 X15.5529 Y49.0745
G01 X16.3004 Y49.0747
G01 X16.3109 Y49.0751
G01 X16.3317 Y49.0766
G01 X16.3524 Y49.0791
G01 X16.3627 Y49.0808
G01 X16.3832 Y49.0849
G01 X16.4035 Y49.0900
G01 X16.4135 Y49.0929
G01 X16.4235 Y49.0960
G01 X16.4431 Y49.1030
G01 X16.4528 Y49.1069
G01 X16.4719 Y49.1154
G01 X16.4906 Y49.1248
G01 X16.4997 Y49.1298
G01 X16.5176 Y49.1405
G01 X16.5350 Y49.1522
G01 X16.5434 Y49.1583
G01 X16.5599 Y49.1711
G01 X16.5679 Y49.1778
G01 X16.5834 Y49.1919
G01 X16.5908 Y49.1992
G01 X16.6052 Y49.2143
G01 X16.6189 Y49.2301
G01 X16.6254 Y49.2382
G01 X16.6317 Y49.2466
G01 X16.6438 Y49.2636
G01 X16.6549 Y49.2813
G01 X16.6652 Y49.2994
G01 X16.6700 Y49.3087
G01 X16.6746 Y49.3181
G01 X16.6831 Y49.3372
G01 X16.6870 Y49.3469
G01 X16.6940 Y49.3665
G01 X16.6971 Y49.3765
G01 X16.7027 Y49.3966
G01 X16.7073 Y49.4170
G01 X16.7109 Y49.4376
G01 X16.7134 Y49.4583
G01 X16.7149 Y49.4791
G01 X16.7155 Y49.5000
G01 X16.7155 Y52.0000
G01 X16.7149 Y52.0209
G01 X16.7143 Y52.0313
G01 X16.7123 Y52.0521
G01 X16.7092 Y52.0727
G01 X16.7073 Y52.0830
G01 X16.7027 Y52.1034
G01 X16.6971 Y52.1235
G01 X16.6906 Y52.1433
G01 X16.6831 Y52.1628
G01 X16.6790 Y52.1724
G01 X16.6700 Y52.1913
G01 X16.6652 Y52.2006
G01 X16.6549 Y52.2187
G01 X16.6438 Y52.2364
G01 X16.6317 Y52.2534
G01 X16.6254 Y52.2618
G01 X16.6122 Y52.2779
G01 X16.5981 Y52.2934
G01 X16.5834 Y52.3081
G01 X16.5679 Y52.3222
G01 X16.5518 Y52.3354
G01 X16.5350 Y52.3478
G01 X16.5176 Y52.3595
G01 X16.5087 Y52.3649
G01 X16.4906 Y52.3752
G01 X16.4719 Y52.3846
G01 X16.4528 Y52.3931
G01 X16.4431 Y52.3970
G01 X16.4235 Y52.4040
G01 X16.4035 Y52.4100
G01 X16.3832 Y52.4151
G01 X16.3730 Y52.4173
G01 X16.3524 Y52.4209
G01 X16.3317 Y52.4234
G01 X16.3109 Y52.4249
G01 X16.2900 Y52.4255
G01 X13.2900 Y52.4255
G01 X13.2691 Y52.4249
G01 X13.2483 Y52.4234
G01 X13.2276 Y52.4209
G01 X13.2070 Y52.4173
G01 X13.1968 Y52.4151
G01 X13.1765 Y52.4100
G01 X13.1565 Y52.4040
G01 X13.1369 Y52.3970
G01 X13.1176 Y52.3890
G01 X13.0987 Y52.3800
G01 X13.0894 Y52.3752
G01 X13.0713 Y52.3649
G01 X13.0536 Y52.3538
G01 X13.0366 Y52.3417
G01 X13.0282 Y52.3354
G01 X13.0121 Y52.3222
G01 X12.9966 Y52.3081
G01 X12.9819 Y52.2934
G01 X12.9748 Y52.2857
G01 X12.9611 Y52.2699
G01 X12.9546 Y52.2618
G01 X12.9422 Y52.2450
G01 X12.9305 Y52.2276
G01 X12.9198 Y52.2097
G01 X12.9100 Y52.1913
G01 X12.9010 Y52.1724
G01 X12.8930 Y52.1531
G01 X12.8860 Y52.1335
G01 X12.8800 Y52.1135
G01 X12.8749 Y52.0932
G01 X12.8727 Y52.0830
G01 X12.8691 Y52.0624
G01 X12.8666 Y52.0417
G01 X12.8651 Y52.0209
G01 X12.8645 Y52.0000
G01 X12.8645 Y51.7202
G01 X12.8080 Y51.7964
G01 X12.7951 Y51.8129
G01 X12.7815 Y51.8287
G01 X12.6991 Y51.9196
G01 X12.6847 Y51.9347
G01 X12.6696 Y51.9491
G01 X12.5787 Y52.0315
G01 X12.5629 Y52.0451
G01 X12.5464 Y52.0580
G01 X12.4394 Y52.1372
G01 X12.4221 Y52.1488
G01 X12.4132 Y52.1543
G01 X12.3080 Y52.2173
G01 X12.2898 Y52.2276
G01 X12.2712 Y52.2370
G01 X12.1603 Y52.2895
G01 X12.1412 Y52.2979
G01 X12.1217 Y52.3054
G01 X12.0062 Y52.3468
G01 X11.9963 Y52.3502
G01 X11.9763 Y52.3562
G01 X11.8472 Y52.3887
G01 X11.8269 Y52.3933
G01 X11.8063 Y52.3968
G01 X11.6849 Y52.4148
G01 X11.6642 Y52.4174
G01 X11.6434 Y52.4189
G01 X11.5209 Y52.4249
G01 X11.5000 Y52.4255
G01 X10.5400 Y52.4255
G01 X10.5191 Y52.4249
G01 X10.3966 Y52.4189
G01 X10.3758 Y52.4174
G01 X10.3551 Y52.4148
G01 X10.2337 Y52.3968
G01 X10.2131 Y52.3933
G01 X10.1928 Y52.3887
G01 X10.0738 Y52.3589
G01 X10.0536 Y52.3533
G01 X10.0338 Y52.3468
G01 X9.9085 Y52.3018
G01 X9.8892 Y52.2938
G01 X9.8797 Y52.2895
G01 X9.7595 Y52.2324
G01 X9.7410 Y52.2226
G01 X9.7320 Y52.2173
G01 X9.6268 Y52.1543
G01 X9.6092 Y52.1431
G01 X9.5921 Y52.1311
G01 X9.4943 Y52.0585
G01 X9.4837 Y52.0549
G01 X9.4642 Y52.0474
G01 X9.4546 Y52.0433
G01 X9.4357 Y52.0344
G01 X8.2236 Y51.4257
G01 X6.4896 Y51.4256
G01 X6.4301 Y51.4228
G01 X6.4093 Y51.4213
G01 X6.3885 Y51.4187
G01 X6.3400 Y51.4115
G01 X6.3194 Y51.4079
G01 X6.2990 Y51.4033
G01 X6.2514 Y51.3914
G01 X6.2313 Y51.3858
G01 X6.2115 Y51.3793
G01 X6.1652 Y51.3628
G01 X6.1554 Y51.3591
G01 X6.1361 Y51.3511
G01 X6.0823 Y51.3258
G01 X6.0636 Y51.3164
G01 X6.0455 Y51.3061
G01 X6.0033 Y51.2809
G01 X5.9857 Y51.2697
G01 X5.9686 Y51.2577
G01 X5.9359 Y51.2334
G01 X5.9127 Y51.2156
G01 X5.8969 Y51.2019
G01 X5.8605 Y51.1690
G01 X5.8454 Y51.1546
G01 X0.3454 Y45.6546
G01 X0.3310 Y45.6395
G01 X0.2981 Y45.6031
G01 X0.2844 Y45.5873
G01 X0.2716 Y45.5708
G01 X0.2423 Y45.5314
G01 X0.2303 Y45.5143
G01 X0.2191 Y45.4967
G01 X0.1939 Y45.4545
G01 X0.1836 Y45.4364
G01 X0.1742 Y45.4177
G01 X0.1532 Y45.3733
G01 X0.1448 Y45.3543
G01 X0.1372 Y45.3348
G01 X0.1207 Y45.2885
G01 X0.1142 Y45.2687
G01 X0.1086 Y45.2486
G01 X0.0967 Y45.2010
G01 X0.0921 Y45.1806
G01 X0.0885 Y45.1600
G01 X0.0813 Y45.1115
G01 X0.0787 Y45.0907
G01 X0.0772 Y45.0699
G01 X0.0748 Y45.0209
G01 X0.0743 Y45.0000
G01 X0.0743 Y20.7500
G01 X0.0748 Y20.7291
G01 X0.0779 Y20.6697
G01 X0.0799 Y20.6489
G01 X0.0885 Y20.5900
G01 X0.0921 Y20.5694
G01 X0.0967 Y20.5490
G01 X0.1086 Y20.5014
G01 X0.1142 Y20.4813
G01 X0.1207 Y20.4615
G01 X0.1372 Y20.4152
G01 X0.1448 Y20.3957
G01 X0.1532 Y20.3767
G01 X0.1742 Y20.3323
G01 X0.1836 Y20.3136
G01 X0.1939 Y20.2955
G01 X0.2191 Y20.2533
G01 X0.2303 Y20.2357
G01 X0.2423 Y20.2186
G01 X0.2779 Y20.1709
G01 X0.2911 Y20.1547
G01 X0.3310 Y20.1105
G01 X0.3454 Y20.0954
G01 X0.3605 Y20.0810
G01 X0.4047 Y20.0411
G01 X0.4209 Y20.0279
G01 X0.4686 Y19.9923
G01 X0.4857 Y19.9803
G01 X0.5033 Y19.9691
G01 X0.5455 Y19.9439
G01 X0.5636 Y19.9336
G01 X0.5823 Y19.9242
G01 X0.6267 Y19.9032
G01 X0.6457 Y19.8948
G01 X0.6652 Y19.8872
G01 X0.7115 Y19.8707
G01 X0.7313 Y19.8642
G01 X0.7514 Y19.8586
G01 X0.7990 Y19.8467
G01 X0.8194 Y19.8421
G01 X0.8297 Y19.8402
G01 X0.8989 Y19.8299
G01 X0.9093 Y19.8287
G01 X0.9301 Y19.8272
G01 X0.9896 Y19.8244
G01 X1.0104 Y19.8244
G01 X1.0209 Y19.8248
G01 X1.0699 Y19.8272
G01 X1.0907 Y19.8287
G01 X1.1115 Y19.8313
G01 X1.1703 Y19.8402
G01 X1.1908 Y19.8442
G01 X1.2010 Y19.8467
G01 X1.2587 Y19.8612
G01 X1.2787 Y19.8673
G01 X1.3200 Y19.8819
G01 X2.0544 Y20.0744
G01 X2.5744 Y20.0744
G01 X2.5747 Y4.1146
G01 X2.5757 Y4.0919
G01 X2.5772 Y4.0710
G01 X2.5815 Y4.0382
G01 X2.5832 Y4.0279
G01 X2.5873 Y4.0074
G01 X2.5927 Y3.9853
G01 X2.5982 Y3.9652
G01 X2.6048 Y3.9454
G01 X2.6126 Y3.9240
G01 X2.6206 Y3.9048
G01 X2.6249 Y3.8953
G01 X2.6347 Y3.8748
G01 X2.6446 Y3.8564
G01 X2.6561 Y3.8368
G01 X2.6673 Y3.8192
G01 X2.6793 Y3.8021
G01 X2.6930 Y3.7839
G01 X2.6995 Y3.7758
G01 X2.7131 Y3.7600
G01 X2.7285 Y3.7432
G01 X2.7432 Y3.7285
G01 X2.7600 Y3.7131
G01 X2.7758 Y3.6995
G01 X2.7923 Y3.6866
G01 X2.8106 Y3.6732
G01 X2.8192 Y3.6673
G01 X2.8368 Y3.6561
G01 X2.8564 Y3.6446
G01 X2.8748 Y3.6347
G01 X2.8953 Y3.6249
G01 X2.9143 Y3.6164
G01 X2.9338 Y3.6089
G01 X2.9652 Y3.5982
G01 X2.9972 Y3.5897
G01 X3.0176 Y3.5851
G01 X3.0382 Y3.5815
G01 X3.0710 Y3.5772
G01 X3.1041 Y3.5751
G01 X3.1250 Y3.5745
G01 X3.3750 Y3.5745
G01 X3.4081 Y3.5757
G01 X3.4341 Y3.5778
G01 X3.4546 Y3.5763
G01 X3.4791 Y3.5751
G01 X3.5000 Y3.5745
G01 X23.0000 Y3.5745
G01 X23.0209 Y3.5751
G01 X23.0454 Y3.5763
G01 X23.0659 Y3.5778
G01 X23.0919 Y3.5757
G01 X23.1250 Y3.5745
G01 X23.3854 Y3.5747
G01 X23.4081 Y3.5757
G01 X23.4290 Y3.5772
G01 X23.4618 Y3.5815
G01 X23.4824 Y3.5851
G01 X23.4926 Y3.5873
G01 X23.5147 Y3.5927
G01 X23.5348 Y3.5982
G01 X23.5546 Y3.6048
G01 X23.5760 Y3.6126
G01 X23.5952 Y3.6206
G01 X23.6158 Y3.6301
G01 X23.6252 Y3.6347
G01 X23.6436 Y3.6446
G01 X23.6632 Y3.6561
G01 X23.6808 Y3.6673
G01 X23.6979 Y3.6793
G01 X23.7161 Y3.6930
G01 X23.7322 Y3.7062
G01 X23.7491 Y3.7214
G01 X23.7568 Y3.7285
G01 X23.7715 Y3.7432
G01 X23.7869 Y3.7600
G01 X23.8005 Y3.7758
G01 X23.8134 Y3.7923
G01 X23.8268 Y3.8106
G01 X23.8384 Y3.8279
G01 X23.8439 Y3.8368
G01 X23.8554 Y3.8564
G01 X23.8653 Y3.8748
G01 X23.8751 Y3.8953
G01 X23.8836 Y3.9143
G01 X23.8952 Y3.9454
G01 X23.9018 Y3.9652
G01 X23.9073 Y3.9853
G01 X23.9149 Y4.0176
G01 X23.9185 Y4.0382
G01 X23.9228 Y4.0710
G01 X23.9249 Y4.1041
G01 X23.9255 Y4.1250
G01 X23.9255 Y20.8750
G01 X23.9243 Y20.9081
G01 X23.9228 Y20.9290
G01 X23.9217 Y20.9393
G01 X23.9168 Y20.9721
G01 X23.9127 Y20.9926
G01 X23.9103 Y21.0028
G01 X23.9018 Y21.0348
G01 X23.8911 Y21.0662
G01 X23.8836 Y21.0857
G01 X23.8699 Y21.1158
G01 X23.8653 Y21.1252
G01 X23.8554 Y21.1436
G01 X23.8384 Y21.1721
G01 X23.8327 Y21.1808
G01 X23.8207 Y21.1979
G01 X23.8005 Y21.2242
G01 X23.7786 Y21.2491
G01 X23.7715 Y21.2568
G01 X23.7568 Y21.2715
G01 X23.7322 Y21.2938
G01 X23.7242 Y21.3005
G01 X23.7077 Y21.3134
G01 X23.6808 Y21.3327
G01 X23.6527 Y21.3502
G01 X23.6436 Y21.3554
G01 X23.6252 Y21.3653
G01 X23.6047 Y21.3751
G01 X23.5857 Y21.3836
G01 X23.5546 Y21.3952
G01 X23.5447 Y21.3986
G01 X23.5248 Y21.4047
G01 X23.5028 Y21.4103
G01 X23.4824 Y21.4149
G01 X23.4497 Y21.4203
G01 X23.4290 Y21.4228
G01 X23.4186 Y21.4237
G01 X23.3959 Y21.4249
G01 X23.3750 Y21.4255
G01 X23.1250 Y21.4255
G01 X23.1041 Y21.4249
G01 X23.0814 Y21.4237
G01 X23.0710 Y21.4228
G01 X23.0503 Y21.4203
G01 X23.0279 Y21.4168
G01 X23.0074 Y21.4127
G01 X22.9853 Y21.4073
G01 X22.9652 Y21.4018
G01 X22.9454 Y21.3952
G01 X22.9255 Y21.3880
G01 X22.9255 Y21.5743
G01 X24.5000 Y21.5743
G01 X24.5209 Y21.5748
G01 X24.5699 Y21.5772
G01 X24.5907 Y21.5787
G01 X24.6115 Y21.5813
G01 X24.6600 Y21.5885
G01 X24.6703 Y21.5902
G01 X24.6908 Y21.5942
G01 X24.7587 Y21.6112
G01 X24.7787 Y21.6173
G01 X24.7885 Y21.6207
G01 X24.8348 Y21.6372
G01 X24.8543 Y21.6448
G01 X24.8733 Y21.6532
G01 X24.9177 Y21.6742
G01 X24.9271 Y21.6788
G01 X24.9455 Y21.6886
G01 X25.0055 Y21.7246
G01 X25.0229 Y21.7362
G01 X25.0314 Y21.7423
G01 X25.0708 Y21.7716
G01 X25.0873 Y21.7844
G01 X25.1031 Y21.7981
G01 X25.1395 Y21.8310
G01 X25.1546 Y21.8454
G01 X25.1619 Y21.8529
G01 X25.2089 Y21.9047
G01 X25.2156 Y21.9127
G01 X25.2284 Y21.9292
G01 X25.2577 Y21.9686
G01 X25.2697 Y21.9857
G01 X25.2809 Y22.0033
G01 X25.3061 Y22.0455
G01 X25.3164 Y22.0636
G01 X25.3212 Y22.0729
G01 X25.3468 Y22.1267
G01 X25.3552 Y22.1457
G01 X25.3628 Y22.1652
G01 X25.3793 Y22.2115
G01 X25.3858 Y22.2313
G01 X25.3914 Y22.2514
G01 X25.4033 Y22.2990
G01 X25.4079 Y22.3194
G01 X25.4115 Y22.3400
G01 X25.4187 Y22.3885
G01 X25.4213 Y22.4093
G01 X25.4228 Y22.4301
G01 X25.4252 Y22.4791
G01 X25.4257 Y22.5000
G01 X25.4257 Y27.5000
G01 X25.4252 Y27.5209
G01 X25.4228 Y27.5699
G01 X25.4213 Y27.5907
G01 X25.4187 Y27.6115
G01 X25.4098 Y27.6703
G01 X25.4058 Y27.6908
G01 X25.3914 Y27.7486
G01 X25.3858 Y27.7687
G01 X25.3793 Y27.7885
G01 X25.3628 Y27.8348
G01 X25.3552 Y27.8543
G01 X25.3468 Y27.8733
G01 X25.3258 Y27.9177
G01 X25.3164 Y27.9364
G01 X25.3061 Y27.9545
G01 X25.2809 Y27.9967
G01 X25.2697 Y28.0143
G01 X25.2577 Y28.0314
G01 X25.2284 Y28.0708
G01 X25.2156 Y28.0873
G01 X25.2019 Y28.1031
G01 X25.1619 Y28.1471
G01 X25.1546 Y28.1546
G01 X25.1395 Y28.1690
G01 X25.1031 Y28.2019
G01 X25.0873 Y28.2156
G01 X25.0708 Y28.2284
G01 X25.0482 Y28.2452
G01 X25.0314 Y28.2577
G01 X25.0143 Y28.2697
G01 X24.9967 Y28.2809
G01 X24.9545 Y28.3061
G01 X24.9364 Y28.3164
G01 X24.9177 Y28.3258
G01 X24.8733 Y28.3468
G01 X24.8543 Y28.3552
G01 X24.8348 Y28.3628
G01 X24.7787 Y28.3827
G01 X24.7587 Y28.3888
G01 X24.7010 Y28.4033
G01 X24.6806 Y28.4079
G01 X24.6600 Y28.4115
G01 X24.6011 Y28.4201
G01 X24.5803 Y28.4221
G01 X24.5699 Y28.4228
G01 X24.5209 Y28.4252
G01 X24.5000 Y28.4257
G01 X19.7349 Y28.4257
G01 X24.1619 Y32.8529
G01 X24.2019 Y32.8969
G01 X24.2089 Y32.9047
G01 X24.2221 Y32.9209
G01 X24.2638 Y32.9771
G01 X24.2754 Y32.9945
G01 X24.2809 Y33.0033
G01 X24.3061 Y33.0455
G01 X24.3164 Y33.0636
G01 X24.3258 Y33.0823
G01 X24.3468 Y33.1267
G01 X24.3511 Y33.1361
G01 X24.3591 Y33.1554
G01 X24.3827 Y33.2213
G01 X24.3888 Y33.2413
G01 X24.4033 Y33.2990
G01 X24.4079 Y33.3194
G01 X24.4115 Y33.3400
G01 X24.4187 Y33.3885
G01 X24.4213 Y33.4093
G01 X24.4228 Y33.4301
G01 X24.4252 Y33.4791
G01 X24.4257 Y33.5000
G01 X24.4257 Y42.0000
G01 X24.4252 Y42.0209
G01 X24.4228 Y42.0699
G01 X24.4213 Y42.0907
G01 X24.4187 Y42.1115
G01 X24.4115 Y42.1600
G01 X24.4079 Y42.1806
G01 X24.4033 Y42.2010
G01 X24.3914 Y42.2486
G01 X24.3858 Y42.2687
G01 X24.3793 Y42.2885
G01 X24.3628 Y42.3348
G01 X24.3552 Y42.3543
G01 X24.3468 Y42.3733
G01 X24.3258 Y42.4177
G01 X24.3164 Y42.4364
G01 X24.3114 Y42.4455
G01 X24.2809 Y42.4967
G01 X24.2697 Y42.5143
G01 X24.2638 Y42.5229
G01 X24.2221 Y42.5791
G01 X24.2089 Y42.5953
G01 X24.2019 Y42.6031
G01 X24.1690 Y42.6395
G01 X24.1546 Y42.6546
G01 X23.9112 Y42.8980
G01 X23.8628 Y43.0518
G01 X23.8504 Y43.0899
G01 X23.8456 Y43.1031
G01 X23.8392 Y43.1187
G01 X23.8208 Y43.1698
G01 X23.8128 Y43.1891
G01 X23.8085 Y43.1986
G01 X23.7665 Y43.2873
G01 X23.7538 Y43.3120
G01 X23.7345 Y43.3467
G01 X22.2345 Y45.9448
G01 X22.2236 Y45.9626
G01 X22.2148 Y45.9757
G01 X22.1909 Y46.0152
G01 X22.1793 Y46.0326
G01 X22.1732 Y46.0411
G01 X22.1147 Y46.1199
G01 X22.1019 Y46.1364
G01 X22.0883 Y46.1522
G01 X22.0224 Y46.2249
G01 X22.0080 Y46.2400
G01 X21.9928 Y46.2544
G01 X21.9201 Y46.3203
G01 X21.9043 Y46.3339
G01 X21.8878 Y46.3468
G01 X21.8090 Y46.4053
G01 X21.7919 Y46.4173
G01 X21.7743 Y46.4284
G01 X21.6901 Y46.4789
G01 X21.6720 Y46.4892
G01 X21.6533 Y46.4986
G01 X21.5646 Y46.5405
G01 X21.5455 Y46.5490
G01 X21.5260 Y46.5565
G01 X21.4336 Y46.5896
G01 X21.4138 Y46.5961
G01 X21.3937 Y46.6017
G01 X21.2985 Y46.6255
G01 X21.2781 Y46.6301
G01 X21.2575 Y46.6337
G01 X21.1604 Y46.6481
G01 X21.1397 Y46.6506
G01 X21.1293 Y46.6515
G01 X21.0209 Y46.6570
G01 X21.0000 Y46.6575
G01 X20.9791 Y46.6570
G01 X20.8811 Y46.6522
G01 X20.8603 Y46.6506
G01 X20.8396 Y46.6481
G01 X20.7425 Y46.6337
G01 X20.7219 Y46.6301
G01 X20.7015 Y46.6255
G01 X20.6063 Y46.6017
G01 X20.5862 Y46.5961
G01 X20.5664 Y46.5896
G01 X20.4740 Y46.5565
G01 X20.4545 Y46.5490
G01 X20.4354 Y46.5405
G01 X20.3467 Y46.4986
G01 X20.3280 Y46.4892
G01 X20.3099 Y46.4789
G01 X20.2257 Y46.4284
G01 X20.2081 Y46.4173
G01 X20.1910 Y46.4053
G01 X20.1039 Y46.3405
G01 X20.0957 Y46.3339
G01 X20.0799 Y46.3203
G01 X20.0072 Y46.2544
G01 X19.9920 Y46.2400
G01 X19.9776 Y46.2249
G01 X19.9117 Y46.1522
G01 X19.8981 Y46.1364
G01 X19.8916 Y46.1282
G01 X19.8268 Y46.0411
G01 X19.8148 Y46.0240
G01 X19.8036 Y46.0064
G01 X19.7531 Y45.9222
G01 X19.7429 Y45.9040
G01 X19.7335 Y45.8854
G01 X19.6915 Y45.7966
G01 X19.6830 Y45.7776
G01 X19.6755 Y45.7581
G01 X19.6425 Y45.6657
G01 X19.6359 Y45.6458
G01 X19.6304 Y45.6257
G01 X19.6041 Y45.5204
G01 X19.6019 Y45.5101
G01 X19.5984 Y45.4896
G01 X19.5840 Y45.3925
G01 X19.5814 Y45.3718
G01 X19.5799 Y45.3509
G01 X19.5751 Y45.2529
G01 X19.5745 Y45.2321
G01 X19.5747 Y45.2216
G01 X19.5799 Y45.1132
G01 X19.5814 Y45.0923
G01 X19.5840 Y45.0716
G01 X19.5984 Y44.9745
G01 X19.6000 Y44.9642
G01 X19.6041 Y44.9437
G01 X19.6304 Y44.8384
G01 X19.6359 Y44.8183
G01 X19.6425 Y44.7984
G01 X19.6755 Y44.7060
G01 X19.6830 Y44.6866
G01 X19.6915 Y44.6675
G01 X19.7375 Y44.5704
G01 X19.7462 Y44.5540
G01 X19.7655 Y44.5193
G01 X19.9210 Y44.2500
G00 Z1.0000
G00 X19.3011 Y45.2370
G01 F60.00
G01 Z-0.0900
G01 F500.00
G01 X19.2149 Y45.3149
G01 X19.2033 Y45.3252
G01 X19.1793 Y45.3451
G01 X18.7125 Y45.7137
G01 X18.7002 Y45.7232
G01 X18.6749 Y45.7414
G01 X18.1845 Y46.0780
G01 X18.1584 Y46.0951
G01 X17.6334 Y46.4062
G01 X17.6062 Y46.4215
G01 X17.0476 Y46.7038
G01 X17.0192 Y46.7166
G01 X16.4572 Y46.9547
G01 X16.4280 Y46.9656
G01 X15.8514 Y47.1657
G01 X15.8215 Y47.1745
G01 X15.4901 Y47.2653
G01 X15.4919 Y48.3409
G01 X15.7220 Y48.8010
G01 X16.2900 Y48.8010
G01 X16.3243 Y48.8019
G01 X16.3414 Y48.8029
G01 X16.3756 Y48.8063
G01 X16.4095 Y48.8113
G01 X16.4264 Y48.8145
G01 X16.4598 Y48.8220
G01 X16.4929 Y48.8311
G01 X16.5255 Y48.8419
G01 X16.5575 Y48.8542
G01 X16.5888 Y48.8681
G01 X16.6195 Y48.8836
G01 X16.6345 Y48.8918
G01 X16.6639 Y48.9095
G01 X16.6925 Y48.9285
G01 X16.7064 Y48.9386
G01 X16.7334 Y48.9597
G01 X16.7465 Y48.9707
G01 X16.7720 Y48.9938
G01 X16.7962 Y49.0180
G01 X16.8079 Y49.0306
G01 X16.8303 Y49.0566
G01 X16.8514 Y49.0836
G01 X16.8712 Y49.1117
G01 X16.8895 Y49.1407
G01 X16.8982 Y49.1555
G01 X16.9143 Y49.1857
G01 X16.9290 Y49.2167
G01 X16.9358 Y49.2325
G01 X16.9481 Y49.2645
G01 X16.9537 Y49.2807
G01 X16.9637 Y49.3136
G01 X16.9680 Y49.3302
G01 X16.9755 Y49.3636
G01 X16.9814 Y49.3974
G01 X16.9856 Y49.4315
G01 X16.9871 Y49.4486
G01 X16.9888 Y49.4828
G01 X16.9890 Y49.5000
G01 X16.9890 Y52.0000
G01 X16.9881 Y52.0343
G01 X16.9856 Y52.0685
G01 X16.9814 Y52.1026
G01 X16.9755 Y52.1364
G01 X16.9680 Y52.1698
G01 X16.9589 Y52.2029
G01 X16.9481 Y52.2355
G01 X16.9421 Y52.2516
G01 X16.9358 Y52.2675
G01 X16.9219 Y52.2988
G01 X16.9064 Y52.3295
G01 X16.8895 Y52.3593
G01 X16.8712 Y52.3883
G01 X16.8514 Y52.4164
G01 X16.8303 Y52.4434
G01 X16.8193 Y52.4565
G01 X16.7962 Y52.4820
G01 X16.7720 Y52.5062
G01 X16.7465 Y52.5293
G01 X16.7334 Y52.5403
G01 X16.7200 Y52.5510
G01 X16.6925 Y52.5715
G01 X16.6639 Y52.5905
G01 X16.6345 Y52.6082
G01 X16.6043 Y52.6243
G01 X16.5733 Y52.6390
G01 X16.5416 Y52.6521
G01 X16.5255 Y52.6581
G01 X16.4929 Y52.6689
G01 X16.4764 Y52.6737
G01 X16.4431 Y52.6820
G01 X16.4095 Y52.6887
G01 X16.3926 Y52.6914
G01 X16.3585 Y52.6956
G01 X16.3243 Y52.6981
G01 X16.2900 Y52.6990
G01 X13.2900 Y52.6990
G01 X13.2557 Y52.6981
G01 X13.2215 Y52.6956
G01 X13.2044 Y52.6937
G01 X13.1705 Y52.6887
G01 X13.1369 Y52.6820
G01 X13.1036 Y52.6737
G01 X13.0707 Y52.6637
G01 X13.0545 Y52.6581
G01 X13.0384 Y52.6521
G01 X13.0067 Y52.6390
G01 X12.9757 Y52.6243
G01 X12.9605 Y52.6164
G01 X12.9307 Y52.5995
G01 X12.9161 Y52.5905
G01 X12.8875 Y52.5715
G01 X12.8600 Y52.5510
G01 X12.8466 Y52.5403
G01 X12.8206 Y52.5179
G01 X12.8080 Y52.5062
G01 X12.7838 Y52.4820
G01 X12.7607 Y52.4565
G01 X12.7390 Y52.4300
G01 X12.7185 Y52.4025
G01 X12.7088 Y52.3883
G01 X12.6905 Y52.3593
G01 X12.6818 Y52.3445
G01 X12.6736 Y52.3295
G01 X12.6642 Y52.3112
G01 X12.5969 Y52.3608
G01 X12.5684 Y52.3799
G01 X12.4338 Y52.4606
G01 X12.4187 Y52.4688
G01 X12.3881 Y52.4843
G01 X12.2616 Y52.5439
G01 X12.2458 Y52.5506
G01 X12.2138 Y52.5630
G01 X12.0983 Y52.6043
G01 X12.0658 Y52.6150
G01 X12.0327 Y52.6242
G01 X11.9137 Y52.6540
G01 X11.8802 Y52.6615
G01 X11.8634 Y52.6647
G01 X11.7251 Y52.6854
G01 X11.6910 Y52.6896
G01 X11.6568 Y52.6921
G01 X11.5172 Y52.6988
G01 X10.5400 Y52.6990
G01 X10.5057 Y52.6981
G01 X10.3832 Y52.6921
G01 X10.3490 Y52.6896
G01 X10.3149 Y52.6854
G01 X10.1936 Y52.6674
G01 X10.1598 Y52.6615
G01 X10.1263 Y52.6540
G01 X10.0073 Y52.6242
G01 X9.9742 Y52.6150
G01 X9.9417 Y52.6043
G01 X9.8262 Y52.5630
G01 X9.8101 Y52.5570
G01 X9.7784 Y52.5439
G01 X9.6365 Y52.4767
G01 X9.6213 Y52.4688
G01 X9.5914 Y52.4519
G01 X9.4862 Y52.3889
G01 X9.4572 Y52.3705
G01 X9.4292 Y52.3508
G01 X9.3625 Y52.3013
G01 X9.3440 Y52.2935
G01 X9.3130 Y52.2788
G01 X8.1588 Y51.6992
G01 X6.5000 Y51.6992
G01 X6.4657 Y51.6984
G01 X6.3995 Y51.6949
G01 X6.3654 Y51.6916
G01 X6.2829 Y51.6793
G01 X6.2493 Y51.6726
G01 X6.1684 Y51.6524
G01 X6.1355 Y51.6424
G01 X6.0570 Y51.6143
G01 X6.0253 Y51.6012
G01 X5.9653 Y51.5730
G01 X5.9347 Y51.5576
G01 X5.9048 Y51.5407
G01 X5.8627 Y51.5155
G01 X5.8337 Y51.4971
G01 X5.8057 Y51.4774
G01 X5.7730 Y51.4531
G01 X5.7526 Y51.4377
G01 X5.7392 Y51.4270
G01 X5.7132 Y51.4046
G01 X5.6769 Y51.3716
G01 X5.6520 Y51.3480
G01 X0.1520 Y45.8480
G01 X0.1284 Y45.8231
G01 X0.0954 Y45.7868
G01 X0.0730 Y45.7608
G01 X0.0519 Y45.7337
G01 X0.0226 Y45.6943
G01 X0.0029 Y45.6663
G01 X-0.0155 Y45.6373
G01 X-0.0407 Y45.5952
G01 X-0.0576 Y45.5653
G01 X-0.0730 Y45.5347
G01 X-0.0940 Y45.4903
G01 X-0.1079 Y45.4589
G01 X-0.1143 Y45.4430
G01 X-0.1368 Y45.3807
G01 X-0.1476 Y45.3481
G01 X-0.1567 Y45.3151
G01 X-0.1687 Y45.2674
G01 X-0.1762 Y45.2340
G01 X-0.1820 Y45.2002
G01 X-0.1892 Y45.1516
G01 X-0.1934 Y45.1175
G01 X-0.1960 Y45.0833
G01 X-0.1984 Y45.0343
G01 X-0.1992 Y45.0000
G01 X-0.1992 Y20.7500
G01 X-0.1984 Y20.7157
G01 X-0.1949 Y20.6495
G01 X-0.1934 Y20.6325
G01 X-0.1892 Y20.5984
G01 X-0.1793 Y20.5329
G01 X-0.1726 Y20.4993
G01 X-0.1567 Y20.4349
G01 X-0.1476 Y20.4019
G01 X-0.1368 Y20.3693
G01 X-0.1143 Y20.3070
G01 X-0.1012 Y20.2753
G01 X-0.0730 Y20.2153
G01 X-0.0655 Y20.1999
G01 X-0.0493 Y20.1697
G01 X-0.0155 Y20.1127
G01 X0.0029 Y20.0837
G01 X0.0226 Y20.0557
G01 X0.0623 Y20.0026
G01 X0.0840 Y19.9761
G01 X0.1284 Y19.9269
G01 X0.1520 Y19.9020
G01 X0.1643 Y19.8900
G01 X0.2132 Y19.8454
G01 X0.2392 Y19.8230
G01 X0.2663 Y19.8019
G01 X0.3196 Y19.7626
G01 X0.3337 Y19.7529
G01 X0.3627 Y19.7345
G01 X0.4197 Y19.7007
G01 X0.4499 Y19.6845
G01 X0.5097 Y19.6560
G01 X0.5411 Y19.6421
G01 X0.5731 Y19.6297
G01 X0.6355 Y19.6076
G01 X0.6684 Y19.5976
G01 X0.6849 Y19.5933
G01 X0.7326 Y19.5813
G01 X0.7660 Y19.5738
G01 X0.7998 Y19.5680
G01 X0.8484 Y19.5608
G01 X0.8825 Y19.5566
G01 X0.9167 Y19.5540
G01 X0.9657 Y19.5516
G01 X1.0000 Y19.5508
G01 X1.0343 Y19.5516
G01 X1.0833 Y19.5540
G01 X1.1005 Y19.5551
G01 X1.1346 Y19.5584
G01 X1.2002 Y19.5680
G01 X1.2340 Y19.5738
G01 X1.2674 Y19.5813
G01 X1.3151 Y19.5933
G01 X1.3481 Y19.6024
G01 X1.3645 Y19.6076
G01 X1.4009 Y19.6204
G01 X2.0896 Y19.8009
G01 X2.3009 Y19.8009
G01 X2.3012 Y4.1078
G01 X2.3025 Y4.0785
G01 X2.3050 Y4.0442
G01 X2.3092 Y4.0102
G01 X2.3137 Y3.9811
G01 X2.3204 Y3.9475
G01 X2.3244 Y3.9308
G01 X2.3317 Y3.9023
G01 X2.3417 Y3.8695
G01 X2.3514 Y3.8417
G01 X2.3638 Y3.8097
G01 X2.3777 Y3.7783
G01 X2.3904 Y3.7518
G01 X2.4066 Y3.7216
G01 X2.4215 Y3.6962
G01 X2.4305 Y3.6816
G01 X2.4496 Y3.6531
G01 X2.4670 Y3.6293
G01 X2.4881 Y3.6023
G01 X2.5105 Y3.5763
G01 X2.5304 Y3.5546
G01 X2.5546 Y3.5304
G01 X2.5763 Y3.5105
G01 X2.5892 Y3.4991
G01 X2.6157 Y3.4773
G01 X2.6392 Y3.4596
G01 X2.6672 Y3.4399
G01 X2.6962 Y3.4215
G01 X2.7216 Y3.4066
G01 X2.7518 Y3.3904
G01 X2.7783 Y3.3777
G01 X2.8097 Y3.3638
G01 X2.8256 Y3.3574
G01 X2.8532 Y3.3473
G01 X2.8858 Y3.3365
G01 X2.9023 Y3.3317
G01 X2.9308 Y3.3244
G01 X2.9643 Y3.3169
G01 X2.9981 Y3.3110
G01 X3.0272 Y3.3069
G01 X3.0442 Y3.3050
G01 X3.0613 Y3.3035
G01 X3.0907 Y3.3019
G01 X3.1250 Y3.3010
G01 X3.3750 Y3.3010
G01 X3.4093 Y3.3019
G01 X3.4363 Y3.3034
G01 X3.4657 Y3.3019
G01 X3.5000 Y3.3010
G01 X23.0000 Y3.3010
G01 X23.0343 Y3.3019
G01 X23.0637 Y3.3034
G01 X23.0907 Y3.3019
G01 X23.1250 Y3.3010
G01 X23.3922 Y3.3012
G01 X23.4215 Y3.3025
G01 X23.4558 Y3.3050
G01 X23.4898 Y3.3092
G01 X23.5189 Y3.3137
G01 X23.5525 Y3.3204
G01 X23.5811 Y3.3274
G01 X23.6142 Y3.3365
G01 X23.6305 Y3.3417
G01 X23.6583 Y3.3514
G01 X23.6903 Y3.3638
G01 X23.7217 Y3.3777
G01 X23.7482 Y3.3904
G01 X23.7784 Y3.4066
G01 X23.7933 Y3.4152
G01 X23.8184 Y3.4305
G01 X23.8469 Y3.4496
G01 X23.8707 Y3.4670
G01 X23.8977 Y3.4881
G01 X23.9237 Y3.5105
G01 X23.9454 Y3.5304
G01 X23.9696 Y3.5546
G01 X23.9895 Y3.5763
G01 X24.0119 Y3.6023
G01 X24.0227 Y3.6157
G01 X24.0404 Y3.6392
G01 X24.0601 Y3.6672
G01 X24.0785 Y3.6962
G01 X24.0934 Y3.7216
G01 X24.1017 Y3.7366
G01 X24.1171 Y3.7672
G01 X24.1295 Y3.7939
G01 X24.1426 Y3.8256
G01 X24.1527 Y3.8532
G01 X24.1635 Y3.8858
G01 X24.1726 Y3.9189
G01 X24.1796 Y3.9475
G01 X24.1831 Y3.9643
G01 X24.1890 Y3.9981
G01 X24.1931 Y4.0272
G01 X24.1950 Y4.0442
G01 X24.1965 Y4.0613
G01 X24.1981 Y4.0907
G01 X24.1990 Y4.1250
G01 X24.1990 Y20.8750
G01 X24.1981 Y20.9093
G01 X24.1965 Y20.9387
G01 X24.1950 Y20.9558
G01 X24.1908 Y20.9898
G01 X24.1863 Y21.0189
G01 X24.1831 Y21.0357
G01 X24.1756 Y21.0692
G01 X24.1683 Y21.0977
G01 X24.1583 Y21.1305
G01 X24.1486 Y21.1583
G01 X24.1362 Y21.1903
G01 X24.1295 Y21.2061
G01 X24.1171 Y21.2328
G01 X24.1017 Y21.2634
G01 X24.0934 Y21.2784
G01 X24.0803 Y21.3008
G01 X24.5172 Y21.3010
G01 X24.5833 Y21.3040
G01 X24.6175 Y21.3066
G01 X24.6516 Y21.3108
G01 X24.7002 Y21.3180
G01 X24.7171 Y21.3207
G01 X24.7507 Y21.3274
G01 X24.8316 Y21.3476
G01 X24.8645 Y21.3576
G01 X24.9269 Y21.3797
G01 X24.9589 Y21.3921
G01 X24.9903 Y21.4060
G01 X25.0501 Y21.4345
G01 X25.0803 Y21.4507
G01 X25.0952 Y21.4593
G01 X25.1519 Y21.4935
G01 X25.1804 Y21.5126
G01 X25.2474 Y21.5623
G01 X25.2739 Y21.5840
G01 X25.3357 Y21.6400
G01 X25.3600 Y21.6643
G01 X25.4160 Y21.7261
G01 X25.4270 Y21.7392
G01 X25.4481 Y21.7663
G01 X25.4774 Y21.8057
G01 X25.4971 Y21.8337
G01 X25.5155 Y21.8627
G01 X25.5407 Y21.9048
G01 X25.5493 Y21.9197
G01 X25.5655 Y21.9499
G01 X25.5940 Y22.0097
G01 X25.6079 Y22.0411
G01 X25.6143 Y22.0570
G01 X25.6424 Y22.1355
G01 X25.6524 Y22.1684
G01 X25.6687 Y22.2326
G01 X25.6762 Y22.2660
G01 X25.6793 Y22.2829
G01 X25.6916 Y22.3654
G01 X25.6949 Y22.3995
G01 X25.6960 Y22.4167
G01 X25.6984 Y22.4657
G01 X25.6992 Y22.5000
G01 X25.6992 Y27.5000
G01 X25.6984 Y27.5343
G01 X25.6949 Y27.6005
G01 X25.6916 Y27.6346
G01 X25.6820 Y27.7002
G01 X25.6762 Y27.7340
G01 X25.6687 Y27.7674
G01 X25.6524 Y27.8316
G01 X25.6424 Y27.8645
G01 X25.6203 Y27.9269
G01 X25.6079 Y27.9589
G01 X25.5940 Y27.9903
G01 X25.5655 Y28.0501
G01 X25.5493 Y28.0803
G01 X25.5155 Y28.1373
G01 X25.5065 Y28.1519
G01 X25.4874 Y28.1804
G01 X25.4481 Y28.2337
G01 X25.4270 Y28.2608
G01 X25.4046 Y28.2868
G01 X25.3600 Y28.3357
G01 X25.3357 Y28.3600
G01 X25.2868 Y28.4046
G01 X25.2608 Y28.4270
G01 X25.2337 Y28.4481
G01 X25.1804 Y28.4874
G01 X25.1519 Y28.5065
G01 X25.0952 Y28.5407
G01 X25.0653 Y28.5576
G01 X25.0347 Y28.5730
G01 X24.9747 Y28.6012
G01 X24.9589 Y28.6079
G01 X24.9269 Y28.6203
G01 X24.8645 Y28.6424
G01 X24.8316 Y28.6524
G01 X24.7674 Y28.6687
G01 X24.7340 Y28.6762
G01 X24.7002 Y28.6820
G01 X24.6516 Y28.6892
G01 X24.6175 Y28.6934
G01 X24.5833 Y28.6960
G01 X24.5343 Y28.6984
G01 X24.5000 Y28.6992
G01 X20.3952 Y28.6992
G01 X24.3600 Y32.6643
G01 X24.4160 Y32.7261
G01 X24.4377 Y32.7526
G01 X24.4874 Y32.8196
G01 X24.5065 Y32.8481
G01 X24.5155 Y32.8627
G01 X24.5407 Y32.9048
G01 X24.5576 Y32.9347
G01 X24.5730 Y32.9653
G01 X24.5940 Y33.0097
G01 X24.6079 Y33.0411
G01 X24.6143 Y33.0570
G01 X24.6424 Y33.1355
G01 X24.6524 Y33.1684
G01 X24.6687 Y33.2326
G01 X24.6762 Y33.2660
G01 X24.6820 Y33.2998
G01 X24.6916 Y33.3654
G01 X24.6949 Y33.3995
G01 X24.6984 Y33.4657
G01 X24.6992 Y33.5000
G01 X24.6992 Y42.0000
G01 X24.6984 Y42.0343
G01 X24.6960 Y42.0833
G01 X24.6934 Y42.1175
G01 X24.6916 Y42.1346
G01 X24.6793 Y42.2171
G01 X24.6726 Y42.2507
G01 X24.6524 Y42.3316
G01 X24.6424 Y42.3645
G01 X24.6143 Y42.4430
G01 X24.6012 Y42.4747
G01 X24.5655 Y42.5501
G01 X24.5493 Y42.5803
G01 X24.5065 Y42.6519
G01 X24.4874 Y42.6804
G01 X24.4377 Y42.7474
G01 X24.4160 Y42.7739
G01 X24.3716 Y42.8231
G01 X24.3480 Y42.8480
G01 X24.1520 Y43.0439
G01 X24.1237 Y43.1339
G01 X24.1087 Y43.1799
G01 X24.1016 Y43.1995
G01 X24.0942 Y43.2181
G01 X24.0760 Y43.2682
G01 X24.0696 Y43.2841
G01 X24.0557 Y43.3155
G01 X24.0138 Y43.4042
G01 X24.0071 Y43.4179
G01 X23.9929 Y43.4449
G01 X23.9714 Y43.4835
G01 X22.4714 Y46.0815
G01 X22.4626 Y46.0963
G01 X22.4449 Y46.1237
G01 X22.4220 Y46.1616
G01 X22.4126 Y46.1759
G01 X22.3929 Y46.2040
G01 X22.3344 Y46.2828
G01 X22.3133 Y46.3099
G01 X22.2909 Y46.3358
G01 X22.2133 Y46.4211
G01 X22.1891 Y46.4454
G01 X22.1765 Y46.4571
G01 X22.1038 Y46.5230
G01 X22.0778 Y46.5454
G01 X22.0508 Y46.5665
G01 X21.9719 Y46.6249
G01 X21.9439 Y46.6447
G01 X21.9295 Y46.6540
G01 X21.8159 Y46.7221
G01 X21.8009 Y46.7304
G01 X21.7702 Y46.7458
G01 X21.6815 Y46.7878
G01 X21.6502 Y46.8017
G01 X21.6182 Y46.8140
G01 X21.5095 Y46.8527
G01 X21.4767 Y46.8626
G01 X21.4601 Y46.8670
G01 X21.3649 Y46.8909
G01 X21.3315 Y46.8984
G01 X21.2977 Y46.9042
G01 X21.2006 Y46.9186
G01 X21.1836 Y46.9209
G01 X21.1494 Y46.9243
G01 X21.0343 Y46.9302
G01 X21.0000 Y46.9310
G01 X20.9657 Y46.9302
G01 X20.8506 Y46.9243
G01 X20.8164 Y46.9209
G01 X20.7994 Y46.9186
G01 X20.7023 Y46.9042
G01 X20.6685 Y46.8984
G01 X20.6351 Y46.8909
G01 X20.5399 Y46.8670
G01 X20.5233 Y46.8626
G01 X20.4905 Y46.8527
G01 X20.3818 Y46.8140
G01 X20.3498 Y46.8017
G01 X20.3185 Y46.7878
G01 X20.2143 Y46.7383
G01 X20.1841 Y46.7221
G01 X20.1693 Y46.7135
G01 X20.0851 Y46.6630
G01 X20.0561 Y46.6447
G01 X20.0281 Y46.6249
G01 X19.9492 Y46.5665
G01 X19.9356 Y46.5561
G01 X19.9091 Y46.5343
G01 X19.8235 Y46.4571
G01 X19.7986 Y46.4334
G01 X19.7750 Y46.4086
G01 X19.6977 Y46.3230
G01 X19.6760 Y46.2965
G01 X19.6656 Y46.2828
G01 X19.6071 Y46.2040
G01 X19.5874 Y46.1759
G01 X19.5690 Y46.1470
G01 X19.5186 Y46.0628
G01 X19.5016 Y46.0329
G01 X19.4937 Y46.0177
G01 X19.4443 Y45.9136
G01 X19.4304 Y45.8822
G01 X19.4180 Y45.8502
G01 X19.3794 Y45.7416
G01 X19.3742 Y45.7252
G01 X19.3650 Y45.6922
G01 X19.3412 Y45.5970
G01 X19.3337 Y45.5635
G01 X19.3278 Y45.5297
G01 X19.3134 Y45.4326
G01 X19.3092 Y45.3986
G01 X19.3077 Y45.3815
G01 X19.3019 Y45.2663
G01 X19.3011 Y45.2370
G00 Z1.0000
G00 X13.1556 Y49.4291
G01 F60.00
G01 Z-0.0900
G01 F500.00
G01 X13.6378 Y48.4646
G01 X13.6378 Y47.0245
G01 X13.3008 Y47.0469
G01 X12.6958 Y47.0468
G01 X12.0923 Y47.0063
G01 X11.4927 Y46.9256
G01 X10.8999 Y46.8050
G01 X10.3197 Y46.6460
G01 X9.7482 Y46.4477
G01 X9.1913 Y46.2116
G01 X8.6513 Y45.9389
G01 X8.1336 Y45.6325
G01 X8.1251 Y45.6270
G01 X7.6347 Y45.2904
G01 X7.6265 Y45.2844
G01 X7.1545 Y44.9114
G01 X6.7059 Y44.5056
G01 X6.2877 Y44.0732
G01 X5.8971 Y43.6113
G01 X5.5362 Y43.1215
G01 X5.2143 Y42.6173
G01 X5.2092 Y42.6086
G01 X4.9217 Y42.0840
G01 X4.6684 Y41.5384
G01 X4.6644 Y41.5291
G01 X4.4495 Y40.9709
G01 X4.2692 Y40.3898
G01 X4.1305 Y39.8080
G01 X4.1285 Y39.7980
G01 X4.0296 Y39.2115
G01 X4.0282 Y39.2015
G01 X3.9684 Y38.6063
G01 X3.9481 Y38.0051
G01 X3.9481 Y37.9949
G01 X3.9680 Y37.4005
G01 X3.9687 Y37.3903
G01 X4.0291 Y36.7918
G01 X4.1291 Y36.1986
G01 X4.2684 Y35.6134
G01 X4.2711 Y35.6036
G01 X4.4495 Y35.0291
G01 X4.6644 Y34.4709
G01 X4.6684 Y34.4616
G01 X4.9187 Y33.9220
G01 X4.9233 Y33.9130
G01 X5.2108 Y33.3884
G01 X5.5344 Y32.8813
G01 X5.5401 Y32.8729
G01 X5.8950 Y32.3914
G01 X6.2833 Y31.9319
G01 X6.2901 Y31.9244
G01 X6.7084 Y31.4921
G01 X7.1520 Y31.0908
G01 X7.1597 Y31.0842
G01 X7.6319 Y30.7116
G01 X8.1279 Y30.3711
G01 X8.6454 Y30.0644
G01 X8.6543 Y30.0595
G01 X9.1913 Y29.7884
G01 X9.7451 Y29.5535
G01 X10.3133 Y29.3560
G01 X10.3230 Y29.3530
G01 X10.9032 Y29.1943
G01 X11.4927 Y29.0744
G01 X12.0889 Y28.9941
G01 X12.0990 Y28.9931
G01 X12.6992 Y28.9531
G01 X13.3008 Y28.9531
G01 X13.9010 Y28.9931
G01 X13.9111 Y28.9941
G01 X14.5039 Y29.0739
G01 X15.0935 Y29.1935
G01 X15.1033 Y29.1959
G01 X15.6835 Y29.3550
G01 X16.2518 Y29.5523
G01 X16.8056 Y29.7870
G01 X16.8148 Y29.7913
G01 X17.3517 Y30.0627
G01 X17.8693 Y30.3693
G01 X18.3653 Y30.7096
G01 X18.3735 Y30.7156
G01 X18.8455 Y31.0886
G01 X19.2916 Y31.4921
G01 X19.7099 Y31.9244
G01 X19.7167 Y31.9319
G01 X20.1050 Y32.3914
G01 X20.4618 Y32.8757
G01 X20.7857 Y33.3827
G01 X20.7908 Y33.3914
G01 X21.0798 Y33.9190
G01 X21.3330 Y34.4647
G01 X21.5494 Y35.0260
G01 X21.5527 Y35.0356
G01 X21.7308 Y35.6102
G01 X21.8702 Y36.1953
G01 X21.9704 Y36.7885
G01 X21.9718 Y36.7985
G01 X22.0316 Y37.3937
G01 X22.0519 Y37.9949
G01 X22.0519 Y38.0051
G01 X22.0316 Y38.6063
G01 X21.9718 Y39.2015
G01 X21.9704 Y39.2115
G01 X21.8702 Y39.8047
G01 X21.7316 Y40.3866
G01 X21.7289 Y40.3964
G01 X21.5516 Y40.9677
G01 X21.3330 Y41.5353
G01 X21.0813 Y42.0780
G01 X21.0767 Y42.0870
G01 X20.7892 Y42.6116
G01 X20.4656 Y43.1187
G01 X20.4599 Y43.1271
G01 X20.1029 Y43.6113
G01 X19.7167 Y44.0681
G01 X19.7099 Y44.0756
G01 X19.2916 Y44.5079
G01 X18.8480 Y44.9092
G01 X18.8403 Y44.9158
G01 X18.3708 Y45.2864
G01 X17.8693 Y45.6307
G01 X17.3546 Y45.9356
G01 X17.3457 Y45.9405
G01 X16.8118 Y46.2102
G01 X16.2580 Y46.4452
G01 X16.2486 Y46.4488
G01 X15.6803 Y46.6460
G01 X15.1001 Y46.8050
G01 X14.9422 Y46.8372
G01 X14.9422 Y48.4646
G01 X15.3839 Y49.3481
G01 X16.2900 Y49.3481
G01 X16.3049 Y49.3488
G01 X16.3160 Y49.3503
G01 X16.3269 Y49.3526
G01 X16.3377 Y49.3557
G01 X16.3481 Y49.3596
G01 X16.3583 Y49.3643
G01 X16.3681 Y49.3697
G01 X16.3775 Y49.3758
G01 X16.3892 Y49.3849
G01 X16.3974 Y49.3926
G01 X16.4051 Y49.4008
G01 X16.4120 Y49.4095
G01 X16.4184 Y49.4187
G01 X16.4240 Y49.4284
G01 X16.4289 Y49.4384
G01 X16.4331 Y49.4488
G01 X16.4364 Y49.4595
G01 X16.4383 Y49.4667
G01 X16.4403 Y49.4777
G01 X16.4415 Y49.4888
G01 X16.4419 Y49.5000
G01 X16.4419 Y52.0000
G01 X16.4415 Y52.0112
G01 X16.4397 Y52.0260
G01 X16.4374 Y52.0369
G01 X16.4331 Y52.0512
G01 X16.4289 Y52.0616
G01 X16.4222 Y52.0749
G01 X16.4142 Y52.0875
G01 X16.4075 Y52.0964
G01 X16.3974 Y52.1074
G01 X16.3892 Y52.1151
G01 X16.3835 Y52.1198
G01 X16.3713 Y52.1284
G01 X16.3649 Y52.1322
G01 X16.3550 Y52.1374
G01 X16.3412 Y52.1431
G01 X16.3341 Y52.1454
G01 X16.3233 Y52.1483
G01 X16.3086 Y52.1508
G01 X16.2975 Y52.1518
G01 X16.2900 Y52.1519
G01 X13.2900 Y52.1519
G01 X13.2788 Y52.1515
G01 X13.2640 Y52.1497
G01 X13.2531 Y52.1474
G01 X13.2388 Y52.1431
G01 X13.2284 Y52.1389
G01 X13.2151 Y52.1322
G01 X13.2025 Y52.1242
G01 X13.1936 Y52.1175
G01 X13.1826 Y52.1074
G01 X13.1774 Y52.1020
G01 X13.1702 Y52.0935
G01 X13.1616 Y52.0813
G01 X13.1543 Y52.0683
G01 X13.1482 Y52.0547
G01 X13.1457 Y52.0477
G01 X13.1426 Y52.0369
G01 X13.1397 Y52.0223
G01 X13.1385 Y52.0112
G01 X13.1381 Y52.0037
G01 X13.1381 Y49.5000
G01 X13.1385 Y49.4888
G01 X13.1392 Y49.4814
G01 X13.1403 Y49.4740
G01 X13.1426 Y49.4631
G01 X13.1446 Y49.4559
G01 X13.1482 Y49.4453
G01 X13.1511 Y49.4384
G01 X13.1556 Y49.4291
G00 Z1.0000
G00 X4.2738 Y46.5779
G01 F60.00
G01 Z-0.0900
G01 F500.00
G01 X4.3301 Y46.6042
G01 X4.3617 Y46.6174
G01 X4.4817 Y46.6603
G01 X4.5145 Y46.6702
G01 X4.6215 Y46.6972
G01 X4.6381 Y46.7012
G01 X4.6718 Y46.7079
G01 X4.7978 Y46.7266
G01 X4.8149 Y46.7285
G01 X4.8491 Y46.7310
G01 X4.9421 Y46.7356
G01 X4.9764 Y46.7364
G01 X5.0107 Y46.7356
G01 X5.1208 Y46.7299
G01 X5.1379 Y46.7285
G01 X5.1719 Y46.7243
G01 X5.2640 Y46.7106
G01 X5.2978 Y46.7047
G01 X5.3313 Y46.6972
G01 X5.4216 Y46.6746
G01 X5.4382 Y46.6702
G01 X5.4710 Y46.6603
G01 X5.5910 Y46.6174
G01 X5.6069 Y46.6110
G01 X5.6383 Y46.5971
G01 X5.7225 Y46.5573
G01 X5.7531 Y46.5418
G01 X5.7830 Y46.5249
G01 X5.8628 Y46.4771
G01 X5.8918 Y46.4587
G01 X5.9060 Y46.4490
G01 X5.9946 Y46.3835
G01 X6.0217 Y46.3624
G01 X6.0477 Y46.3400
G01 X6.1167 Y46.2775
G01 X6.1292 Y46.2658
G01 X6.1535 Y46.2415
G01 X6.2391 Y46.1471
G01 X6.2608 Y46.1206
G01 X6.2712 Y46.1069
G01 X6.3267 Y46.0322
G01 X6.3464 Y46.0041
G01 X6.3648 Y45.9751
G01 X6.4213 Y45.8804
G01 X6.4296 Y45.8654
G01 X6.4450 Y45.8348
G01 X6.4848 Y45.7506
G01 X6.4987 Y45.7192
G01 X6.5110 Y45.6872
G01 X6.5424 Y45.5996
G01 X6.5480 Y45.5833
G01 X6.5579 Y45.5505
G01 X6.5849 Y45.4436
G01 X6.5925 Y45.4101
G01 X6.5956 Y45.3933
G01 X6.6143 Y45.2672
G01 X6.6177 Y45.2331
G01 X6.6211 Y45.1666
G01 X6.7851 Y45.3149
G01 X6.8086 Y45.3353
G01 X7.2998 Y45.7232
G01 X7.3251 Y45.7414
G01 X7.8155 Y46.0780
G01 X7.8416 Y46.0951
G01 X8.3801 Y46.4140
G01 X8.4076 Y46.4287
G01 X8.9384 Y46.6970
G01 X8.9665 Y46.7104
G01 X8.9808 Y46.7166
G01 X9.5284 Y46.9488
G01 X9.5573 Y46.9603
G01 X10.1339 Y47.1607
G01 X10.1486 Y47.1657
G01 X10.1785 Y47.1745
G01 X10.7521 Y47.3317
G01 X10.7824 Y47.3392
G01 X11.3957 Y47.4639
G01 X11.4265 Y47.4688
G01 X12.0160 Y47.5480
G01 X12.0469 Y47.5515
G01 X12.0625 Y47.5527
G01 X12.6715 Y47.5933
G01 X12.7026 Y47.5940
G01 X13.0908 Y47.5940
G01 X13.0908 Y48.3355
G01 X12.6642 Y49.1888
G01 X12.5969 Y49.1392
G01 X12.5684 Y49.1201
G01 X12.4338 Y49.0394
G01 X12.4187 Y49.0312
G01 X12.3881 Y49.0157
G01 X12.2616 Y48.9561
G01 X12.2299 Y48.9430
G01 X12.2138 Y48.9370
G01 X12.0983 Y48.8957
G01 X12.0658 Y48.8850
G01 X12.0327 Y48.8758
G01 X11.9137 Y48.8460
G01 X11.8802 Y48.8385
G01 X11.8634 Y48.8353
G01 X11.7251 Y48.8146
G01 X11.6910 Y48.8104
G01 X11.6568 Y48.8079
G01 X11.5172 Y48.8012
G01 X10.5228 Y48.8012
G01 X10.3661 Y48.8089
G01 X10.3490 Y48.8104
G01 X10.3149 Y48.8146
G01 X10.1936 Y48.8326
G01 X10.1598 Y48.8385
G01 X10.1263 Y48.8460
G01 X9.9907 Y48.8802
G01 X9.9742 Y48.8850
G01 X9.9417 Y48.8957
G01 X9.8262 Y48.9370
G01 X9.7942 Y48.9494
G01 X9.7628 Y48.9633
G01 X9.6365 Y49.0233
G01 X9.6062 Y49.0394
G01 X9.5824 Y49.0535
G01 X8.2684 Y49.2993
G01 X6.9965 Y49.3005
G01 X4.2738 Y46.5779
G00 Z1.0000
G00 X2.1992 Y43.5740
G01 F60.00
G01 Z-0.0900
G01 F500.00
G01 X3.4687 Y45.7727
G01 X2.1992 Y44.5033
G01 X2.1992 Y43.5740
G00 Z1.0000
G00 X1.9257 Y42.7349
G01 F60.00
G01 Z-0.0900
G01 F500.00
G01 X2.2296 Y43.0388
G01 X2.2483 Y43.0880
G01 X2.2576 Y43.1090
G01 X2.3020 Y43.2025
G01 X2.3286 Y43.2511
G01 X3.7863 Y45.7758
G01 X3.8262 Y45.8404
G01 X3.8390 Y45.8598
G01 X3.9012 Y45.9440
G01 X3.9141 Y45.9605
G01 X3.9277 Y45.9763
G01 X3.9903 Y46.0453
G01 X4.0047 Y46.0604
G01 X4.0198 Y46.0748
G01 X4.0888 Y46.1373
G01 X4.1046 Y46.1510
G01 X4.1210 Y46.1638
G01 X4.1958 Y46.2193
G01 X4.2129 Y46.2313
G01 X4.2305 Y46.2425
G01 X4.3104 Y46.2903
G01 X4.3286 Y46.3006
G01 X4.3472 Y46.3100
G01 X4.4314 Y46.3498
G01 X4.4505 Y46.3583
G01 X4.4700 Y46.3658
G01 X4.5576 Y46.3972
G01 X4.5775 Y46.4037
G01 X4.5976 Y46.4093
G01 X4.6879 Y46.4319
G01 X4.7083 Y46.4365
G01 X4.7185 Y46.4384
G01 X4.8210 Y46.4537
G01 X4.8417 Y46.4563
G01 X4.8625 Y46.4578
G01 X4.9555 Y46.4624
G01 X4.9764 Y46.4629
G01 X4.9973 Y46.4624
G01 X5.0903 Y46.4578
G01 X5.1111 Y46.4563
G01 X5.1318 Y46.4537
G01 X5.2239 Y46.4401
G01 X5.2445 Y46.4365
G01 X5.2649 Y46.4319
G01 X5.3552 Y46.4093
G01 X5.3753 Y46.4037
G01 X5.3951 Y46.3972
G01 X5.4926 Y46.3622
G01 X5.5023 Y46.3583
G01 X5.5214 Y46.3498
G01 X5.6055 Y46.3100
G01 X5.6242 Y46.3006
G01 X5.6424 Y46.2903
G01 X5.7222 Y46.2425
G01 X5.7399 Y46.2313
G01 X5.7569 Y46.2193
G01 X5.8317 Y46.1638
G01 X5.8482 Y46.1510
G01 X5.8640 Y46.1373
G01 X5.9330 Y46.0748
G01 X5.9481 Y46.0604
G01 X5.9625 Y46.0453
G01 X6.0250 Y45.9763
G01 X6.0387 Y45.9605
G01 X6.0452 Y45.9523
G01 X6.1070 Y45.8692
G01 X6.1190 Y45.8522
G01 X6.1302 Y45.8345
G01 X6.1780 Y45.7546
G01 X6.1883 Y45.7365
G01 X6.1977 Y45.7178
G01 X6.2375 Y45.6337
G01 X6.2460 Y45.6146
G01 X6.2535 Y45.5951
G01 X6.2849 Y45.5074
G01 X6.2914 Y45.4876
G01 X6.2970 Y45.4675
G01 X6.3220 Y45.3670
G01 X6.3261 Y45.3465
G01 X6.3278 Y45.3362
G01 X6.3414 Y45.2441
G01 X6.3440 Y45.2234
G01 X6.3455 Y45.2025
G01 X6.3505 Y45.0991
G01 X6.3505 Y45.0782
G01 X6.3501 Y45.0678
G01 X6.3455 Y44.9748
G01 X6.3440 Y44.9540
G01 X6.3414 Y44.9332
G01 X6.3278 Y44.8411
G01 X6.3242 Y44.8206
G01 X6.3196 Y44.8002
G01 X6.2970 Y44.7099
G01 X6.2914 Y44.6898
G01 X6.2883 Y44.6798
G01 X6.2535 Y44.5823
G01 X6.2460 Y44.5628
G01 X6.2375 Y44.5437
G01 X6.1977 Y44.4595
G01 X6.1883 Y44.4409
G01 X6.1665 Y44.4016
G01 X6.0790 Y44.2500
G01 X6.0935 Y44.2658
G01 X6.5136 Y44.7000
G01 X6.5274 Y44.7131
G01 X6.9685 Y45.1120
G01 X6.9902 Y45.1304
G01 X7.4570 Y45.4990
G01 X7.4799 Y45.5159
G01 X7.9703 Y45.8525
G01 X7.9861 Y45.8629
G01 X8.5142 Y46.1757
G01 X8.5309 Y46.1846
G01 X9.0703 Y46.4570
G01 X9.0876 Y46.4648
G01 X9.6352 Y46.6970
G01 X9.6617 Y46.7072
G01 X10.2236 Y46.9023
G01 X10.2507 Y46.9108
G01 X10.8244 Y47.0679
G01 X10.8428 Y47.0725
G01 X11.4349 Y47.1930
G01 X11.4536 Y47.1963
G01 X12.0618 Y47.2781
G01 X12.0807 Y47.2798
G01 X12.6742 Y47.3195
G01 X12.7026 Y47.3205
G01 X13.2974 Y47.3205
G01 X13.3163 Y47.3201
G01 X13.3643 Y47.3170
G01 X13.3643 Y48.4001
G01 X12.9100 Y49.3087
G01 X12.9010 Y49.3276
G01 X12.8930 Y49.3469
G01 X12.8894 Y49.3567
G01 X12.8860 Y49.3665
G01 X12.8800 Y49.3865
G01 X12.8773 Y49.3966
G01 X12.8727 Y49.4170
G01 X12.8708 Y49.4273
G01 X12.8677 Y49.4479
G01 X12.8657 Y49.4687
G01 X12.8651 Y49.4791
G01 X12.8645 Y49.5000
G01 X12.8645 Y49.7798
G01 X12.8080 Y49.7036
G01 X12.7951 Y49.6871
G01 X12.7815 Y49.6713
G01 X12.6991 Y49.5804
G01 X12.6847 Y49.5653
G01 X12.6696 Y49.5509
G01 X12.5709 Y49.4616
G01 X12.5629 Y49.4549
G01 X12.5464 Y49.4420
G01 X12.4479 Y49.3689
G01 X12.4308 Y49.3569
G01 X12.4132 Y49.3457
G01 X12.3080 Y49.2827
G01 X12.2898 Y49.2724
G01 X12.2712 Y49.2630
G01 X12.1603 Y49.2105
G01 X12.1412 Y49.2021
G01 X12.1217 Y49.1946
G01 X12.0062 Y49.1532
G01 X11.9864 Y49.1467
G01 X11.9662 Y49.1411
G01 X11.8472 Y49.1113
G01 X11.8269 Y49.1067
G01 X11.8063 Y49.1032
G01 X11.6849 Y49.0852
G01 X11.6642 Y49.0826
G01 X11.6434 Y49.0811
G01 X11.5104 Y49.0747
G01 X10.5296 Y49.0747
G01 X10.3966 Y49.0811
G01 X10.3758 Y49.0826
G01 X10.3551 Y49.0852
G01 X10.2337 Y49.1032
G01 X10.2131 Y49.1067
G01 X10.1928 Y49.1113
G01 X10.0738 Y49.1411
G01 X10.0536 Y49.1467
G01 X10.0338 Y49.1532
G01 X9.9085 Y49.1982
G01 X9.8988 Y49.2021
G01 X9.8797 Y49.2105
G01 X9.7595 Y49.2676
G01 X9.7410 Y49.2774
G01 X9.6810 Y49.3133
G01 X8.2939 Y49.5728
G01 X6.8833 Y49.5741
G01 X1.9257 Y44.6166
G01 X1.9257 Y42.7349
G00 Z1.0000
G00 X3.8566 Y40.9063
G01 F60.00
G01 Z-0.0900
G01 F500.00
G01 X3.7012 Y40.8348
G01 X3.7010 Y40.3655
G01 X3.7363 Y40.5134
G01 X3.7442 Y40.5435
G01 X3.8566 Y40.9063
G00 Z1.0000
G00 X4.3485 Y41.4699
G01 F60.00
G01 Z-0.0900
G01 F500.00
G01 X4.2908 Y41.4273
G01 X4.2735 Y41.4157
G01 X4.1847 Y41.3623
G01 X4.1757 Y41.3571
G01 X4.1573 Y41.3472
G01 X4.1077 Y41.3230
G01 X3.4277 Y41.0101
G01 X3.4258 Y33.8834
G01 X8.8834 Y28.4257
G01 X8.9639 Y28.4257
G01 X10.5624 Y28.8561
G01 X10.5862 Y28.8641
G01 X10.6063 Y28.8696
G01 X10.7015 Y28.8935
G01 X10.7117 Y28.8959
G01 X10.7322 Y28.9000
G01 X10.8396 Y28.9160
G01 X10.8603 Y28.9186
G01 X10.8791 Y28.9200
G01 X10.8428 Y28.9275
G01 X10.8244 Y28.9321
G01 X10.2507 Y29.0892
G01 X10.2236 Y29.0977
G01 X9.6617 Y29.2928
G01 X9.6439 Y29.2994
G01 X9.0789 Y29.5390
G01 X9.0618 Y29.5472
G01 X8.5225 Y29.8198
G01 X8.5060 Y29.8291
G01 X7.9942 Y30.1322
G01 X7.9703 Y30.1475
G01 X7.4799 Y30.4841
G01 X7.4570 Y30.5010
G01 X6.9902 Y30.8696
G01 X6.9756 Y30.8817
G01 X6.5204 Y31.2934
G01 X6.5070 Y31.3067
G01 X6.0870 Y31.7411
G01 X6.0744 Y31.7553
G01 X5.6904 Y32.2095
G01 X5.6728 Y32.2319
G01 X5.3199 Y32.7107
G01 X5.3039 Y32.7341
G01 X4.9838 Y33.2355
G01 X4.9740 Y33.2517
G01 X4.6790 Y33.7899
G01 X4.6707 Y33.8069
G01 X4.4203 Y34.3464
G01 X4.4092 Y34.3726
G01 X4.1954 Y34.9277
G01 X4.1890 Y34.9455
G01 X4.0099 Y35.5226
G01 X4.0047 Y35.5408
G01 X3.8624 Y36.1379
G01 X3.8588 Y36.1565
G01 X3.7599 Y36.7430
G01 X3.7561 Y36.7712
G01 X3.6966 Y37.3630
G01 X3.6947 Y37.3913
G01 X3.6748 Y37.9858
G01 X3.6746 Y38.0047
G01 X3.6947 Y38.6087
G01 X3.6966 Y38.6370
G01 X3.7561 Y39.2288
G01 X3.7599 Y39.2570
G01 X3.8588 Y39.8435
G01 X3.8624 Y39.8621
G01 X4.0047 Y40.4592
G01 X4.0099 Y40.4774
G01 X4.1890 Y41.0545
G01 X4.1954 Y41.0723
G01 X4.3485 Y41.4699
G00 Z1.0000
G00 X0.3478 Y45.0000
G01 F60.00
G01 Z-0.0900
G01 F500.00
G01 X0.3478 Y20.7500
G01 X0.3506 Y20.6898
G01 X0.3519 Y20.6787
G01 X0.3603 Y20.6228
G01 X0.3739 Y20.5679
G01 X0.3782 Y20.5536
G01 X0.3948 Y20.5074
G01 X0.4005 Y20.4936
G01 X0.4248 Y20.4426
G01 X0.4577 Y20.3877
G01 X0.4958 Y20.3362
G01 X0.5388 Y20.2888
G01 X0.5862 Y20.2458
G01 X0.6316 Y20.2120
G01 X0.6440 Y20.2037
G01 X0.6861 Y20.1785
G01 X0.6992 Y20.1715
G01 X0.7504 Y20.1474
G01 X0.8107 Y20.1259
G01 X0.8728 Y20.1103
G01 X0.9287 Y20.1019
G01 X0.9435 Y20.1004
G01 X0.9925 Y20.0980
G01 X1.0075 Y20.0980
G01 X1.0639 Y20.1009
G01 X1.1199 Y20.1091
G01 X1.1309 Y20.1111
G01 X1.1893 Y20.1259
G01 X1.2391 Y20.1435
G01 X2.0191 Y20.3479
G01 X2.8479 Y20.3479
G01 X2.8481 Y4.1250
G01 X2.8488 Y4.1053
G01 X2.8498 Y4.0941
G01 X2.8534 Y4.0710
G01 X2.8580 Y4.0518
G01 X2.8611 Y4.0411
G01 X2.8691 Y4.0190
G01 X2.8774 Y4.0011
G01 X2.8826 Y3.9912
G01 X2.8947 Y3.9711
G01 X2.9063 Y3.9552
G01 X2.9133 Y3.9465
G01 X2.9292 Y3.9292
G01 X2.9437 Y3.9158
G01 X2.9522 Y3.9086
G01 X2.9711 Y3.8947
G01 X2.9880 Y3.8844
G01 X2.9978 Y3.8790
G01 X3.0190 Y3.8691
G01 X3.0375 Y3.8623
G01 X3.0482 Y3.8589
G01 X3.0710 Y3.8534
G01 X3.0905 Y3.8503
G01 X3.1016 Y3.8491
G01 X3.1250 Y3.8481
G01 X3.3787 Y3.8481
G01 X3.3984 Y3.8491
G01 X3.4059 Y3.8498
G01 X3.4321 Y3.8540
G01 X3.4606 Y3.8500
G01 X3.5000 Y3.8481
G01 X23.0000 Y3.8481
G01 X23.0394 Y3.8500
G01 X23.0679 Y3.8540
G01 X23.0941 Y3.8498
G01 X23.1016 Y3.8491
G01 X23.1213 Y3.8481
G01 X23.3750 Y3.8481
G01 X23.3947 Y3.8488
G01 X23.4059 Y3.8498
G01 X23.4290 Y3.8534
G01 X23.4482 Y3.8580
G01 X23.4589 Y3.8611
G01 X23.4810 Y3.8691
G01 X23.4989 Y3.8774
G01 X23.5088 Y3.8826
G01 X23.5289 Y3.8947
G01 X23.5448 Y3.9063
G01 X23.5535 Y3.9133
G01 X23.5708 Y3.9292
G01 X23.5842 Y3.9437
G01 X23.5914 Y3.9522
G01 X23.6053 Y3.9711
G01 X23.6156 Y3.9880
G01 X23.6210 Y3.9978
G01 X23.6309 Y4.0190
G01 X23.6377 Y4.0375
G01 X23.6411 Y4.0482
G01 X23.6466 Y4.0710
G01 X23.6497 Y4.0905
G01 X23.6509 Y4.1016
G01 X23.6519 Y4.1250
G01 X23.6519 Y20.8750
G01 X23.6506 Y20.9021
G01 X23.6466 Y20.9290
G01 X23.6400 Y20.9554
G01 X23.6323 Y20.9775
G01 X23.6294 Y20.9844
G01 X23.6210 Y21.0022
G01 X23.6174 Y21.0088
G01 X23.6073 Y21.0257
G01 X23.6032 Y21.0319
G01 X23.5914 Y21.0478
G01 X23.5760 Y21.0654
G01 X23.5682 Y21.0734
G01 X23.5563 Y21.0842
G01 X23.5448 Y21.0937
G01 X23.5257 Y21.1073
G01 X23.5088 Y21.1174
G01 X23.4989 Y21.1226
G01 X23.4775 Y21.1323
G01 X23.4589 Y21.1389
G01 X23.4518 Y21.1411
G01 X23.4327 Y21.1459
G01 X23.4254 Y21.1473
G01 X23.4059 Y21.1502
G01 X23.3984 Y21.1509
G01 X23.3750 Y21.1519
G01 X23.1250 Y21.1519
G01 X23.1016 Y21.1509
G01 X23.0941 Y21.1502
G01 X23.0746 Y21.1473
G01 X23.0673 Y21.1459
G01 X23.0482 Y21.1411
G01 X23.0411 Y21.1389
G01 X23.0225 Y21.1323
G01 X23.0156 Y21.1294
G01 X22.9978 Y21.1210
G01 X22.9880 Y21.1156
G01 X22.9711 Y21.1053
G01 X22.9522 Y21.0914
G01 X22.9437 Y21.0842
G01 X22.9292 Y21.0708
G01 X22.9133 Y21.0535
G01 X22.9063 Y21.0448
G01 X22.8927 Y21.0257
G01 X22.8808 Y21.0056
G01 X22.8722 Y20.9878
G01 X22.8677 Y20.9775
G01 X22.8600 Y20.9554
G01 X22.8541 Y20.9327
G01 X22.8521 Y20.9217
G01 X22.8494 Y20.9021
G01 X22.8481 Y20.8787
G01 X22.8480 Y5.1519
G01 X21.6519 Y5.1519
G01 X21.6519 Y20.8787
G01 X21.6506 Y20.9021
G01 X21.6466 Y20.9290
G01 X21.6400 Y20.9554
G01 X21.6309 Y20.9810
G01 X21.6192 Y21.0056
G01 X21.6053 Y21.0289
G01 X21.5891 Y21.0507
G01 X21.5708 Y21.0708
G01 X21.5507 Y21.0891
G01 X21.5289 Y21.1053
G01 X21.5056 Y21.1192
G01 X21.4810 Y21.1309
G01 X21.4554 Y21.1400
G01 X21.4290 Y21.1466
G01 X21.4021 Y21.1506
G01 X21.3750 Y21.1519
G01 X21.1250 Y21.1519
G01 X21.1016 Y21.1509
G01 X21.0941 Y21.1502
G01 X21.0746 Y21.1473
G01 X21.0673 Y21.1459
G01 X21.0482 Y21.1411
G01 X21.0411 Y21.1389
G01 X21.0225 Y21.1323
G01 X21.0156 Y21.1294
G01 X20.9978 Y21.1210
G01 X20.9880 Y21.1156
G01 X20.9711 Y21.1053
G01 X20.9522 Y21.0914
G01 X20.9437 Y21.0842
G01 X20.9292 Y21.0708
G01 X20.9133 Y21.0535
G01 X20.9063 Y21.0448
G01 X20.8927 Y21.0257
G01 X20.8808 Y21.0056
G01 X20.8722 Y20.9878
G01 X20.8677 Y20.9775
G01 X20.8600 Y20.9554
G01 X20.8541 Y20.9327
G01 X20.8521 Y20.9217
G01 X20.8494 Y20.9021
G01 X20.8481 Y20.8787
G01 X20.8480 Y5.1519
G01 X19.6519 Y5.1519
G01 X19.6519 Y20.8787
G01 X19.6506 Y20.9021
G01 X19.6466 Y20.9290
G01 X19.6400 Y20.9554
G01 X19.6309 Y20.9810
G01 X19.6192 Y21.0056
G01 X19.6053 Y21.0289
G01 X19.5891 Y21.0507
G01 X19.5708 Y21.0708
G01 X19.5507 Y21.0891
G01 X19.5289 Y21.1053
G01 X19.5056 Y21.1192
G01 X19.4810 Y21.1309
G01 X19.4554 Y21.1400
G01 X19.4290 Y21.1466
G01 X19.4021 Y21.1506
G01 X19.3750 Y21.1519
G01 X19.1250 Y21.1519
G01 X19.1016 Y21.1509
G01 X19.0941 Y21.1502
G01 X19.0746 Y21.1473
G01 X19.0673 Y21.1459
G01 X19.0482 Y21.1411
G01 X19.0411 Y21.1389
G01 X19.0225 Y21.1323
G01 X19.0156 Y21.1294
G01 X18.9978 Y21.1210
G01 X18.9880 Y21.1156
G01 X18.9711 Y21.1053
G01 X18.9522 Y21.0914
G01 X18.9437 Y21.0842
G01 X18.9292 Y21.0708
G01 X18.9133 Y21.0535
G01 X18.9063 Y21.0448
G01 X18.8927 Y21.0257
G01 X18.8808 Y21.0056
G01 X18.8722 Y20.9878
G01 X18.8677 Y20.9775
G01 X18.8600 Y20.9554
G01 X18.8541 Y20.9327
G01 X18.8521 Y20.9217
G01 X18.8494 Y20.9021
G01 X18.8481 Y20.8787
G01 X18.8480 Y5.1519
G01 X17.6519 Y5.1519
G01 X17.6519 Y20.8787
G01 X17.6506 Y20.9021
G01 X17.6466 Y20.9290
G01 X17.6400 Y20.9554
G01 X17.6309 Y20.9810
G01 X17.6192 Y21.0056
G01 X17.6053 Y21.0289
G01 X17.5891 Y21.0507
G01 X17.5708 Y21.0708
G01 X17.5507 Y21.0891
G01 X17.5289 Y21.1053
G01 X17.5056 Y21.1192
G01 X17.4810 Y21.1309
G01 X17.4554 Y21.1400
G01 X17.4290 Y21.1466
G01 X17.4021 Y21.1506
G01 X17.3750 Y21.1519
G01 X17.1250 Y21.1519
G01 X17.1016 Y21.1509
G01 X17.0941 Y21.1502
G01 X17.0746 Y21.1473
G01 X17.0673 Y21.1459
G01 X17.0482 Y21.1411
G01 X17.0411 Y21.1389
G01 X17.0225 Y21.1323
G01 X17.0156 Y21.1294
G01 X16.9978 Y21.1210
G01 X16.9880 Y21.1156
G01 X16.9711 Y21.1053
G01 X16.9522 Y21.0914
G01 X16.9437 Y21.0842
G01 X16.9292 Y21.0708
G01 X16.9133 Y21.0535
G01 X16.9063 Y21.0448
G01 X16.8927 Y21.0257
G01 X16.8808 Y21.0056
G01 X16.8722 Y20.9878
G01 X16.8677 Y20.9775
G01 X16.8600 Y20.9554
G01 X16.8541 Y20.9327
G01 X16.8521 Y20.9217
G01 X16.8494 Y20.9021
G01 X16.8481 Y20.8787
G01 X16.8480 Y5.1519
G01 X15.6519 Y5.1519
G01 X15.6519 Y20.8787
G01 X15.6506 Y20.9021
G01 X15.6466 Y20.9290
G01 X15.6400 Y20.9554
G01 X15.6309 Y20.9810
G01 X15.6192 Y21.0056
G01 X15.6053 Y21.0289
G01 X15.5891 Y21.0507
G01 X15.5708 Y21.0708
G01 X15.5507 Y21.0891
G01 X15.5289 Y21.1053
G01 X15.5056 Y21.1192
G01 X15.4810 Y21.1309
G01 X15.4554 Y21.1400
G01 X15.4290 Y21.1466
G01 X15.4021 Y21.1506
G01 X15.3750 Y21.1519
G01 X15.1250 Y21.1519
G01 X15.1016 Y21.1509
G01 X15.0941 Y21.1502
G01 X15.0746 Y21.1473
G01 X15.0673 Y21.1459
G01 X15.0482 Y21.1411
G01 X15.0411 Y21.1389
G01 X15.0225 Y21.1323
G01 X15.0156 Y21.1294
G01 X14.9978 Y21.1210
G01 X14.9880 Y21.1156
G01 X14.9681 Y21.1032
G01 X14.9493 Y21.0891
G01 X14.9346 Y21.0760
G01 X14.9266 Y21.0682
G01 X14.9109 Y21.0507
G01 X14.8990 Y21.0350
G01 X14.8927 Y21.0257
G01 X14.8808 Y21.0056
G01 X14.8722 Y20.9878
G01 X14.8677 Y20.9775
G01 X14.8600 Y20.9554
G01 X14.8541 Y20.9327
G01 X14.8521 Y20.9217
G01 X14.8494 Y20.9021
G01 X14.8481 Y20.8787
G01 X14.8480 Y5.1519
G01 X13.6519 Y5.1519
G01 X13.6519 Y20.8787
G01 X13.6506 Y20.9021
G01 X13.6466 Y20.9290
G01 X13.6400 Y20.9554
G01 X13.6309 Y20.9810
G01 X13.6192 Y21.0056
G01 X13.6053 Y21.0289
G01 X13.5891 Y21.0507
G01 X13.5708 Y21.0708
G01 X13.5507 Y21.0891
G01 X13.5289 Y21.1053
G01 X13.5056 Y21.1192
G01 X13.4810 Y21.1309
G01 X13.4554 Y21.1400
G01 X13.4290 Y21.1466
G01 X13.4021 Y21.1506
G01 X13.3750 Y21.1519
G01 X13.1250 Y21.1519
G01 X13.1016 Y21.1509
G01 X13.0941 Y21.1502
G01 X13.0746 Y21.1473
G01 X13.0673 Y21.1459
G01 X13.0482 Y21.1411
G01 X13.0411 Y21.1389
G01 X13.0225 Y21.1323
G01 X13.0156 Y21.1294
G01 X12.9978 Y21.1210
G01 X12.9880 Y21.1156
G01 X12.9681 Y21.1032
G01 X12.9493 Y21.0891
G01 X12.9346 Y21.0760
G01 X12.9266 Y21.0682
G01 X12.9109 Y21.0507
G01 X12.8990 Y21.0350
G01 X12.8927 Y21.0257
G01 X12.8808 Y21.0056
G01 X12.8722 Y20.9878
G01 X12.8677 Y20.9775
G01 X12.8600 Y20.9554
G01 X12.8541 Y20.9327
G01 X12.8521 Y20.9217
G01 X12.8494 Y20.9021
G01 X12.8481 Y20.8787
G01 X12.8480 Y5.1519
G01 X11.6519 Y5.1519
G01 X11.6519 Y20.8787
G01 X11.6506 Y20.9021
G01 X11.6466 Y20.9290
G01 X11.6400 Y20.9554
G01 X11.6309 Y20.9810
G01 X11.6192 Y21.0056
G01 X11.6053 Y21.0289
G01 X11.5891 Y21.0507
G01 X11.5708 Y21.0708
G01 X11.5507 Y21.0891
G01 X11.5289 Y21.1053
G01 X11.5056 Y21.1192
G01 X11.4810 Y21.1309
G01 X11.4554 Y21.1400
G01 X11.4290 Y21.1466
G01 X11.4021 Y21.1506
G01 X11.3750 Y21.1519
G01 X11.1250 Y21.1519
G01 X11.1016 Y21.1509
G01 X11.0941 Y21.1502
G01 X11.0746 Y21.1473
G01 X11.0673 Y21.1459
G01 X11.0482 Y21.1411
G01 X11.0411 Y21.1389
G01 X11.0225 Y21.1323
G01 X11.0156 Y21.1294
G01 X10.9978 Y21.1210
G01 X10.9880 Y21.1156
G01 X10.9681 Y21.1032
G01 X10.9493 Y21.0891
G01 X10.9346 Y21.0760
G01 X10.9266 Y21.0682
G01 X10.9109 Y21.0507
G01 X10.8990 Y21.0350
G01 X10.8927 Y21.0257
G01 X10.8808 Y21.0056
G01 X10.8722 Y20.9878
G01 X10.8677 Y20.9775
G01 X10.8600 Y20.9554
G01 X10.8541 Y20.9327
G01 X10.8521 Y20.9217
G01 X10.8494 Y20.9021
G01 X10.8481 Y20.8787
G01 X10.8480 Y5.1519
G01 X9.6519 Y5.1519
G01 X9.6519 Y20.8787
G01 X9.6506 Y20.9021
G01 X9.6466 Y20.9290
G01 X9.6400 Y20.9554
G01 X9.6309 Y20.9810
G01 X9.6192 Y21.0056
G01 X9.6053 Y21.0289
G01 X9.5891 Y21.0507
G01 X9.5708 Y21.0708
G01 X9.5507 Y21.0891
G01 X9.5289 Y21.1053
G01 X9.5056 Y21.1192
G01 X9.4810 Y21.1309
G01 X9.4554 Y21.1400
G01 X9.4290 Y21.1466
G01 X9.4021 Y21.1506
G01 X9.3750 Y21.1519
G01 X9.1250 Y21.1519
G01 X9.1016 Y21.1509
G01 X9.0941 Y21.1502
G01 X9.0746 Y21.1473
G01 X9.0673 Y21.1459
G01 X9.0482 Y21.1411
G01 X9.0411 Y21.1389
G01 X9.0225 Y21.1323
G01 X9.0156 Y21.1294
G01 X8.9978 Y21.1210
G01 X8.9880 Y21.1156
G01 X8.9681 Y21.1032
G01 X8.9493 Y21.0891
G01 X8.9346 Y21.0760
G01 X8.9266 Y21.0682
G01 X8.9109 Y21.0507
G01 X8.8990 Y21.0350
G01 X8.8927 Y21.0257
G01 X8.8808 Y21.0056
G01 X8.8722 Y20.9878
G01 X8.8677 Y20.9775
G01 X8.8600 Y20.9554
G01 X8.8541 Y20.9327
G01 X8.8521 Y20.9217
G01 X8.8494 Y20.9021
G01 X8.8481 Y20.8787
G01 X8.8480 Y5.1519
G01 X7.6519 Y5.1519
G01 X7.6519 Y20.8787
G01 X7.6506 Y20.9021
G01 X7.6466 Y20.9290
G01 X7.6400 Y20.9554
G01 X7.6309 Y20.9810
G01 X7.6192 Y21.0056
G01 X7.6053 Y21.0289
G01 X7.5891 Y21.0507
G01 X7.5708 Y21.0708
G01 X7.5507 Y21.0891
G01 X7.5289 Y21.1053
G01 X7.5056 Y21.1192
G01 X7.4810 Y21.1309
G01 X7.4554 Y21.1400
G01 X7.4290 Y21.1466
G01 X7.4021 Y21.1506
G01 X7.3750 Y21.1519
G01 X7.1250 Y21.1519
G01 X7.1016 Y21.1509
G01 X7.0941 Y21.1502
G01 X7.0746 Y21.1473
G01 X7.0673 Y21.1459
G01 X7.0482 Y21.1411
G01 X7.0411 Y21.1389
G01 X7.0225 Y21.1323
G01 X7.0156 Y21.1294
G01 X6.9978 Y21.1210
G01 X6.9880 Y21.1156
G01 X6.9681 Y21.1032
G01 X6.9493 Y21.0891
G01 X6.9346 Y21.0760
G01 X6.9266 Y21.0682
G01 X6.9109 Y21.0507
G01 X6.8990 Y21.0350
G01 X6.8927 Y21.0257
G01 X6.8808 Y21.0056
G01 X6.8722 Y20.9878
G01 X6.8677 Y20.9775
G01 X6.8600 Y20.9554
G01 X6.8541 Y20.9327
G01 X6.8521 Y20.9217
G01 X6.8494 Y20.9021
G01 X6.8481 Y20.8787
G01 X6.8480 Y5.1519
G01 X5.6519 Y5.1519
G01 X5.6519 Y20.8787
G01 X5.6506 Y20.9021
G01 X5.6466 Y20.9290
G01 X5.6400 Y20.9554
G01 X5.6309 Y20.9810
G01 X5.6192 Y21.0056
G01 X5.6053 Y21.0289
G01 X5.5891 Y21.0507
G01 X5.5708 Y21.0708
G01 X5.5507 Y21.0891
G01 X5.5289 Y21.1053
G01 X5.5056 Y21.1192
G01 X5.4810 Y21.1309
G01 X5.4554 Y21.1400
G01 X5.4290 Y21.1466
G01 X5.4021 Y21.1506
G01 X5.3750 Y21.1519
G01 X5.1250 Y21.1519
G01 X5.1016 Y21.1509
G01 X5.0941 Y21.1502
G01 X5.0746 Y21.1473
G01 X5.0673 Y21.1459
G01 X5.0482 Y21.1411
G01 X5.0411 Y21.1389
G01 X5.0225 Y21.1323
G01 X5.0156 Y21.1294
G01 X4.9978 Y21.1210
G01 X4.9880 Y21.1156
G01 X4.9681 Y21.1032
G01 X4.9493 Y21.0891
G01 X4.9346 Y21.0760
G01 X4.9266 Y21.0682
G01 X4.9109 Y21.0507
G01 X4.8990 Y21.0350
G01 X4.8927 Y21.0257
G01 X4.8808 Y21.0056
G01 X4.8722 Y20.9878
G01 X4.8677 Y20.9775
G01 X4.8600 Y20.9554
G01 X4.8541 Y20.9327
G01 X4.8521 Y20.9217
G01 X4.8494 Y20.9021
G01 X4.8481 Y20.8787
G01 X4.8480 Y5.1519
G01 X3.6519 Y5.1519
G01 X3.6521 Y20.5000
G01 X3.6519 Y20.8750
G01 X3.6512 Y20.8947
G01 X3.6502 Y20.9059
G01 X3.6466 Y20.9290
G01 X3.6400 Y20.9554
G01 X3.6309 Y20.9810
G01 X3.6226 Y20.9989
G01 X3.6156 Y21.0120
G01 X3.6032 Y21.0319
G01 X3.5891 Y21.0507
G01 X3.5734 Y21.0682
G01 X3.5563 Y21.0842
G01 X3.5448 Y21.0937
G01 X3.5289 Y21.1053
G01 X3.5056 Y21.1192
G01 X3.4810 Y21.1309
G01 X3.4625 Y21.1377
G01 X3.4482 Y21.1420
G01 X3.4254 Y21.1473
G01 X3.4021 Y21.1506
G01 X3.3750 Y21.1519
G01 X3.1213 Y21.1519
G01 X3.0979 Y21.1506
G01 X3.0783 Y21.1479
G01 X3.0682 Y21.1460
G01 X3.0394 Y21.1501
G01 X3.0000 Y21.1521
G01 X2.0191 Y21.1521
G01 X1.6522 Y21.2482
G01 X1.6522 Y44.7298
G01 X6.7702 Y49.8478
G01 X8.3112 Y49.8478
G01 X9.7795 Y49.5731
G01 X9.8791 Y49.5136
G01 X9.9967 Y49.4578
G01 X10.0105 Y49.4521
G01 X10.1260 Y49.4108
G01 X10.1402 Y49.4064
G01 X10.2665 Y49.3750
G01 X10.3952 Y49.3557
G01 X10.4063 Y49.3545
G01 X10.5400 Y49.3481
G01 X11.5037 Y49.3481
G01 X11.6300 Y49.3543
G01 X11.6448 Y49.3557
G01 X11.7735 Y49.3750
G01 X11.8998 Y49.4064
G01 X11.9140 Y49.4108
G01 X12.0365 Y49.4548
G01 X12.1609 Y49.5136
G01 X12.2789 Y49.5843
G01 X12.3835 Y49.6617
G01 X12.3950 Y49.6711
G01 X12.4859 Y49.7535
G01 X12.4965 Y49.7641
G01 X12.5837 Y49.8606
G01 X12.6614 Y49.9650
G01 X12.6697 Y49.9774
G01 X12.7364 Y50.0891
G01 X12.7952 Y50.2135
G01 X12.8416 Y50.3430
G01 X12.8750 Y50.4765
G01 X12.8952 Y50.6126
G01 X12.9018 Y50.7425
G01 X12.9018 Y50.7575
G01 X12.8957 Y50.8800
G01 X12.8943 Y50.8948
G01 X12.8750 Y51.0235
G01 X12.8436 Y51.1498
G01 X12.8392 Y51.1640
G01 X12.7952 Y51.2865
G01 X12.7381 Y51.4076
G01 X12.7327 Y51.4174
G01 X12.6657 Y51.5289
G01 X12.5837 Y51.6394
G01 X12.4913 Y51.7413
G01 X12.3894 Y51.8337
G01 X12.2789 Y51.9157
G01 X12.1609 Y51.9864
G01 X12.0365 Y52.0452
G01 X11.9105 Y52.0905
G01 X11.8998 Y52.0936
G01 X11.7808 Y52.1234
G01 X11.7662 Y52.1263
G01 X11.6374 Y52.1452
G01 X11.5075 Y52.1518
G01 X10.5400 Y52.1519
G01 X10.4100 Y52.1457
G01 X10.3952 Y52.1443
G01 X10.2738 Y52.1263
G01 X10.2592 Y52.1234
G01 X10.1330 Y52.0916
G01 X10.0105 Y52.0479
G01 X9.9967 Y52.0422
G01 X9.8791 Y51.9864
G01 X9.7642 Y51.9177
G01 X9.7550 Y51.9114
G01 X9.6535 Y51.8361
G01 X9.6450 Y51.8289
G01 X9.6198 Y51.8061
G01 X9.6045 Y51.8045
G01 X9.5899 Y51.8016
G01 X9.5827 Y51.7996
G01 X9.5721 Y51.7960
G01 X9.5585 Y51.7900
G01 X8.2884 Y51.1522
G01 X6.4963 Y51.1522
G01 X6.4361 Y51.1491
G01 X6.3801 Y51.1409
G01 X6.3655 Y51.1380
G01 X6.3107 Y51.1241
G01 X6.2574 Y51.1052
G01 X6.2436 Y51.0995
G01 X6.1959 Y51.0769
G01 X6.1861 Y51.0715
G01 X6.1440 Y51.0463
G01 X6.1316 Y51.0380
G01 X6.0862 Y51.0042
G01 X6.0388 Y50.9612
G01 X0.5362 Y45.4585
G01 X0.4958 Y45.4138
G01 X0.4577 Y45.3623
G01 X0.4248 Y45.3074
G01 X0.3974 Y45.2496
G01 X0.3759 Y45.1893
G01 X0.3603 Y45.1272
G01 X0.3509 Y45.0639
G01 X0.3478 Y45.0000
G00 Z1.0000
G00 X3.6998 Y35.6400
G01 F60.00
G01 Z-0.0900
G01 F500.00
G01 X3.6993 Y33.9967
G01 X5.0103 Y32.6856
G01 X4.7533 Y33.0883
G01 X4.7371 Y33.1149
G01 X4.4436 Y33.6501
G01 X4.4293 Y33.6777
G01 X4.4226 Y33.6918
G01 X4.1658 Y34.2455
G01 X4.1540 Y34.2743
G01 X3.9402 Y34.8294
G01 X3.9296 Y34.8587
G01 X3.7442 Y35.4565
G01 X3.7363 Y35.4866
G01 X3.6998 Y35.6400
G00 Z1.0000
G00 X4.0509 Y55.5509
G01 F60.00
G01 Z-0.0900
G01 F500.00
G01 X4.0509 Y54.5000
G01 X4.0517 Y54.4657
G01 X4.0540 Y54.4241
G01 X4.0574 Y54.3899
G01 X4.0597 Y54.3729
G01 X4.0660 Y54.3317
G01 X4.0691 Y54.3148
G01 X4.0727 Y54.2981
G01 X4.0826 Y54.2576
G01 X4.0918 Y54.2245
G01 X4.1025 Y54.1919
G01 X4.1168 Y54.1527
G01 X4.1232 Y54.1368
G01 X4.1299 Y54.1210
G01 X4.1475 Y54.0832
G01 X4.1630 Y54.0526
G01 X4.1712 Y54.0376
G01 X4.1925 Y54.0017
G01 X4.2109 Y53.9727
G01 X4.2306 Y53.9447
G01 X4.2556 Y53.9113
G01 X4.2774 Y53.8848
G01 X4.2887 Y53.8719
G01 X4.3169 Y53.8412
G01 X4.3412 Y53.8169
G01 X4.3719 Y53.7887
G01 X4.3979 Y53.7663
G01 X4.4249 Y53.7452
G01 X4.4586 Y53.7206
G01 X4.4871 Y53.7015
G01 X4.5227 Y53.6799
G01 X4.5526 Y53.6630
G01 X4.5832 Y53.6475
G01 X4.6210 Y53.6299
G01 X4.6527 Y53.6168
G01 X4.6919 Y53.6025
G01 X4.7245 Y53.5918
G01 X4.7576 Y53.5826
G01 X4.7981 Y53.5727
G01 X4.8317 Y53.5660
G01 X4.8729 Y53.5597
G01 X4.9070 Y53.5555
G01 X4.9412 Y53.5530
G01 X4.9828 Y53.5511
G01 X5.0172 Y53.5511
G01 X5.0588 Y53.5530
G01 X5.0930 Y53.5555
G01 X5.1271 Y53.5597
G01 X5.1683 Y53.5660
G01 X5.1852 Y53.5691
G01 X5.2186 Y53.5767
G01 X5.2590 Y53.5870
G01 X5.2755 Y53.5918
G01 X5.3081 Y53.6025
G01 X5.3473 Y53.6168
G01 X5.3632 Y53.6232
G01 X5.3946 Y53.6371
G01 X5.4322 Y53.6551
G01 X5.4474 Y53.6630
G01 X5.4773 Y53.6799
G01 X5.5129 Y53.7015
G01 X5.5414 Y53.7206
G01 X5.5553 Y53.7306
G01 X5.5887 Y53.7556
G01 X5.6021 Y53.7663
G01 X5.6152 Y53.7774
G01 X5.6463 Y53.8052
G01 X5.6711 Y53.8289
G01 X5.6831 Y53.8412
G01 X5.7113 Y53.8719
G01 X5.7337 Y53.8979
G01 X5.7444 Y53.9113
G01 X5.7694 Y53.9447
G01 X5.7891 Y53.9727
G01 X5.7985 Y53.9871
G01 X5.8201 Y54.0227
G01 X5.8370 Y54.0526
G01 X5.8449 Y54.0678
G01 X5.8629 Y54.1054
G01 X5.8701 Y54.1210
G01 X5.8832 Y54.1527
G01 X5.8975 Y54.1919
G01 X5.9082 Y54.2245
G01 X5.9174 Y54.2576
G01 X5.9273 Y54.2981
G01 X5.9309 Y54.3148
G01 X5.9367 Y54.3486
G01 X5.9426 Y54.3899
G01 X5.9460 Y54.4241
G01 X5.9483 Y54.4657
G01 X5.9491 Y54.5000
G01 X5.9491 Y55.5509
G01 X7.0172 Y55.5511
G01 X7.0588 Y55.5530
G01 X7.0930 Y55.5555
G01 X7.1271 Y55.5597
G01 X7.1683 Y55.5660
G01 X7.2019 Y55.5727
G01 X7.2424 Y55.5826
G01 X7.2755 Y55.5918
G01 X7.2919 Y55.5970
G01 X7.3473 Y55.6168
G01 X7.3632 Y55.6232
G01 X7.3946 Y55.6371
G01 X7.4322 Y55.6551
G01 X7.4474 Y55.6630
G01 X7.4624 Y55.6712
G01 X7.4983 Y55.6925
G01 X7.5129 Y55.7015
G01 X7.5414 Y55.7206
G01 X7.5887 Y55.7556
G01 X7.6152 Y55.7774
G01 X7.6281 Y55.7887
G01 X7.6588 Y55.8169
G01 X7.6711 Y55.8289
G01 X7.6831 Y55.8412
G01 X7.7113 Y55.8719
G01 X7.7337 Y55.8979
G01 X7.7444 Y55.9113
G01 X7.7794 Y55.9586
G01 X7.7891 Y55.9727
G01 X7.8075 Y56.0017
G01 X7.8288 Y56.0376
G01 X7.8370 Y56.0526
G01 X7.8449 Y56.0678
G01 X7.8629 Y56.1054
G01 X7.8768 Y56.1368
G01 X7.8832 Y56.1527
G01 X7.9030 Y56.2081
G01 X7.9130 Y56.2410
G01 X7.9233 Y56.2814
G01 X7.9309 Y56.3148
G01 X7.9367 Y56.3486
G01 X7.9426 Y56.3899
G01 X7.9460 Y56.4241
G01 X7.9483 Y56.4657
G01 X7.9491 Y56.5000
G01 X7.9489 Y56.5172
G01 X7.9470 Y56.5588
G01 X7.9445 Y56.5930
G01 X7.9403 Y56.6271
G01 X7.9340 Y56.6683
G01 X7.9273 Y56.7019
G01 X7.9174 Y56.7424
G01 X7.9082 Y56.7755
G01 X7.8975 Y56.8081
G01 X7.8832 Y56.8473
G01 X7.8701 Y56.8790
G01 X7.8525 Y56.9168
G01 X7.8370 Y56.9474
G01 X7.8201 Y56.9773
G01 X7.7985 Y57.0129
G01 X7.7891 Y57.0273
G01 X7.7694 Y57.0553
G01 X7.7444 Y57.0887
G01 X7.7226 Y57.1152
G01 X7.6948 Y57.1463
G01 X7.6711 Y57.1711
G01 X7.6463 Y57.1948
G01 X7.6152 Y57.2226
G01 X7.5887 Y57.2444
G01 X7.5414 Y57.2794
G01 X7.5129 Y57.2985
G01 X7.4624 Y57.3288
G01 X7.4322 Y57.3449
G01 X7.4168 Y57.3525
G01 X7.3790 Y57.3701
G01 X7.3632 Y57.3768
G01 X7.3473 Y57.3832
G01 X7.3081 Y57.3975
G01 X7.2755 Y57.4082
G01 X7.2590 Y57.4130
G01 X7.2019 Y57.4273
G01 X7.1683 Y57.4340
G01 X7.1514 Y57.4367
G01 X7.1101 Y57.4426
G01 X7.0930 Y57.4445
G01 X7.0588 Y57.4470
G01 X7.0172 Y57.4489
G01 X7.0000 Y57.4491
G01 X5.9491 Y57.4491
G01 X5.9489 Y58.5172
G01 X5.9470 Y58.5588
G01 X5.9445 Y58.5930
G01 X5.9403 Y58.6271
G01 X5.9340 Y58.6683
G01 X5.9273 Y58.7019
G01 X5.9174 Y58.7424
G01 X5.9082 Y58.7755
G01 X5.9030 Y58.7919
G01 X5.8832 Y58.8473
G01 X5.8768 Y58.8632
G01 X5.8629 Y58.8946
G01 X5.8449 Y58.9322
G01 X5.8370 Y58.9474
G01 X5.8288 Y58.9624
G01 X5.8075 Y58.9983
G01 X5.7891 Y59.0273
G01 X5.7794 Y59.0414
G01 X5.7444 Y59.0887
G01 X5.7226 Y59.1152
G01 X5.7113 Y59.1281
G01 X5.6831 Y59.1588
G01 X5.6711 Y59.1711
G01 X5.6588 Y59.1831
G01 X5.6281 Y59.2113
G01 X5.6021 Y59.2337
G01 X5.5887 Y59.2444
G01 X5.5414 Y59.2794
G01 X5.5129 Y59.2985
G01 X5.4983 Y59.3075
G01 X5.4624 Y59.3288
G01 X5.4474 Y59.3370
G01 X5.4322 Y59.3449
G01 X5.3946 Y59.3629
G01 X5.3790 Y59.3701
G01 X5.3473 Y59.3832
G01 X5.2919 Y59.4030
G01 X5.2590 Y59.4130
G01 X5.2186 Y59.4233
G01 X5.1852 Y59.4309
G01 X5.1514 Y59.4367
G01 X5.1101 Y59.4426
G01 X5.0759 Y59.4460
G01 X5.0343 Y59.4483
G01 X5.0000 Y59.4491
G01 X4.9828 Y59.4489
G01 X4.9412 Y59.4470
G01 X4.9070 Y59.4445
G01 X4.8729 Y59.4403
G01 X4.8317 Y59.4340
G01 X4.7981 Y59.4273
G01 X4.7576 Y59.4174
G01 X4.7245 Y59.4082
G01 X4.6919 Y59.3975
G01 X4.6527 Y59.3832
G01 X4.6210 Y59.3701
G01 X4.5832 Y59.3525
G01 X4.5526 Y59.3370
G01 X4.5227 Y59.3201
G01 X4.4871 Y59.2985
G01 X4.4727 Y59.2891
G01 X4.4447 Y59.2694
G01 X4.4113 Y59.2444
G01 X4.3848 Y59.2226
G01 X4.3412 Y59.1831
G01 X4.3169 Y59.1588
G01 X4.2887 Y59.1281
G01 X4.2663 Y59.1021
G01 X4.2452 Y59.0751
G01 X4.2206 Y59.0414
G01 X4.2015 Y59.0129
G01 X4.1712 Y58.9624
G01 X4.1630 Y58.9474
G01 X4.1475 Y58.9168
G01 X4.1299 Y58.8790
G01 X4.1232 Y58.8632
G01 X4.1168 Y58.8473
G01 X4.1025 Y58.8081
G01 X4.0970 Y58.7919
G01 X4.0870 Y58.7590
G01 X4.0727 Y58.7019
G01 X4.0660 Y58.6683
G01 X4.0633 Y58.6514
G01 X4.0574 Y58.6101
G01 X4.0555 Y58.5930
G01 X4.0530 Y58.5588
G01 X4.0511 Y58.5172
G01 X4.0509 Y58.5000
G01 X4.0509 Y57.4491
G01 X2.9828 Y57.4489
G01 X2.9412 Y57.4470
G01 X2.9070 Y57.4445
G01 X2.8729 Y57.4403
G01 X2.8317 Y57.4340
G01 X2.7981 Y57.4273
G01 X2.7814 Y57.4233
G01 X2.7410 Y57.4130
G01 X2.7081 Y57.4030
G01 X2.6527 Y57.3832
G01 X2.6368 Y57.3768
G01 X2.6054 Y57.3629
G01 X2.5678 Y57.3449
G01 X2.5526 Y57.3370
G01 X2.5376 Y57.3288
G01 X2.5017 Y57.3075
G01 X2.4871 Y57.2985
G01 X2.4586 Y57.2794
G01 X2.4113 Y57.2444
G01 X2.3979 Y57.2337
G01 X2.3719 Y57.2113
G01 X2.3412 Y57.1831
G01 X2.3289 Y57.1711
G01 X2.3169 Y57.1588
G01 X2.2887 Y57.1281
G01 X2.2663 Y57.1021
G01 X2.2556 Y57.0887
G01 X2.2206 Y57.0414
G01 X2.2109 Y57.0273
G01 X2.1925 Y56.9983
G01 X2.1712 Y56.9624
G01 X2.1630 Y56.9474
G01 X2.1551 Y56.9322
G01 X2.1371 Y56.8946
G01 X2.1232 Y56.8632
G01 X2.1168 Y56.8473
G01 X2.0970 Y56.7919
G01 X2.0870 Y56.7590
G01 X2.0767 Y56.7186
G01 X2.0691 Y56.6852
G01 X2.0633 Y56.6514
G01 X2.0574 Y56.6101
G01 X2.0540 Y56.5759
G01 X2.0517 Y56.5343
G01 X2.0509 Y56.5000
G01 X2.0517 Y56.4657
G01 X2.0540 Y56.4241
G01 X2.0555 Y56.4070
G01 X2.0597 Y56.3729
G01 X2.0660 Y56.3317
G01 X2.0727 Y56.2981
G01 X2.0826 Y56.2576
G01 X2.0918 Y56.2245
G01 X2.1025 Y56.1919
G01 X2.1168 Y56.1527
G01 X2.1299 Y56.1210
G01 X2.1475 Y56.0832
G01 X2.1630 Y56.0526
G01 X2.1712 Y56.0376
G01 X2.1925 Y56.0017
G01 X2.2109 Y55.9727
G01 X2.2306 Y55.9447
G01 X2.2556 Y55.9113
G01 X2.2774 Y55.8848
G01 X2.3052 Y55.8537
G01 X2.3289 Y55.8289
G01 X2.3537 Y55.8052
G01 X2.3848 Y55.7774
G01 X2.4113 Y55.7556
G01 X2.4586 Y55.7206
G01 X2.4871 Y55.7015
G01 X2.5376 Y55.6712
G01 X2.5526 Y55.6630
G01 X2.5832 Y55.6475
G01 X2.6210 Y55.6299
G01 X2.6368 Y55.6232
G01 X2.6527 Y55.6168
G01 X2.6919 Y55.6025
G01 X2.7245 Y55.5918
G01 X2.7410 Y55.5870
G01 X2.7981 Y55.5727
G01 X2.8317 Y55.5660
G01 X2.8486 Y55.5633
G01 X2.8899 Y55.5574
G01 X2.9070 Y55.5555
G01 X2.9412 Y55.5530
G01 X2.9828 Y55.5511
G01 X3.0000 Y55.5509
G01 X4.0509 Y55.5509
G00 Z1.0000
G00 X4.3244 Y55.8244
G01 F60.00
G01 Z-0.0900
G01 F500.00
G01 X4.3245 Y54.4896
G01 X4.3261 Y54.4546
G01 X4.3277 Y54.4338
G01 X4.3302 Y54.4131
G01 X4.3338 Y54.3888
G01 X4.3374 Y54.3682
G01 X4.3420 Y54.3478
G01 X4.3479 Y54.3240
G01 X4.3535 Y54.3039
G01 X4.3601 Y54.2841
G01 X4.3720 Y54.2512
G01 X4.3800 Y54.2319
G01 X4.3948 Y54.2002
G01 X4.4042 Y54.1815
G01 X4.4145 Y54.1634
G01 X4.4326 Y54.1334
G01 X4.4442 Y54.1161
G01 X4.4712 Y54.0796
G01 X4.4845 Y54.0634
G01 X4.5079 Y54.0374
G01 X4.5223 Y54.0223
G01 X4.5374 Y54.0079
G01 X4.5556 Y53.9914
G01 X4.5714 Y53.9778
G01 X4.5879 Y53.9649
G01 X4.6076 Y53.9503
G01 X4.6247 Y53.9383
G01 X4.6423 Y53.9271
G01 X4.6724 Y53.9092
G01 X4.6908 Y53.8994
G01 X4.7224 Y53.8843
G01 X4.7415 Y53.8758
G01 X4.7609 Y53.8683
G01 X4.7939 Y53.8567
G01 X4.8139 Y53.8506
G01 X4.8580 Y53.8396
G01 X4.8785 Y53.8355
G01 X4.9131 Y53.8302
G01 X4.9338 Y53.8277
G01 X4.9546 Y53.8261
G01 X4.9791 Y53.8249
G01 X5.0000 Y53.8244
G01 X5.0209 Y53.8249
G01 X5.0558 Y53.8268
G01 X5.0766 Y53.8288
G01 X5.1112 Y53.8338
G01 X5.1318 Y53.8374
G01 X5.1522 Y53.8420
G01 X5.1861 Y53.8506
