(G-CODE GENERATED BY FLATCAM v8.994 - www.flatcam.org - Version Date: 2020/11/7)

(Name: HIT2024-F_Cu.gbr_panelized_edit_iso_combined_cnc)
(Type: G-code from Geometry)
(Units: MM)

(Created on Saturday, 01 June 2024 at 09:56)

(This preprocessor is the default preprocessor used by FlatCAM.)
(It is made to work with MACH3 compatible motion controllers.)

(TOOL DIAMETER: 0.3039 mm)
(Feedrate_XY: 500.0 mm/min)
(Feedrate_Z: 60.0 mm/min)
(Feedrate rapids 1500.0 mm/min)

(Z_Cut: -0.09 mm)
(Z_Move: 1.0 mm)
(Z Start: None mm)
(Z End: 15.0 mm)
(X,Y End: None mm)
(Steps per circle: 64)
(Preprocessor Geometry: default)

(X range:   -0.1992 ...  189.1994  mm)
(Y range:    3.3010 ...   59.4491  mm)

(Spindle Speed: 15000.0 RPM)
G21
G90
G94

G01 F500.00

M5
G00 Z15.0000
G00 X0.0000 Y0.0000
T2
M6    
(MSG, Change to Tool Dia = 0.3039)
M0
G00 Z15.0000

M03 S15000.0
G01 F500.00
G00 X4.5745 Y5.6120
G01 F60.00
G01 Z-0.0900
G01 F500.00
G01 X4.5546 Y5.6048
G01 X4.5348 Y5.5982
G01 X4.5028 Y5.5897
G01 X4.4824 Y5.5851
G01 X4.4618 Y5.5815
G01 X4.4290 Y5.5772
G01 X4.4081 Y5.5757
G01 X4.3750 Y5.5745
G01 X4.1250 Y5.5745
G01 X4.1041 Y5.5751
G01 X4.0814 Y5.5763
G01 X4.0607 Y5.5783
G01 X4.0382 Y5.5815
G01 X4.0176 Y5.5851
G01 X4.0074 Y5.5873
G01 X3.9853 Y5.5927
G01 X3.9652 Y5.5982
G01 X3.9454 Y5.6048
G01 X3.9255 Y5.6120
G01 X3.9255 Y5.4255
G01 X4.5745 Y5.4255
G01 X4.5745 Y5.6120
G00 Z1.0000
G00 X6.5745 Y5.6120
G01 F60.00
G01 Z-0.0900
G01 F500.00
G01 X6.5546 Y5.6048
G01 X6.5348 Y5.5982
G01 X6.5147 Y5.5927
G01 X6.4926 Y5.5873
G01 X6.4824 Y5.5851
G01 X6.4618 Y5.5815
G01 X6.4393 Y5.5783
G01 X6.4186 Y5.5763
G01 X6.3959 Y5.5751
G01 X6.3750 Y5.5745
G01 X6.1250 Y5.5745
G01 X6.0919 Y5.5757
G01 X6.0710 Y5.5772
G01 X6.0382 Y5.5815
G01 X6.0176 Y5.5851
G01 X5.9972 Y5.5897
G01 X5.9652 Y5.5982
G01 X5.9454 Y5.6048
G01 X5.9255 Y5.6120
G01 X5.9255 Y5.4255
G01 X6.5745 Y5.4255
G01 X6.5745 Y5.6120
G00 Z1.0000
G00 X8.5745 Y5.6120
G01 F60.00
G01 Z-0.0900
G01 F500.00
G01 X8.5546 Y5.6048
G01 X8.5348 Y5.5982
G01 X8.5147 Y5.5927
G01 X8.4926 Y5.5873
G01 X8.4824 Y5.5851
G01 X8.4618 Y5.5815
G01 X8.4393 Y5.5783
G01 X8.4186 Y5.5763
G01 X8.3959 Y5.5751
G01 X8.3750 Y5.5745
G01 X8.1250 Y5.5745
G01 X8.0919 Y5.5757
G01 X8.0710 Y5.5772
G01 X8.0382 Y5.5815
G01 X8.0176 Y5.5851
G01 X7.9972 Y5.5897
G01 X7.9652 Y5.5982
G01 X7.9454 Y5.6048
G01 X7.9255 Y5.6120
G01 X7.9255 Y5.4255
G01 X8.5745 Y5.4255
G01 X8.5745 Y5.6120
G00 Z1.0000
G00 X10.5745 Y5.6120
G01 F60.00
G01 Z-0.0900
G01 F500.00
G01 X10.5546 Y5.6048
G01 X10.5348 Y5.5982
G01 X10.5147 Y5.5927
G01 X10.4926 Y5.5873
G01 X10.4824 Y5.5851
G01 X10.4618 Y5.5815
G01 X10.4393 Y5.5783
G01 X10.4186 Y5.5763
G01 X10.3959 Y5.5751
G01 X10.3750 Y5.5745
G01 X10.1250 Y5.5745
G01 X10.0919 Y5.5757
G01 X10.0710 Y5.5772
G01 X10.0382 Y5.5815
G01 X10.0176 Y5.5851
G01 X9.9972 Y5.5897
G01 X9.9652 Y5.5982
G01 X9.9454 Y5.6048
G01 X9.9255 Y5.6120
G01 X9.9255 Y5.4255
G01 X10.5745 Y5.4255
G01 X10.5745 Y5.6120
G00 Z1.0000
G00 X12.5745 Y5.6120
G01 F60.00
G01 Z-0.0900
G01 F500.00
G01 X12.5546 Y5.6048
G01 X12.5348 Y5.5982
G01 X12.5147 Y5.5927
G01 X12.4926 Y5.5873
G01 X12.4824 Y5.5851
G01 X12.4618 Y5.5815
G01 X12.4393 Y5.5783
G01 X12.4186 Y5.5763
G01 X12.3959 Y5.5751
G01 X12.3750 Y5.5745
G01 X12.1250 Y5.5745
G01 X12.0919 Y5.5757
G01 X12.0710 Y5.5772
G01 X12.0382 Y5.5815
G01 X12.0176 Y5.5851
G01 X11.9972 Y5.5897
G01 X11.9652 Y5.5982
G01 X11.9454 Y5.6048
G01 X11.9255 Y5.6120
G01 X11.9255 Y5.4255
G01 X12.5745 Y5.4255
G01 X12.5745 Y5.6120
G00 Z1.0000
G00 X14.5745 Y5.6120
G01 F60.00
G01 Z-0.0900
G01 F500.00
G01 X14.5546 Y5.6048
G01 X14.5348 Y5.5982
G01 X14.5147 Y5.5927
G01 X14.4926 Y5.5873
G01 X14.4824 Y5.5851
G01 X14.4618 Y5.5815
G01 X14.4393 Y5.5783
G01 X14.4186 Y5.5763
G01 X14.3959 Y5.5751
G01 X14.3750 Y5.5745
G01 X14.1250 Y5.5745
G01 X14.0919 Y5.5757
G01 X14.0710 Y5.5772
G01 X14.0382 Y5.5815
G01 X14.0176 Y5.5851
G01 X13.9972 Y5.5897
G01 X13.9652 Y5.5982
G01 X13.9454 Y5.6048
G01 X13.9255 Y5.6120
G01 X13.9255 Y5.4255
G01 X14.5745 Y5.4255
G01 X14.5745 Y5.6120
G00 Z1.0000
G00 X16.5745 Y5.6120
G01 F60.00
G01 Z-0.0900
G01 F500.00
G01 X16.5546 Y5.6048
G01 X16.5348 Y5.5982
G01 X16.5147 Y5.5927
G01 X16.4926 Y5.5873
G01 X16.4721 Y5.5832
G01 X16.4618 Y5.5815
G01 X16.4393 Y5.5783
G01 X16.4186 Y5.5763
G01 X16.3959 Y5.5751
G01 X16.3750 Y5.5745
G01 X16.1250 Y5.5745
G01 X16.0919 Y5.5757
G01 X16.0710 Y5.5772
G01 X16.0382 Y5.5815
G01 X16.0176 Y5.5851
G01 X15.9972 Y5.5897
G01 X15.9652 Y5.5982
G01 X15.9454 Y5.6048
G01 X15.9255 Y5.6120
G01 X15.9255 Y5.4255
G01 X16.5745 Y5.4255
G01 X16.5745 Y5.6120
G00 Z1.0000
G00 X18.5745 Y5.6120
G01 F60.00
G01 Z-0.0900
G01 F500.00
G01 X18.5546 Y5.6048
G01 X18.5348 Y5.5982
G01 X18.5147 Y5.5927
G01 X18.4926 Y5.5873
G01 X18.4721 Y5.5832
G01 X18.4618 Y5.5815
G01 X18.4393 Y5.5783
G01 X18.4186 Y5.5763
G01 X18.3959 Y5.5751
G01 X18.3750 Y5.5745
G01 X18.1250 Y5.5745
G01 X18.0919 Y5.5757
G01 X18.0710 Y5.5772
G01 X18.0382 Y5.5815
G01 X18.0176 Y5.5851
G01 X17.9972 Y5.5897
G01 X17.9652 Y5.5982
G01 X17.9454 Y5.6048
G01 X17.9255 Y5.6120
G01 X17.9255 Y5.4255
G01 X18.5745 Y5.4255
G01 X18.5745 Y5.6120
G00 Z1.0000
G00 X20.5745 Y5.6120
G01 F60.00
G01 Z-0.0900
G01 F500.00
G01 X20.5546 Y5.6048
G01 X20.5348 Y5.5982
G01 X20.5147 Y5.5927
G01 X20.4926 Y5.5873
G01 X20.4721 Y5.5832
G01 X20.4618 Y5.5815
G01 X20.4393 Y5.5783
G01 X20.4186 Y5.5763
G01 X20.3959 Y5.5751
G01 X20.3750 Y5.5745
G01 X20.1250 Y5.5745
G01 X20.0919 Y5.5757
G01 X20.0710 Y5.5772
G01 X20.0382 Y5.5815
G01 X20.0176 Y5.5851
G01 X19.9972 Y5.5897
G01 X19.9652 Y5.5982
G01 X19.9454 Y5.6048
G01 X19.9255 Y5.6120
G01 X19.9255 Y5.4255
G01 X20.5745 Y5.4255
G01 X20.5745 Y5.6120
G00 Z1.0000
G00 X22.5745 Y5.6120
G01 F60.00
G01 Z-0.0900
G01 F500.00
G01 X22.5546 Y5.6048
G01 X22.5348 Y5.5982
G01 X22.5147 Y5.5927
G01 X22.4926 Y5.5873
G01 X22.4721 Y5.5832
G01 X22.4618 Y5.5815
G01 X22.4393 Y5.5783
G01 X22.4186 Y5.5763
G01 X22.3959 Y5.5751
G01 X22.3750 Y5.5745
G01 X22.1250 Y5.5745
G01 X22.0919 Y5.5757
G01 X22.0710 Y5.5772
G01 X22.0382 Y5.5815
G01 X22.0176 Y5.5851
G01 X21.9972 Y5.5897
G01 X21.9652 Y5.5982
G01 X21.9454 Y5.6048
G01 X21.9255 Y5.6120
G01 X21.9255 Y5.4255
G01 X22.5745 Y5.4255
G01 X22.5745 Y5.6120
G00 Z1.0000
G00 X31.8246 Y5.6120
G01 F60.00
G01 Z-0.0900
G01 F500.00
G01 X31.8046 Y5.6048
G01 X31.7848 Y5.5982
G01 X31.7528 Y5.5897
G01 X31.7324 Y5.5851
G01 X31.7118 Y5.5815
G01 X31.6790 Y5.5772
G01 X31.6582 Y5.5757
G01 X31.6250 Y5.5745
G01 X31.3750 Y5.5745
G01 X31.3541 Y5.5751
G01 X31.3315 Y5.5763
G01 X31.3107 Y5.5783
G01 X31.2882 Y5.5815
G01 X31.2779 Y5.5832
G01 X31.2574 Y5.5873
G01 X31.2354 Y5.5927
G01 X31.2152 Y5.5982
G01 X31.1954 Y5.6048
G01 X31.1755 Y5.6120
G01 X31.1755 Y5.4255
G01 X31.8246 Y5.4255
G01 X31.8246 Y5.6120
G00 Z1.0000
G00 X33.8246 Y5.6120
G01 F60.00
G01 Z-0.0900
G01 F500.00
G01 X33.8046 Y5.6048
G01 X33.7848 Y5.5982
G01 X33.7647 Y5.5927
G01 X33.7426 Y5.5873
G01 X33.7221 Y5.5832
G01 X33.7118 Y5.5815
G01 X33.6894 Y5.5783
G01 X33.6686 Y5.5763
G01 X33.6459 Y5.5751
G01 X33.6250 Y5.5745
G01 X33.3750 Y5.5745
G01 X33.3419 Y5.5757
G01 X33.3211 Y5.5772
G01 X33.2882 Y5.5815
G01 X33.2676 Y5.5851
G01 X33.2473 Y5.5897
G01 X33.2152 Y5.5982
G01 X33.1954 Y5.6048
G01 X33.1755 Y5.6120
G01 X33.1755 Y5.4255
G01 X33.8246 Y5.4255
G01 X33.8246 Y5.6120
G00 Z1.0000
G00 X35.8246 Y5.6120
G01 F60.00
G01 Z-0.0900
G01 F500.00
G01 X35.8046 Y5.6048
G01 X35.7848 Y5.5982
G01 X35.7647 Y5.5927
G01 X35.7426 Y5.5873
G01 X35.7221 Y5.5832
G01 X35.7118 Y5.5815
G01 X35.6894 Y5.5783
G01 X35.6686 Y5.5763
G01 X35.6459 Y5.5751
G01 X35.6250 Y5.5745
G01 X35.3750 Y5.5745
G01 X35.3419 Y5.5757
G01 X35.3211 Y5.5772
G01 X35.2882 Y5.5815
G01 X35.2676 Y5.5851
G01 X35.2473 Y5.5897
G01 X35.2152 Y5.5982
G01 X35.1954 Y5.6048
G01 X35.1755 Y5.6120
G01 X35.1755 Y5.4255
G01 X35.8246 Y5.4255
G01 X35.8246 Y5.6120
G00 Z1.0000
G00 X37.8246 Y5.6120
G01 F60.00
G01 Z-0.0900
G01 F500.00
G01 X37.8046 Y5.6048
G01 X37.7848 Y5.5982
G01 X37.7647 Y5.5927
G01 X37.7426 Y5.5873
G01 X37.7221 Y5.5832
G01 X37.7118 Y5.5815
G01 X37.6894 Y5.5783
G01 X37.6686 Y5.5763
G01 X37.6459 Y5.5751
G01 X37.6250 Y5.5745
G01 X37.3750 Y5.5745
G01 X37.3419 Y5.5757
G01 X37.3211 Y5.5772
G01 X37.2882 Y5.5815
G01 X37.2676 Y5.5851
G01 X37.2473 Y5.5897
G01 X37.2152 Y5.5982
G01 X37.1954 Y5.6048
G01 X37.1755 Y5.6120
G01 X37.1755 Y5.4255
G01 X37.8246 Y5.4255
G01 X37.8246 Y5.6120
G00 Z1.0000
G00 X39.8246 Y5.6120
G01 F60.00
G01 Z-0.0900
G01 F500.00
G01 X39.8046 Y5.6048
G01 X39.7848 Y5.5982
G01 X39.7647 Y5.5927
G01 X39.7426 Y5.5873
G01 X39.7221 Y5.5832
G01 X39.7118 Y5.5815
G01 X39.6894 Y5.5783
G01 X39.6686 Y5.5763
G01 X39.6459 Y5.5751
G01 X39.6250 Y5.5745
G01 X39.3750 Y5.5745
G01 X39.3419 Y5.5757
G01 X39.3211 Y5.5772
G01 X39.2882 Y5.5815
G01 X39.2676 Y5.5851
G01 X39.2473 Y5.5897
G01 X39.2152 Y5.5982
G01 X39.1954 Y5.6048
G01 X39.1755 Y5.6120
G01 X39.1755 Y5.4255
G01 X39.8246 Y5.4255
G01 X39.8246 Y5.6120
G00 Z1.0000
G00 X41.8246 Y5.6120
G01 F60.00
G01 Z-0.0900
G01 F500.00
G01 X41.8046 Y5.6048
G01 X41.7848 Y5.5982
G01 X41.7647 Y5.5927
G01 X41.7426 Y5.5873
G01 X41.7221 Y5.5832
G01 X41.7118 Y5.5815
G01 X41.6894 Y5.5783
G01 X41.6686 Y5.5763
G01 X41.6459 Y5.5751
G01 X41.6250 Y5.5745
G01 X41.3750 Y5.5745
G01 X41.3419 Y5.5757
G01 X41.3211 Y5.5772
G01 X41.2882 Y5.5815
G01 X41.2676 Y5.5851
G01 X41.2473 Y5.5897
G01 X41.2152 Y5.5982
G01 X41.1954 Y5.6048
G01 X41.1755 Y5.6120
G01 X41.1755 Y5.4255
G01 X41.8246 Y5.4255
G01 X41.8246 Y5.6120
G00 Z1.0000
G00 X43.8246 Y5.6120
G01 F60.00
G01 Z-0.0900
G01 F500.00
G01 X43.8046 Y5.6048
G01 X43.7848 Y5.5982
G01 X43.7647 Y5.5927
G01 X43.7426 Y5.5873
G01 X43.7221 Y5.5832
G01 X43.7118 Y5.5815
G01 X43.6894 Y5.5783
G01 X43.6686 Y5.5763
G01 X43.6459 Y5.5751
G01 X43.6250 Y5.5745
G01 X43.3750 Y5.5745
G01 X43.3419 Y5.5757
G01 X43.3211 Y5.5772
G01 X43.2882 Y5.5815
G01 X43.2676 Y5.5851
G01 X43.2473 Y5.5897
G01 X43.2152 Y5.5982
G01 X43.1954 Y5.6048
G01 X43.1755 Y5.6120
G01 X43.1755 Y5.4255
G01 X43.8246 Y5.4255
G01 X43.8246 Y5.6120
G00 Z1.0000
G00 X45.8246 Y5.6120
G01 F60.00
G01 Z-0.0900
G01 F500.00
G01 X45.8046 Y5.6048
G01 X45.7848 Y5.5982
G01 X45.7647 Y5.5927
G01 X45.7426 Y5.5873
G01 X45.7221 Y5.5832
G01 X45.7118 Y5.5815
G01 X45.6894 Y5.5783
G01 X45.6686 Y5.5763
G01 X45.6459 Y5.5751
G01 X45.6250 Y5.5745
G01 X45.3750 Y5.5745
G01 X45.3419 Y5.5757
G01 X45.3211 Y5.5772
G01 X45.2882 Y5.5815
G01 X45.2676 Y5.5851
G01 X45.2473 Y5.5897
G01 X45.2152 Y5.5982
G01 X45.1954 Y5.6048
G01 X45.1755 Y5.6120
G01 X45.1755 Y5.4255
G01 X45.8246 Y5.4255
G01 X45.8246 Y5.6120
G00 Z1.0000
G00 X47.8246 Y5.6120
G01 F60.00
G01 Z-0.0900
G01 F500.00
G01 X47.8046 Y5.6048
G01 X47.7848 Y5.5982
G01 X47.7647 Y5.5927
G01 X47.7426 Y5.5873
G01 X47.7221 Y5.5832
G01 X47.7118 Y5.5815
G01 X47.6894 Y5.5783
G01 X47.6686 Y5.5763
G01 X47.6459 Y5.5751
G01 X47.6250 Y5.5745
G01 X47.3750 Y5.5745
G01 X47.3419 Y5.5757
G01 X47.3211 Y5.5772
G01 X47.2882 Y5.5815
G01 X47.2676 Y5.5851
G01 X47.2473 Y5.5897
G01 X47.2152 Y5.5982
G01 X47.1954 Y5.6048
G01 X47.1755 Y5.6120
G01 X47.1755 Y5.4255
G01 X47.8246 Y5.4255
G01 X47.8246 Y5.6120
G00 Z1.0000
G00 X49.8246 Y5.6120
G01 F60.00
G01 Z-0.0900
G01 F500.00
G01 X49.8046 Y5.6048
G01 X49.7848 Y5.5982
G01 X49.7647 Y5.5927
G01 X49.7426 Y5.5873
G01 X49.7221 Y5.5832
G01 X49.7118 Y5.5815
G01 X49.6894 Y5.5783
G01 X49.6686 Y5.5763
G01 X49.6459 Y5.5751
G01 X49.6250 Y5.5745
G01 X49.3750 Y5.5745
G01 X49.3419 Y5.5757
G01 X49.3211 Y5.5772
G01 X49.2882 Y5.5815
G01 X49.2676 Y5.5851
G01 X49.2473 Y5.5897
G01 X49.2152 Y5.5982
G01 X49.1954 Y5.6048
G01 X49.1755 Y5.6120
G01 X49.1755 Y5.4255
G01 X49.8246 Y5.4255
G01 X49.8246 Y5.6120
G00 Z1.0000
G00 X59.0746 Y5.6120
G01 F60.00
G01 Z-0.0900
G01 F500.00
G01 X59.0547 Y5.6048
G01 X59.0348 Y5.5982
G01 X59.0028 Y5.5897
G01 X58.9824 Y5.5851
G01 X58.9619 Y5.5815
G01 X58.9290 Y5.5772
G01 X58.9082 Y5.5757
G01 X58.8751 Y5.5745
G01 X58.6251 Y5.5745
G01 X58.6042 Y5.5751
G01 X58.5815 Y5.5763
G01 X58.5607 Y5.5783
G01 X58.5382 Y5.5815
G01 X58.5279 Y5.5832
G01 X58.5074 Y5.5873
G01 X58.4854 Y5.5927
G01 X58.4653 Y5.5982
G01 X58.4454 Y5.6048
G01 X58.4255 Y5.6120
G01 X58.4255 Y5.4255
G01 X59.0746 Y5.4255
G01 X59.0746 Y5.6120
G00 Z1.0000
G00 X61.0746 Y5.6120
G01 F60.00
G01 Z-0.0900
G01 F500.00
G01 X61.0547 Y5.6048
G01 X61.0348 Y5.5982
G01 X61.0147 Y5.5927
G01 X60.9927 Y5.5873
G01 X60.9722 Y5.5832
G01 X60.9619 Y5.5815
G01 X60.9394 Y5.5783
G01 X60.9186 Y5.5763
G01 X60.8959 Y5.5751
G01 X60.8751 Y5.5745
G01 X60.6251 Y5.5745
G01 X60.5919 Y5.5757
G01 X60.5711 Y5.5772
G01 X60.5382 Y5.5815
G01 X60.5177 Y5.5851
G01 X60.4973 Y5.5897
G01 X60.4653 Y5.5982
G01 X60.4454 Y5.6048
G01 X60.4255 Y5.6120
G01 X60.4255 Y5.4255
G01 X61.0746 Y5.4255
G01 X61.0746 Y5.6120
G00 Z1.0000
G00 X63.0746 Y5.6120
G01 F60.00
G01 Z-0.0900
G01 F500.00
G01 X63.0547 Y5.6048
G01 X63.0348 Y5.5982
G01 X63.0147 Y5.5927
G01 X62.9927 Y5.5873
G01 X62.9722 Y5.5832
G01 X62.9619 Y5.5815
G01 X62.9394 Y5.5783
G01 X62.9186 Y5.5763
G01 X62.8959 Y5.5751
G01 X62.8751 Y5.5745
G01 X62.6251 Y5.5745
G01 X62.5919 Y5.5757
G01 X62.5711 Y5.5772
G01 X62.5382 Y5.5815
G01 X62.5177 Y5.5851
G01 X62.4973 Y5.5897
G01 X62.4653 Y5.5982
G01 X62.4454 Y5.6048
G01 X62.4255 Y5.6120
G01 X62.4255 Y5.4255
G01 X63.0746 Y5.4255
G01 X63.0746 Y5.6120
G00 Z1.0000
G00 X65.0746 Y5.6120
G01 F60.00
G01 Z-0.0900
G01 F500.00
G01 X65.0547 Y5.6048
G01 X65.0348 Y5.5982
G01 X65.0147 Y5.5927
G01 X64.9927 Y5.5873
G01 X64.9722 Y5.5832
G01 X64.9619 Y5.5815
G01 X64.9394 Y5.5783
G01 X64.9186 Y5.5763
G01 X64.8959 Y5.5751
G01 X64.8751 Y5.5745
G01 X64.6251 Y5.5745
G01 X64.6042 Y5.5751
G01 X64.5711 Y5.5772
G01 X64.5382 Y5.5815
G01 X64.5177 Y5.5851
G01 X64.4973 Y5.5897
G01 X64.4653 Y5.5982
G01 X64.4454 Y5.6048
G01 X64.4255 Y5.6120
G01 X64.4255 Y5.4255
G01 X65.0746 Y5.4255
G01 X65.0746 Y5.6120
G00 Z1.0000
G00 X67.0746 Y5.6120
G01 F60.00
G01 Z-0.0900
G01 F500.00
G01 X67.0547 Y5.6048
G01 X67.0348 Y5.5982
G01 X67.0147 Y5.5927
G01 X66.9927 Y5.5873
G01 X66.9722 Y5.5832
G01 X66.9619 Y5.5815
G01 X66.9394 Y5.5783
G01 X66.9186 Y5.5763
G01 X66.8959 Y5.5751
G01 X66.8751 Y5.5745
G01 X66.6251 Y5.5745
G01 X66.6042 Y5.5751
G01 X66.5711 Y5.5772
G01 X66.5382 Y5.5815
G01 X66.5177 Y5.5851
G01 X66.4973 Y5.5897
G01 X66.4653 Y5.5982
G01 X66.4454 Y5.6048
G01 X66.4255 Y5.6120
G01 X66.4255 Y5.4255
G01 X67.0746 Y5.4255
G01 X67.0746 Y5.6120
G00 Z1.0000
G00 X69.0746 Y5.6120
G01 F60.00
G01 Z-0.0900
G01 F500.00
G01 X69.0547 Y5.6048
G01 X69.0348 Y5.5982
G01 X69.0147 Y5.5927
G01 X68.9927 Y5.5873
G01 X68.9722 Y5.5832
G01 X68.9619 Y5.5815
G01 X68.9394 Y5.5783
G01 X68.9186 Y5.5763
G01 X68.8959 Y5.5751
G01 X68.8751 Y5.5745
G01 X68.6251 Y5.5745
G01 X68.6042 Y5.5751
G01 X68.5711 Y5.5772
G01 X68.5382 Y5.5815
G01 X68.5177 Y5.5851
G01 X68.4973 Y5.5897
G01 X68.4653 Y5.5982
G01 X68.4454 Y5.6048
G01 X68.4255 Y5.6120
G01 X68.4255 Y5.4255
G01 X69.0746 Y5.4255
G01 X69.0746 Y5.6120
G00 Z1.0000
G00 X71.0746 Y5.6120
G01 F60.00
G01 Z-0.0900
G01 F500.00
G01 X71.0547 Y5.6048
G01 X71.0348 Y5.5982
G01 X71.0147 Y5.5927
G01 X70.9927 Y5.5873
G01 X70.9722 Y5.5832
G01 X70.9619 Y5.5815
G01 X70.9394 Y5.5783
G01 X70.9186 Y5.5763
G01 X70.8959 Y5.5751
G01 X70.8751 Y5.5745
G01 X70.6251 Y5.5745
G01 X70.6042 Y5.5751
G01 X70.5711 Y5.5772
G01 X70.5382 Y5.5815
G01 X70.5177 Y5.5851
G01 X70.4973 Y5.5897
G01 X70.4653 Y5.5982
G01 X70.4454 Y5.6048
G01 X70.4255 Y5.6120
G01 X70.4255 Y5.4255
G01 X71.0746 Y5.4255
G01 X71.0746 Y5.6120
G00 Z1.0000
G00 X73.0746 Y5.6120
G01 F60.00
G01 Z-0.0900
G01 F500.00
G01 X73.0547 Y5.6048
G01 X73.0348 Y5.5982
G01 X73.0147 Y5.5927
G01 X72.9927 Y5.5873
G01 X72.9722 Y5.5832
G01 X72.9619 Y5.5815
G01 X72.9394 Y5.5783
G01 X72.9186 Y5.5763
G01 X72.8959 Y5.5751
G01 X72.8751 Y5.5745
G01 X72.6251 Y5.5745
G01 X72.6042 Y5.5751
G01 X72.5711 Y5.5772
G01 X72.5382 Y5.5815
G01 X72.5177 Y5.5851
G01 X72.4973 Y5.5897
G01 X72.4653 Y5.5982
G01 X72.4454 Y5.6048
G01 X72.4255 Y5.6120
G01 X72.4255 Y5.4255
G01 X73.0746 Y5.4255
G01 X73.0746 Y5.6120
G00 Z1.0000
G00 X75.0746 Y5.6120
G01 F60.00
G01 Z-0.0900
G01 F500.00
G01 X75.0547 Y5.6048
G01 X75.0348 Y5.5982
G01 X75.0147 Y5.5927
G01 X74.9927 Y5.5873
G01 X74.9722 Y5.5832
G01 X74.9619 Y5.5815
G01 X74.9394 Y5.5783
G01 X74.9186 Y5.5763
G01 X74.8959 Y5.5751
G01 X74.8751 Y5.5745
G01 X74.6251 Y5.5745
G01 X74.6042 Y5.5751
G01 X74.5711 Y5.5772
G01 X74.5382 Y5.5815
G01 X74.5177 Y5.5851
G01 X74.4973 Y5.5897
G01 X74.4653 Y5.5982
G01 X74.4454 Y5.6048
G01 X74.4255 Y5.6120
G01 X74.4255 Y5.4255
G01 X75.0746 Y5.4255
G01 X75.0746 Y5.6120
G00 Z1.0000
G00 X77.0746 Y5.6120
G01 F60.00
G01 Z-0.0900
G01 F500.00
G01 X77.0547 Y5.6048
G01 X77.0348 Y5.5982
G01 X77.0147 Y5.5927
G01 X76.9927 Y5.5873
G01 X76.9722 Y5.5832
G01 X76.9619 Y5.5815
G01 X76.9394 Y5.5783
G01 X76.9186 Y5.5763
G01 X76.8959 Y5.5751
G01 X76.8751 Y5.5745
G01 X76.6251 Y5.5745
G01 X76.6042 Y5.5751
G01 X76.5711 Y5.5772
G01 X76.5382 Y5.5815
G01 X76.5177 Y5.5851
G01 X76.4973 Y5.5897
G01 X76.4653 Y5.5982
G01 X76.4454 Y5.6048
G01 X76.4255 Y5.6120
G01 X76.4255 Y5.4255
G01 X77.0746 Y5.4255
G01 X77.0746 Y5.6120
G00 Z1.0000
G00 X86.3246 Y5.6120
G01 F60.00
G01 Z-0.0900
G01 F500.00
G01 X86.3047 Y5.6048
G01 X86.2849 Y5.5982
G01 X86.2528 Y5.5897
G01 X86.2325 Y5.5851
G01 X86.2119 Y5.5815
G01 X86.1790 Y5.5772
G01 X86.1460 Y5.5751
G01 X86.1251 Y5.5745
G01 X85.8751 Y5.5745
G01 X85.8542 Y5.5751
G01 X85.8315 Y5.5763
G01 X85.8107 Y5.5783
G01 X85.7883 Y5.5815
G01 X85.7780 Y5.5832
G01 X85.7575 Y5.5873
G01 X85.7354 Y5.5927
G01 X85.7153 Y5.5982
G01 X85.6955 Y5.6048
G01 X85.6755 Y5.6120
G01 X85.6755 Y5.4255
G01 X86.3246 Y5.4255
G01 X86.3246 Y5.6120
G00 Z1.0000
G00 X88.3246 Y5.6120
G01 F60.00
G01 Z-0.0900
G01 F500.00
G01 X88.3047 Y5.6048
G01 X88.2849 Y5.5982
G01 X88.2647 Y5.5927
G01 X88.2427 Y5.5873
G01 X88.2222 Y5.5832
G01 X88.2119 Y5.5815
G01 X88.1894 Y5.5783
G01 X88.1686 Y5.5763
G01 X88.1460 Y5.5751
G01 X88.1251 Y5.5745
G01 X87.8751 Y5.5745
G01 X87.8542 Y5.5751
G01 X87.8211 Y5.5772
G01 X87.7883 Y5.5815
G01 X87.7677 Y5.5851
G01 X87.7473 Y5.5897
G01 X87.7153 Y5.5982
G01 X87.6955 Y5.6048
G01 X87.6755 Y5.6120
G01 X87.6755 Y5.4255
G01 X88.3246 Y5.4255
G01 X88.3246 Y5.6120
G00 Z1.0000
G00 X90.3246 Y5.6120
G01 F60.00
G01 Z-0.0900
G01 F500.00
G01 X90.3047 Y5.6048
G01 X90.2849 Y5.5982
G01 X90.2647 Y5.5927
G01 X90.2427 Y5.5873
G01 X90.2222 Y5.5832
G01 X90.2119 Y5.5815
G01 X90.1894 Y5.5783
G01 X90.1686 Y5.5763
G01 X90.1460 Y5.5751
G01 X90.1251 Y5.5745
G01 X89.8751 Y5.5745
G01 X89.8542 Y5.5751
G01 X89.8211 Y5.5772
G01 X89.7883 Y5.5815
G01 X89.7677 Y5.5851
G01 X89.7473 Y5.5897
G01 X89.7153 Y5.5982
G01 X89.6955 Y5.6048
G01 X89.6755 Y5.6120
G01 X89.6755 Y5.4255
G01 X90.3246 Y5.4255
G01 X90.3246 Y5.6120
G00 Z1.0000
G00 X92.3246 Y5.6120
G01 F60.00
G01 Z-0.0900
G01 F500.00
G01 X92.3047 Y5.6048
G01 X92.2849 Y5.5982
G01 X92.2647 Y5.5927
G01 X92.2427 Y5.5873
G01 X92.2222 Y5.5832
G01 X92.2119 Y5.5815
G01 X92.1894 Y5.5783
G01 X92.1686 Y5.5763
G01 X92.1460 Y5.5751
G01 X92.1251 Y5.5745
G01 X91.8751 Y5.5745
G01 X91.8542 Y5.5751
G01 X91.8211 Y5.5772
G01 X91.7883 Y5.5815
G01 X91.7677 Y5.5851
G01 X91.7473 Y5.5897
G01 X91.7153 Y5.5982
G01 X91.6955 Y5.6048
G01 X91.6755 Y5.6120
G01 X91.6755 Y5.4255
G01 X92.3246 Y5.4255
G01 X92.3246 Y5.6120
G00 Z1.0000
G00 X94.3246 Y5.6120
G01 F60.00
G01 Z-0.0900
G01 F500.00
G01 X94.3047 Y5.6048
G01 X94.2849 Y5.5982
G01 X94.2647 Y5.5927
G01 X94.2427 Y5.5873
G01 X94.2222 Y5.5832
G01 X94.2119 Y5.5815
G01 X94.1894 Y5.5783
G01 X94.1686 Y5.5763
G01 X94.1460 Y5.5751
G01 X94.1251 Y5.5745
G01 X93.8751 Y5.5745
G01 X93.8542 Y5.5751
G01 X93.8211 Y5.5772
G01 X93.7883 Y5.5815
G01 X93.7677 Y5.5851
G01 X93.7473 Y5.5897
G01 X93.7153 Y5.5982
G01 X93.6955 Y5.6048
G01 X93.6755 Y5.6120
G01 X93.6755 Y5.4255
G01 X94.3246 Y5.4255
G01 X94.3246 Y5.6120
G00 Z1.0000
G00 X96.3246 Y5.6120
G01 F60.00
G01 Z-0.0900
G01 F500.00
G01 X96.3047 Y5.6048
G01 X96.2849 Y5.5982
G01 X96.2647 Y5.5927
G01 X96.2427 Y5.5873
G01 X96.2222 Y5.5832
G01 X96.2119 Y5.5815
G01 X96.1894 Y5.5783
G01 X96.1686 Y5.5763
G01 X96.1460 Y5.5751
G01 X96.1251 Y5.5745
G01 X95.8751 Y5.5745
G01 X95.8542 Y5.5751
G01 X95.8211 Y5.5772
G01 X95.7883 Y5.5815
G01 X95.7677 Y5.5851
G01 X95.7473 Y5.5897
G01 X95.7153 Y5.5982
G01 X95.6955 Y5.6048
G01 X95.6755 Y5.6120
G01 X95.6755 Y5.4255
G01 X96.3246 Y5.4255
G01 X96.3246 Y5.6120
G00 Z1.0000
G00 X98.3246 Y5.6120
G01 F60.00
G01 Z-0.0900
G01 F500.00
G01 X98.3047 Y5.6048
G01 X98.2849 Y5.5982
G01 X98.2647 Y5.5927
G01 X98.2427 Y5.5873
G01 X98.2222 Y5.5832
G01 X98.2119 Y5.5815
G01 X98.1894 Y5.5783
G01 X98.1686 Y5.5763
G01 X98.1460 Y5.5751
G01 X98.1251 Y5.5745
G01 X97.8751 Y5.5745
G01 X97.8542 Y5.5751
G01 X97.8211 Y5.5772
G01 X97.7883 Y5.5815
G01 X97.7677 Y5.5851
G01 X97.7473 Y5.5897
G01 X97.7153 Y5.5982
G01 X97.6955 Y5.6048
G01 X97.6755 Y5.6120
G01 X97.6755 Y5.4255
G01 X98.3246 Y5.4255
G01 X98.3246 Y5.6120
G00 Z1.0000
G00 X100.3246 Y5.6120
G01 F60.00
G01 Z-0.0900
G01 F500.00
G01 X100.3047 Y5.6048
G01 X100.2849 Y5.5982
G01 X100.2647 Y5.5927
G01 X100.2427 Y5.5873
G01 X100.2222 Y5.5832
G01 X100.2119 Y5.5815
G01 X100.1894 Y5.5783
G01 X100.1686 Y5.5763
G01 X100.1460 Y5.5751
G01 X100.1251 Y5.5745
G01 X99.8751 Y5.5745
G01 X99.8542 Y5.5751
G01 X99.8211 Y5.5772
G01 X99.7883 Y5.5815
G01 X99.7677 Y5.5851
G01 X99.7473 Y5.5897
G01 X99.7153 Y5.5982
G01 X99.6955 Y5.6048
G01 X99.6755 Y5.6120
G01 X99.6755 Y5.4255
G01 X100.3246 Y5.4255
G01 X100.3246 Y5.6120
G00 Z1.0000
G00 X102.3246 Y5.6120
G01 F60.00
G01 Z-0.0900
G01 F500.00
G01 X102.3047 Y5.6048
G01 X102.2849 Y5.5982
G01 X102.2647 Y5.5927
G01 X102.2427 Y5.5873
G01 X102.2222 Y5.5832
G01 X102.2119 Y5.5815
G01 X102.1894 Y5.5783
G01 X102.1686 Y5.5763
G01 X102.1460 Y5.5751
G01 X102.1251 Y5.5745
G01 X101.8751 Y5.5745
G01 X101.8542 Y5.5751
G01 X101.8211 Y5.5772
G01 X101.7883 Y5.5815
G01 X101.7677 Y5.5851
G01 X101.7473 Y5.5897
G01 X101.7153 Y5.5982
G01 X101.6955 Y5.6048
G01 X101.6755 Y5.6120
G01 X101.6755 Y5.4255
G01 X102.3246 Y5.4255
G01 X102.3246 Y5.6120
G00 Z1.0000
G00 X104.3246 Y5.6120
G01 F60.00
G01 Z-0.0900
G01 F500.00
G01 X104.3047 Y5.6048
G01 X104.2849 Y5.5982
G01 X104.2647 Y5.5927
G01 X104.2427 Y5.5873
G01 X104.2222 Y5.5832
G01 X104.2119 Y5.5815
G01 X104.1894 Y5.5783
G01 X104.1686 Y5.5763
G01 X104.1460 Y5.5751
G01 X104.1251 Y5.5745
G01 X103.8751 Y5.5745
G01 X103.8542 Y5.5751
G01 X103.8211 Y5.5772
G01 X103.7883 Y5.5815
G01 X103.7677 Y5.5851
G01 X103.7473 Y5.5897
G01 X103.7153 Y5.5982
G01 X103.6955 Y5.6048
G01 X103.6755 Y5.6120
G01 X103.6755 Y5.4255
G01 X104.3246 Y5.4255
G01 X104.3246 Y5.6120
G00 Z1.0000
G00 X113.5746 Y5.6120
G01 F60.00
G01 Z-0.0900
G01 F500.00
G01 X113.5547 Y5.6048
G01 X113.5349 Y5.5982
G01 X113.5029 Y5.5897
G01 X113.4825 Y5.5851
G01 X113.4619 Y5.5815
G01 X113.4291 Y5.5772
G01 X113.3960 Y5.5751
G01 X113.3751 Y5.5745
G01 X113.1251 Y5.5745
G01 X113.1042 Y5.5751
G01 X113.0815 Y5.5763
G01 X113.0608 Y5.5783
G01 X113.0383 Y5.5815
G01 X113.0280 Y5.5832
G01 X113.0075 Y5.5873
G01 X112.9854 Y5.5927
G01 X112.9653 Y5.5982
G01 X112.9455 Y5.6048
G01 X112.9256 Y5.6120
G01 X112.9256 Y5.4255
G01 X113.5746 Y5.4255
G01 X113.5746 Y5.6120
G00 Z1.0000
G00 X115.5746 Y5.6120
G01 F60.00
G01 Z-0.0900
G01 F500.00
G01 X115.5547 Y5.6048
G01 X115.5349 Y5.5982
G01 X115.5148 Y5.5927
G01 X115.4927 Y5.5873
G01 X115.4722 Y5.5832
G01 X115.4619 Y5.5815
G01 X115.4394 Y5.5783
G01 X115.4187 Y5.5763
G01 X115.3960 Y5.5751
G01 X115.3751 Y5.5745
G01 X115.1251 Y5.5745
G01 X115.1042 Y5.5751
G01 X115.0711 Y5.5772
G01 X115.0383 Y5.5815
G01 X115.0177 Y5.5851
G01 X114.9973 Y5.5897
G01 X114.9653 Y5.5982
G01 X114.9455 Y5.6048
G01 X114.9256 Y5.6120
G01 X114.9256 Y5.4255
G01 X115.5746 Y5.4255
G01 X115.5746 Y5.6120
G00 Z1.0000
G00 X117.5746 Y5.6120
G01 F60.00
G01 Z-0.0900
G01 F500.00
G01 X117.5547 Y5.6048
G01 X117.5349 Y5.5982
G01 X117.5148 Y5.5927
G01 X117.4927 Y5.5873
G01 X117.4722 Y5.5832
G01 X117.4619 Y5.5815
G01 X117.4394 Y5.5783
G01 X117.4187 Y5.5763
G01 X117.3960 Y5.5751
G01 X117.3751 Y5.5745
G01 X117.1251 Y5.5745
G01 X117.1042 Y5.5751
G01 X117.0711 Y5.5772
G01 X117.0383 Y5.5815
G01 X117.0177 Y5.5851
G01 X116.9973 Y5.5897
G01 X116.9653 Y5.5982
G01 X116.9455 Y5.6048
G01 X116.9256 Y5.6120
G01 X116.9256 Y5.4255
G01 X117.5746 Y5.4255
G01 X117.5746 Y5.6120
G00 Z1.0000
G00 X119.5746 Y5.6120
G01 F60.00
G01 Z-0.0900
G01 F500.00
G01 X119.5547 Y5.6048
G01 X119.5349 Y5.5982
G01 X119.5148 Y5.5927
G01 X119.4927 Y5.5873
G01 X119.4722 Y5.5832
G01 X119.4619 Y5.5815
G01 X119.4394 Y5.5783
G01 X119.4187 Y5.5763
G01 X119.3960 Y5.5751
G01 X119.3751 Y5.5745
G01 X119.1251 Y5.5745
G01 X119.1042 Y5.5751
G01 X119.0711 Y5.5772
G01 X119.0383 Y5.5815
G01 X119.0177 Y5.5851
G01 X118.9973 Y5.5897
G01 X118.9653 Y5.5982
G01 X118.9455 Y5.6048
G01 X118.9256 Y5.6120
G01 X118.9256 Y5.4255
G01 X119.5746 Y5.4255
G01 X119.5746 Y5.6120
G00 Z1.0000
G00 X121.5746 Y5.6120
G01 F60.00
G01 Z-0.0900
G01 F500.00
G01 X121.5547 Y5.6048
G01 X121.5349 Y5.5982
G01 X121.5148 Y5.5927
G01 X121.4927 Y5.5873
G01 X121.4722 Y5.5832
G01 X121.4619 Y5.5815
G01 X121.4394 Y5.5783
G01 X121.4187 Y5.5763
G01 X121.3960 Y5.5751
G01 X121.3751 Y5.5745
G01 X121.1251 Y5.5745
G01 X121.1042 Y5.5751
G01 X121.0711 Y5.5772
G01 X121.0383 Y5.5815
G01 X121.0177 Y5.5851
G01 X120.9973 Y5.5897
G01 X120.9653 Y5.5982
G01 X120.9455 Y5.6048
G01 X120.9256 Y5.6120
G01 X120.9256 Y5.4255
G01 X121.5746 Y5.4255
G01 X121.5746 Y5.6120
G00 Z1.0000
G00 X123.5746 Y5.6120
G01 F60.00
G01 Z-0.0900
G01 F500.00
G01 X123.5547 Y5.6048
G01 X123.5349 Y5.5982
G01 X123.5148 Y5.5927
G01 X123.4927 Y5.5873
G01 X123.4722 Y5.5832
G01 X123.4619 Y5.5815
G01 X123.4394 Y5.5783
G01 X123.4187 Y5.5763
G01 X123.3960 Y5.5751
G01 X123.3751 Y5.5745
G01 X123.1251 Y5.5745
G01 X123.1042 Y5.5751
G01 X123.0711 Y5.5772
G01 X123.0383 Y5.5815
G01 X123.0177 Y5.5851
G01 X122.9973 Y5.5897
G01 X122.9653 Y5.5982
G01 X122.9455 Y5.6048
G01 X122.9256 Y5.6120
G01 X122.9256 Y5.4255
G01 X123.5746 Y5.4255
G01 X123.5746 Y5.6120
G00 Z1.0000
G00 X125.5746 Y5.6120
G01 F60.00
G01 Z-0.0900
G01 F500.00
G01 X125.5547 Y5.6048
G01 X125.5349 Y5.5982
G01 X125.5148 Y5.5927
G01 X125.4927 Y5.5873
G01 X125.4722 Y5.5832
G01 X125.4619 Y5.5815
G01 X125.4394 Y5.5783
G01 X125.4187 Y5.5763
G01 X125.3960 Y5.5751
G01 X125.3751 Y5.5745
G01 X125.1251 Y5.5745
G01 X125.1042 Y5.5751
G01 X125.0711 Y5.5772
G01 X125.0383 Y5.5815
G01 X125.0177 Y5.5851
G01 X124.9973 Y5.5897
G01 X124.9653 Y5.5982
G01 X124.9455 Y5.6048
G01 X124.9256 Y5.6120
G01 X124.9256 Y5.4255
G01 X125.5746 Y5.4255
G01 X125.5746 Y5.6120
G00 Z1.0000
G00 X127.5746 Y5.6120
G01 F60.00
G01 Z-0.0900
G01 F500.00
G01 X127.5547 Y5.6048
G01 X127.5349 Y5.5982
G01 X127.5148 Y5.5927
G01 X127.4927 Y5.5873
G01 X127.4722 Y5.5832
G01 X127.4619 Y5.5815
G01 X127.4394 Y5.5783
G01 X127.4187 Y5.5763
G01 X127.3960 Y5.5751
G01 X127.3751 Y5.5745
G01 X127.1251 Y5.5745
G01 X127.1042 Y5.5751
G01 X127.0711 Y5.5772
G01 X127.0383 Y5.5815
G01 X127.0177 Y5.5851
G01 X126.9973 Y5.5897
G01 X126.9653 Y5.5982
G01 X126.9455 Y5.6048
G01 X126.9256 Y5.6120
G01 X126.9256 Y5.4255
G01 X127.5746 Y5.4255
G01 X127.5746 Y5.6120
G00 Z1.0000
G00 X129.5746 Y5.6120
G01 F60.00
G01 Z-0.0900
G01 F500.00
G01 X129.5547 Y5.6048
G01 X129.5349 Y5.5982
G01 X129.5148 Y5.5927
G01 X129.4927 Y5.5873
G01 X129.4722 Y5.5832
G01 X129.4619 Y5.5815
G01 X129.4394 Y5.5783
G01 X129.4187 Y5.5763
G01 X129.3960 Y5.5751
G01 X129.3751 Y5.5745
G01 X129.1251 Y5.5745
G01 X129.0920 Y5.5757
G01 X129.0711 Y5.5772
G01 X129.0383 Y5.5815
G01 X129.0177 Y5.5851
G01 X128.9973 Y5.5897
G01 X128.9653 Y5.5982
G01 X128.9455 Y5.6048
G01 X128.9256 Y5.6120
G01 X128.9256 Y5.4255
G01 X129.5746 Y5.4255
G01 X129.5746 Y5.6120
G00 Z1.0000
G00 X131.5746 Y5.6120
G01 F60.00
G01 Z-0.0900
G01 F500.00
G01 X131.5547 Y5.6048
G01 X131.5349 Y5.5982
G01 X131.5148 Y5.5927
G01 X131.4927 Y5.5873
G01 X131.4722 Y5.5832
G01 X131.4619 Y5.5815
G01 X131.4394 Y5.5783
G01 X131.4187 Y5.5763
G01 X131.3960 Y5.5751
G01 X131.3751 Y5.5745
G01 X131.1251 Y5.5745
G01 X131.0920 Y5.5757
G01 X131.0711 Y5.5772
G01 X131.0383 Y5.5815
G01 X131.0177 Y5.5851
G01 X130.9973 Y5.5897
G01 X130.9653 Y5.5982
G01 X130.9455 Y5.6048
G01 X130.9256 Y5.6120
G01 X130.9256 Y5.4255
G01 X131.5746 Y5.4255
G01 X131.5746 Y5.6120
G00 Z1.0000
G00 X140.8247 Y5.6120
G01 F60.00
G01 Z-0.0900
G01 F500.00
G01 X140.8047 Y5.6048
G01 X140.7849 Y5.5982
G01 X140.7529 Y5.5897
G01 X140.7325 Y5.5851
G01 X140.7119 Y5.5815
G01 X140.6791 Y5.5772
G01 X140.6583 Y5.5757
G01 X140.6251 Y5.5745
G01 X140.3751 Y5.5745
G01 X140.3542 Y5.5751
G01 X140.3316 Y5.5763
G01 X140.3108 Y5.5783
G01 X140.2883 Y5.5815
G01 X140.2780 Y5.5832
G01 X140.2575 Y5.5873
G01 X140.2355 Y5.5927
G01 X140.2153 Y5.5982
G01 X140.1955 Y5.6048
G01 X140.1756 Y5.6120
G01 X140.1756 Y5.4255
G01 X140.8247 Y5.4255
G01 X140.8247 Y5.6120
G00 Z1.0000
G00 X142.8247 Y5.6120
G01 F60.00
G01 Z-0.0900
G01 F500.00
G01 X142.8047 Y5.6048
G01 X142.7849 Y5.5982
G01 X142.7648 Y5.5927
G01 X142.7427 Y5.5873
G01 X142.7222 Y5.5832
G01 X142.7119 Y5.5815
G01 X142.6895 Y5.5783
G01 X142.6687 Y5.5763
G01 X142.6460 Y5.5751
G01 X142.6251 Y5.5745
G01 X142.3751 Y5.5745
G01 X142.3420 Y5.5757
G01 X142.3212 Y5.5772
G01 X142.2883 Y5.5815
G01 X142.2677 Y5.5851
G01 X142.2474 Y5.5897
G01 X142.2153 Y5.5982
G01 X142.1955 Y5.6048
G01 X142.1756 Y5.6120
G01 X142.1756 Y5.4255
G01 X142.8247 Y5.4255
G01 X142.8247 Y5.6120
G00 Z1.0000
G00 X144.8247 Y5.6120
G01 F60.00
G01 Z-0.0900
G01 F500.00
G01 X144.8047 Y5.6048
G01 X144.7849 Y5.5982
G01 X144.7648 Y5.5927
G01 X144.7427 Y5.5873
G01 X144.7222 Y5.5832
G01 X144.7119 Y5.5815
G01 X144.6895 Y5.5783
G01 X144.6687 Y5.5763
G01 X144.6460 Y5.5751
G01 X144.6251 Y5.5745
G01 X144.3751 Y5.5745
G01 X144.3420 Y5.5757
G01 X144.3212 Y5.5772
G01 X144.2883 Y5.5815
G01 X144.2677 Y5.5851
G01 X144.2474 Y5.5897
G01 X144.2153 Y5.5982
G01 X144.1955 Y5.6048
G01 X144.1756 Y5.6120
G01 X144.1756 Y5.4255
G01 X144.8247 Y5.4255
G01 X144.8247 Y5.6120
G00 Z1.0000
G00 X146.8247 Y5.6120
G01 F60.00
G01 Z-0.0900
G01 F500.00
G01 X146.8047 Y5.6048
G01 X146.7849 Y5.5982
G01 X146.7648 Y5.5927
G01 X146.7427 Y5.5873
G01 X146.7222 Y5.5832
G01 X146.7119 Y5.5815
G01 X146.6895 Y5.5783
G01 X146.6687 Y5.5763
G01 X146.6460 Y5.5751
G01 X146.6251 Y5.5745
G01 X146.3751 Y5.5745
G01 X146.3420 Y5.5757
G01 X146.3212 Y5.5772
G01 X146.2883 Y5.5815
G01 X146.2677 Y5.5851
G01 X146.2474 Y5.5897
G01 X146.2153 Y5.5982
G01 X146.1955 Y5.6048
G01 X146.1756 Y5.6120
G01 X146.1756 Y5.4255
G01 X146.8247 Y5.4255
G01 X146.8247 Y5.6120
G00 Z1.0000
G00 X148.8247 Y5.6120
G01 F60.00
G01 Z-0.0900
G01 F500.00
G01 X148.8047 Y5.6048
G01 X148.7849 Y5.5982
G01 X148.7648 Y5.5927
G01 X148.7427 Y5.5873
G01 X148.7222 Y5.5832
G01 X148.7119 Y5.5815
G01 X148.6895 Y5.5783
G01 X148.6687 Y5.5763
G01 X148.6460 Y5.5751
G01 X148.6251 Y5.5745
G01 X148.3751 Y5.5745
G01 X148.3420 Y5.5757
G01 X148.3212 Y5.5772
G01 X148.2883 Y5.5815
G01 X148.2677 Y5.5851
G01 X148.2474 Y5.5897
G01 X148.2153 Y5.5982
G01 X148.1955 Y5.6048
G01 X148.1756 Y5.6120
G01 X148.1756 Y5.4255
G01 X148.8247 Y5.4255
G01 X148.8247 Y5.6120
G00 Z1.0000
G00 X150.8247 Y5.6120
G01 F60.00
G01 Z-0.0900
G01 F500.00
G01 X150.8047 Y5.6048
G01 X150.7849 Y5.5982
G01 X150.7648 Y5.5927
G01 X150.7427 Y5.5873
G01 X150.7222 Y5.5832
G01 X150.7119 Y5.5815
G01 X150.6895 Y5.5783
G01 X150.6687 Y5.5763
G01 X150.6460 Y5.5751
G01 X150.6251 Y5.5745
G01 X150.3751 Y5.5745
G01 X150.3420 Y5.5757
G01 X150.3212 Y5.5772
G01 X150.2883 Y5.5815
G01 X150.2677 Y5.5851
G01 X150.2474 Y5.5897
G01 X150.2153 Y5.5982
G01 X150.1955 Y5.6048
G01 X150.1756 Y5.6120
G01 X150.1756 Y5.4255
G01 X150.8247 Y5.4255
G01 X150.8247 Y5.6120
G00 Z1.0000
G00 X152.8247 Y5.6120
G01 F60.00
G01 Z-0.0900
G01 F500.00
G01 X152.8047 Y5.6048
G01 X152.7849 Y5.5982
G01 X152.7648 Y5.5927
G01 X152.7427 Y5.5873
G01 X152.7222 Y5.5832
G01 X152.7119 Y5.5815
G01 X152.6895 Y5.5783
G01 X152.6687 Y5.5763
G01 X152.6460 Y5.5751
G01 X152.6251 Y5.5745
G01 X152.3751 Y5.5745
G01 X152.3420 Y5.5757
G01 X152.3212 Y5.5772
G01 X152.2883 Y5.5815
G01 X152.2677 Y5.5851
G01 X152.2474 Y5.5897
G01 X152.2153 Y5.5982
G01 X152.1955 Y5.6048
G01 X152.1756 Y5.6120
G01 X152.1756 Y5.4255
G01 X152.8247 Y5.4255
G01 X152.8247 Y5.6120
G00 Z1.0000
G00 X154.8247 Y5.6120
G01 F60.00
G01 Z-0.0900
G01 F500.00
G01 X154.8047 Y5.6048
G01 X154.7849 Y5.5982
G01 X154.7648 Y5.5927
G01 X154.7427 Y5.5873
G01 X154.7222 Y5.5832
G01 X154.7119 Y5.5815
G01 X154.6895 Y5.5783
G01 X154.6687 Y5.5763
G01 X154.6460 Y5.5751
G01 X154.6251 Y5.5745
G01 X154.3751 Y5.5745
G01 X154.3420 Y5.5757
G01 X154.3212 Y5.5772
G01 X154.2883 Y5.5815
G01 X154.2677 Y5.5851
G01 X154.2474 Y5.5897
G01 X154.2153 Y5.5982
G01 X154.1955 Y5.6048
G01 X154.1756 Y5.6120
G01 X154.1756 Y5.4255
G01 X154.8247 Y5.4255
G01 X154.8247 Y5.6120
G00 Z1.0000
G00 X156.8247 Y5.6120
G01 F60.00
G01 Z-0.0900
G01 F500.00
G01 X156.8047 Y5.6048
G01 X156.7849 Y5.5982
G01 X156.7648 Y5.5927
G01 X156.7427 Y5.5873
G01 X156.7222 Y5.5832
G01 X156.7119 Y5.5815
G01 X156.6895 Y5.5783
G01 X156.6687 Y5.5763
G01 X156.6460 Y5.5751
G01 X156.6251 Y5.5745
G01 X156.3751 Y5.5745
G01 X156.3420 Y5.5757
G01 X156.3212 Y5.5772
G01 X156.2883 Y5.5815
G01 X156.2677 Y5.5851
G01 X156.2474 Y5.5897
G01 X156.2153 Y5.5982
G01 X156.1955 Y5.6048
G01 X156.1756 Y5.6120
G01 X156.1756 Y5.4255
G01 X156.8247 Y5.4255
G01 X156.8247 Y5.6120
G00 Z1.0000
G00 X158.8247 Y5.6120
G01 F60.00
G01 Z-0.0900
G01 F500.00
G01 X158.8047 Y5.6048
G01 X158.7849 Y5.5982
G01 X158.7648 Y5.5927
G01 X158.7427 Y5.5873
G01 X158.7222 Y5.5832
G01 X158.7119 Y5.5815
G01 X158.6895 Y5.5783
G01 X158.6687 Y5.5763
G01 X158.6460 Y5.5751
G01 X158.6251 Y5.5745
G01 X158.3751 Y5.5745
G01 X158.3420 Y5.5757
G01 X158.3212 Y5.5772
G01 X158.2883 Y5.5815
G01 X158.2677 Y5.5851
G01 X158.2474 Y5.5897
G01 X158.2153 Y5.5982
G01 X158.1955 Y5.6048
G01 X158.1756 Y5.6120
G01 X158.1756 Y5.4255
G01 X158.8247 Y5.4255
G01 X158.8247 Y5.6120
G00 Z1.0000
G00 X168.0747 Y5.6120
G01 F60.00
G01 Z-0.0900
G01 F500.00
G01 X168.0548 Y5.6048
G01 X168.0349 Y5.5982
G01 X168.0029 Y5.5897
G01 X167.9825 Y5.5851
G01 X167.9620 Y5.5815
G01 X167.9291 Y5.5772
G01 X167.9083 Y5.5757
G01 X167.8752 Y5.5745
G01 X167.6252 Y5.5745
G01 X167.6043 Y5.5751
G01 X167.5816 Y5.5763
G01 X167.5608 Y5.5783
G01 X167.5383 Y5.5815
G01 X167.5280 Y5.5832
G01 X167.5075 Y5.5873
G01 X167.4855 Y5.5927
G01 X167.4654 Y5.5982
G01 X167.4455 Y5.6048
G01 X167.4256 Y5.6120
G01 X167.4256 Y5.4255
G01 X168.0747 Y5.4255
G01 X168.0747 Y5.6120
G00 Z1.0000
G00 X170.0747 Y5.6120
G01 F60.00
G01 Z-0.0900
G01 F500.00
G01 X170.0548 Y5.6048
G01 X170.0349 Y5.5982
G01 X170.0148 Y5.5927
G01 X169.9928 Y5.5873
G01 X169.9723 Y5.5832
G01 X169.9620 Y5.5815
G01 X169.9395 Y5.5783
G01 X169.9187 Y5.5763
G01 X169.8960 Y5.5751
G01 X169.8752 Y5.5745
G01 X169.6252 Y5.5745
G01 X169.5920 Y5.5757
G01 X169.5712 Y5.5772
G01 X169.5383 Y5.5815
G01 X169.5178 Y5.5851
G01 X169.4974 Y5.5897
G01 X169.4654 Y5.5982
G01 X169.4455 Y5.6048
G01 X169.4256 Y5.6120
G01 X169.4256 Y5.4255
G01 X170.0747 Y5.4255
G01 X170.0747 Y5.6120
G00 Z1.0000
G00 X172.0747 Y5.6120
G01 F60.00
G01 Z-0.0900
G01 F500.00
G01 X172.0548 Y5.6048
G01 X172.0349 Y5.5982
G01 X172.0148 Y5.5927
G01 X171.9928 Y5.5873
G01 X171.9723 Y5.5832
G01 X171.9620 Y5.5815
G01 X171.9395 Y5.5783
G01 X171.9187 Y5.5763
G01 X171.8960 Y5.5751
G01 X171.8752 Y5.5745
G01 X171.6252 Y5.5745
G01 X171.5920 Y5.5757
G01 X171.5712 Y5.5772
G01 X171.5383 Y5.5815
G01 X171.5178 Y5.5851
G01 X171.4974 Y5.5897
G01 X171.4654 Y5.5982
G01 X171.4455 Y5.6048
G01 X171.4256 Y5.6120
G01 X171.4256 Y5.4255
G01 X172.0747 Y5.4255
G01 X172.0747 Y5.6120
G00 Z1.0000
G00 X174.0747 Y5.6120
G01 F60.00
G01 Z-0.0900
G01 F500.00
G01 X174.0548 Y5.6048
G01 X174.0349 Y5.5982
G01 X174.0148 Y5.5927
G01 X173.9928 Y5.5873
G01 X173.9723 Y5.5832
G01 X173.9620 Y5.5815
G01 X173.9395 Y5.5783
G01 X173.9187 Y5.5763
G01 X173.8960 Y5.5751
G01 X173.8752 Y5.5745
G01 X173.6252 Y5.5745
G01 X173.5920 Y5.5757
G01 X173.5712 Y5.5772
G01 X173.5383 Y5.5815
G01 X173.5178 Y5.5851
G01 X173.4974 Y5.5897
G01 X173.4654 Y5.5982
G01 X173.4455 Y5.6048
G01 X173.4256 Y5.6120
G01 X173.4256 Y5.4255
G01 X174.0747 Y5.4255
G01 X174.0747 Y5.6120
G00 Z1.0000
G00 X176.0747 Y5.6120
G01 F60.00
G01 Z-0.0900
G01 F500.00
G01 X176.0548 Y5.6048
G01 X176.0349 Y5.5982
G01 X176.0148 Y5.5927
G01 X175.9928 Y5.5873
G01 X175.9723 Y5.5832
G01 X175.9620 Y5.5815
G01 X175.9395 Y5.5783
G01 X175.9187 Y5.5763
G01 X175.8960 Y5.5751
G01 X175.8752 Y5.5745
G01 X175.6252 Y5.5745
G01 X175.5920 Y5.5757
G01 X175.5712 Y5.5772
G01 X175.5383 Y5.5815
G01 X175.5178 Y5.5851
G01 X175.4974 Y5.5897
G01 X175.4654 Y5.5982
G01 X175.4455 Y5.6048
G01 X175.4256 Y5.6120
G01 X175.4256 Y5.4255
G01 X176.0747 Y5.4255
G01 X176.0747 Y5.6120
G00 Z1.0000
G00 X178.0747 Y5.6120
G01 F60.00
G01 Z-0.0900
G01 F500.00
G01 X178.0548 Y5.6048
G01 X178.0349 Y5.5982
G01 X178.0148 Y5.5927
G01 X177.9928 Y5.5873
G01 X177.9723 Y5.5832
G01 X177.9620 Y5.5815
G01 X177.9395 Y5.5783
G01 X177.9187 Y5.5763
G01 X177.8960 Y5.5751
G01 X177.8752 Y5.5745
G01 X177.6252 Y5.5745
G01 X177.5920 Y5.5757
G01 X177.5712 Y5.5772
G01 X177.5383 Y5.5815
G01 X177.5178 Y5.5851
G01 X177.4974 Y5.5897
G01 X177.4654 Y5.5982
G01 X177.4455 Y5.6048
G01 X177.4256 Y5.6120
G01 X177.4256 Y5.4255
G01 X178.0747 Y5.4255
G01 X178.0747 Y5.6120
G00 Z1.0000
G00 X180.0747 Y5.6120
G01 F60.00
G01 Z-0.0900
G01 F500.00
G01 X180.0548 Y5.6048
G01 X180.0349 Y5.5982
G01 X180.0148 Y5.5927
G01 X179.9928 Y5.5873
G01 X179.9723 Y5.5832
G01 X179.9620 Y5.5815
G01 X179.9395 Y5.5783
G01 X179.9187 Y5.5763
G01 X179.8960 Y5.5751
G01 X179.8752 Y5.5745
G01 X179.6252 Y5.5745
G01 X179.5920 Y5.5757
G01 X179.5712 Y5.5772
G01 X179.5383 Y5.5815
G01 X179.5178 Y5.5851
G01 X179.4974 Y5.5897
G01 X179.4654 Y5.5982
G01 X179.4455 Y5.6048
G01 X179.4256 Y5.6120
G01 X179.4256 Y5.4255
G01 X180.0747 Y5.4255
G01 X180.0747 Y5.6120
G00 Z1.0000
G00 X182.0747 Y5.6120
G01 F60.00
G01 Z-0.0900
G01 F500.00
G01 X182.0548 Y5.6048
G01 X182.0349 Y5.5982
G01 X182.0148 Y5.5927
G01 X181.9928 Y5.5873
G01 X181.9723 Y5.5832
G01 X181.9620 Y5.5815
G01 X181.9395 Y5.5783
G01 X181.9187 Y5.5763
G01 X181.8960 Y5.5751
G01 X181.8752 Y5.5745
G01 X181.6252 Y5.5745
G01 X181.5920 Y5.5757
G01 X181.5712 Y5.5772
G01 X181.5383 Y5.5815
G01 X181.5178 Y5.5851
G01 X181.4974 Y5.5897
G01 X181.4654 Y5.5982
G01 X181.4455 Y5.6048
G01 X181.4256 Y5.6120
G01 X181.4256 Y5.4255
G01 X182.0747 Y5.4255
G01 X182.0747 Y5.6120
G00 Z1.0000
G00 X184.0747 Y5.6120
G01 F60.00
G01 Z-0.0900
G01 F500.00
G01 X184.0548 Y5.6048
G01 X184.0349 Y5.5982
G01 X184.0148 Y5.5927
G01 X183.9928 Y5.5873
G01 X183.9723 Y5.5832
G01 X183.9620 Y5.5815
G01 X183.9395 Y5.5783
G01 X183.9187 Y5.5763
G01 X183.8960 Y5.5751
G01 X183.8752 Y5.5745
G01 X183.6252 Y5.5745
G01 X183.5920 Y5.5757
G01 X183.5712 Y5.5772
G01 X183.5383 Y5.5815
G01 X183.5178 Y5.5851
G01 X183.4974 Y5.5897
G01 X183.4654 Y5.5982
G01 X183.4455 Y5.6048
G01 X183.4256 Y5.6120
G01 X183.4256 Y5.4255
G01 X184.0747 Y5.4255
G01 X184.0747 Y5.6120
G00 Z1.0000
G00 X186.0747 Y5.6120
G01 F60.00
G01 Z-0.0900
G01 F500.00
G01 X186.0548 Y5.6048
G01 X186.0349 Y5.5982
G01 X186.0148 Y5.5927
G01 X185.9928 Y5.5873
G01 X185.9723 Y5.5832
G01 X185.9620 Y5.5815
G01 X185.9395 Y5.5783
G01 X185.9187 Y5.5763
G01 X185.8960 Y5.5751
G01 X185.8752 Y5.5745
G01 X185.6252 Y5.5745
G01 X185.5920 Y5.5757
G01 X185.5712 Y5.5772
G01 X185.5383 Y5.5815
G01 X185.5178 Y5.5851
G01 X185.4974 Y5.5897
G01 X185.4654 Y5.5982
G01 X185.4455 Y5.6048
G01 X185.4256 Y5.6120
G01 X185.4256 Y5.4255
G01 X186.0747 Y5.4255
G01 X186.0747 Y5.6120
G00 Z1.0000
G00 X185.0747 Y21.3880
G01 F60.00
G01 Z-0.0900
G01 F500.00
G01 X185.0747 Y21.5743
G01 X184.4256 Y21.5743
G01 X184.4256 Y21.3880
G01 X184.4455 Y21.3952
G01 X184.4654 Y21.4018
G01 X184.4855 Y21.4073
G01 X184.5075 Y21.4127
G01 X184.5280 Y21.4168
G01 X184.5505 Y21.4203
G01 X184.5608 Y21.4217
G01 X184.5816 Y21.4237
G01 X184.6043 Y21.4249
G01 X184.6252 Y21.4255
G01 X184.8752 Y21.4255
G01 X184.8960 Y21.4249
G01 X184.9291 Y21.4228
G01 X184.9498 Y21.4203
G01 X184.9825 Y21.4149
G01 X185.0029 Y21.4103
G01 X185.0349 Y21.4018
G01 X185.0548 Y21.3952
G01 X185.0747 Y21.3880
G00 Z1.0000
G00 X183.0747 Y21.3880
G01 F60.00
G01 Z-0.0900
G01 F500.00
G01 X183.0747 Y21.5743
G01 X182.4256 Y21.5743
G01 X182.4256 Y21.3880
G01 X182.4455 Y21.3952
G01 X182.4654 Y21.4018
G01 X182.4855 Y21.4073
G01 X182.5075 Y21.4127
G01 X182.5280 Y21.4168
G01 X182.5505 Y21.4203
G01 X182.5608 Y21.4217
G01 X182.5816 Y21.4237
G01 X182.6043 Y21.4249
G01 X182.6252 Y21.4255
G01 X182.8752 Y21.4255
G01 X182.8960 Y21.4249
G01 X182.9291 Y21.4228
G01 X182.9498 Y21.4203
G01 X182.9825 Y21.4149
G01 X183.0029 Y21.4103
G01 X183.0349 Y21.4018
G01 X183.0548 Y21.3952
G01 X183.0747 Y21.3880
G00 Z1.0000
G00 X181.0747 Y21.3880
G01 F60.00
G01 Z-0.0900
G01 F500.00
G01 X181.0747 Y21.5743
G01 X180.4256 Y21.5743
G01 X180.4256 Y21.3880
G01 X180.4455 Y21.3952
G01 X180.4654 Y21.4018
G01 X180.4855 Y21.4073
G01 X180.5075 Y21.4127
G01 X180.5280 Y21.4168
G01 X180.5505 Y21.4203
G01 X180.5608 Y21.4217
G01 X180.5816 Y21.4237
G01 X180.6043 Y21.4249
G01 X180.6252 Y21.4255
G01 X180.8752 Y21.4255
G01 X180.8960 Y21.4249
G01 X180.9291 Y21.4228
G01 X180.9498 Y21.4203
G01 X180.9825 Y21.4149
G01 X181.0029 Y21.4103
G01 X181.0349 Y21.4018
G01 X181.0548 Y21.3952
G01 X181.0747 Y21.3880
G00 Z1.0000
G00 X179.0747 Y21.3880
G01 F60.00
G01 Z-0.0900
G01 F500.00
G01 X179.0747 Y21.5743
G01 X178.4256 Y21.5743
G01 X178.4256 Y21.3880
G01 X178.4455 Y21.3952
G01 X178.4654 Y21.4018
G01 X178.4855 Y21.4073
G01 X178.5075 Y21.4127
G01 X178.5280 Y21.4168
G01 X178.5505 Y21.4203
G01 X178.5608 Y21.4217
G01 X178.5816 Y21.4237
G01 X178.6043 Y21.4249
G01 X178.6252 Y21.4255
G01 X178.8752 Y21.4255
G01 X178.8960 Y21.4249
G01 X178.9291 Y21.4228
G01 X178.9498 Y21.4203
G01 X178.9825 Y21.4149
G01 X179.0029 Y21.4103
G01 X179.0349 Y21.4018
G01 X179.0548 Y21.3952
G01 X179.0747 Y21.3880
G00 Z1.0000
G00 X177.0747 Y21.3880
G01 F60.00
G01 Z-0.0900
G01 F500.00
G01 X177.0747 Y21.5743
G01 X176.4256 Y21.5743
G01 X176.4256 Y21.3880
G01 X176.4455 Y21.3952
G01 X176.4654 Y21.4018
G01 X176.4855 Y21.4073
G01 X176.5075 Y21.4127
G01 X176.5280 Y21.4168
G01 X176.5505 Y21.4203
G01 X176.5608 Y21.4217
G01 X176.5816 Y21.4237
G01 X176.6043 Y21.4249
G01 X176.6252 Y21.4255
G01 X176.8752 Y21.4255
G01 X176.8960 Y21.4249
G01 X176.9291 Y21.4228
G01 X176.9498 Y21.4203
G01 X176.9825 Y21.4149
G01 X177.0029 Y21.4103
G01 X177.0349 Y21.4018
G01 X177.0548 Y21.3952
G01 X177.0747 Y21.3880
G00 Z1.0000
G00 X175.0747 Y21.3880
G01 F60.00
G01 Z-0.0900
G01 F500.00
G01 X175.0747 Y21.5743
G01 X174.4256 Y21.5743
G01 X174.4256 Y21.3880
G01 X174.4455 Y21.3952
G01 X174.4654 Y21.4018
G01 X174.4855 Y21.4073
G01 X174.5075 Y21.4127
G01 X174.5280 Y21.4168
G01 X174.5505 Y21.4203
G01 X174.5608 Y21.4217
G01 X174.5816 Y21.4237
G01 X174.6043 Y21.4249
G01 X174.6252 Y21.4255
G01 X174.8752 Y21.4255
G01 X174.8960 Y21.4249
G01 X174.9291 Y21.4228
G01 X174.9498 Y21.4203
G01 X174.9825 Y21.4149
G01 X175.0029 Y21.4103
G01 X175.0349 Y21.4018
G01 X175.0548 Y21.3952
G01 X175.0747 Y21.3880
G00 Z1.0000
G00 X173.0747 Y21.3880
G01 F60.00
G01 Z-0.0900
G01 F500.00
G01 X173.0747 Y21.5743
G01 X172.4256 Y21.5743
G01 X172.4256 Y21.3880
G01 X172.4455 Y21.3952
G01 X172.4654 Y21.4018
G01 X172.4855 Y21.4073
G01 X172.5075 Y21.4127
G01 X172.5280 Y21.4168
G01 X172.5505 Y21.4203
G01 X172.5608 Y21.4217
G01 X172.5816 Y21.4237
G01 X172.6043 Y21.4249
G01 X172.6252 Y21.4255
G01 X172.8752 Y21.4255
G01 X172.8960 Y21.4249
G01 X172.9291 Y21.4228
G01 X172.9498 Y21.4203
G01 X172.9825 Y21.4149
G01 X173.0029 Y21.4103
G01 X173.0349 Y21.4018
G01 X173.0548 Y21.3952
G01 X173.0747 Y21.3880
G00 Z1.0000
G00 X171.0747 Y21.3880
G01 F60.00
G01 Z-0.0900
G01 F500.00
G01 X171.0747 Y21.5743
G01 X170.4256 Y21.5743
G01 X170.4256 Y21.3880
G01 X170.4455 Y21.3952
G01 X170.4654 Y21.4018
G01 X170.4855 Y21.4073
G01 X170.5075 Y21.4127
G01 X170.5280 Y21.4168
G01 X170.5505 Y21.4203
G01 X170.5608 Y21.4217
G01 X170.5816 Y21.4237
G01 X170.6043 Y21.4249
G01 X170.6252 Y21.4255
G01 X170.8752 Y21.4255
G01 X170.8960 Y21.4249
G01 X170.9291 Y21.4228
G01 X170.9498 Y21.4203
G01 X170.9825 Y21.4149
G01 X171.0029 Y21.4103
G01 X171.0349 Y21.4018
G01 X171.0548 Y21.3952
G01 X171.0747 Y21.3880
G00 Z1.0000
G00 X169.0747 Y21.3880
G01 F60.00
G01 Z-0.0900
G01 F500.00
G01 X169.0747 Y21.5743
G01 X168.4256 Y21.5743
G01 X168.4256 Y21.3880
G01 X168.4455 Y21.3952
G01 X168.4654 Y21.4018
G01 X168.4855 Y21.4073
G01 X168.5075 Y21.4127
G01 X168.5280 Y21.4168
G01 X168.5505 Y21.4203
G01 X168.5608 Y21.4217
G01 X168.5816 Y21.4237
G01 X168.6043 Y21.4249
G01 X168.6252 Y21.4255
G01 X168.8752 Y21.4255
G01 X168.8960 Y21.4249
G01 X168.9291 Y21.4228
G01 X168.9498 Y21.4203
G01 X168.9825 Y21.4149
G01 X169.0029 Y21.4103
G01 X169.0349 Y21.4018
G01 X169.0548 Y21.3952
G01 X169.0747 Y21.3880
G00 Z1.0000
G00 X167.0747 Y21.3880
G01 F60.00
G01 Z-0.0900
G01 F500.00
G01 X167.0747 Y21.5743
G01 X166.0002 Y21.5743
G01 X165.9793 Y21.5748
G01 X165.9302 Y21.5772
G01 X165.9094 Y21.5787
G01 X165.8990 Y21.5799
G01 X165.8401 Y21.5885
G01 X165.8196 Y21.5921
G01 X165.7992 Y21.5967
G01 X165.7516 Y21.6086
G01 X165.7314 Y21.6141
G01 X165.7215 Y21.6173
G01 X165.6654 Y21.6372
G01 X165.6459 Y21.6448
G01 X165.6268 Y21.6532
G01 X165.5730 Y21.6788
G01 X165.5638 Y21.6836
G01 X165.5456 Y21.6939
G01 X165.5035 Y21.7191
G01 X165.4859 Y21.7303
G01 X165.4688 Y21.7423
G01 X165.4259 Y21.7742
G01 X165.4259 Y21.4593
G01 X165.5467 Y21.4276
G01 X166.5011 Y21.4256
G01 X166.5210 Y21.4251
G01 X166.5455 Y21.4239
G01 X166.5666 Y21.4223
G01 X166.5920 Y21.4243
G01 X166.6252 Y21.4255
G01 X166.8856 Y21.4253
G01 X166.9083 Y21.4243
G01 X166.9291 Y21.4228
G01 X166.9498 Y21.4203
G01 X166.9825 Y21.4149
G01 X167.0029 Y21.4103
G01 X167.0349 Y21.4018
G01 X167.0548 Y21.3952
G01 X167.0747 Y21.3880
G00 Z1.0000
G00 X165.3479 Y27.5000
G01 F60.00
G01 Z-0.0900
G01 F500.00
G01 X165.3479 Y22.5000
G01 X165.3511 Y22.4361
G01 X165.3592 Y22.3801
G01 X165.3621 Y22.3655
G01 X165.3740 Y22.3179
G01 X165.3784 Y22.3036
G01 X165.3976 Y22.2504
G01 X165.4216 Y22.1992
G01 X165.4286 Y22.1861
G01 X165.4579 Y22.1377
G01 X165.4914 Y22.0921
G01 X165.5009 Y22.0806
G01 X165.5390 Y22.0388
G01 X165.5808 Y22.0007
G01 X165.5923 Y21.9913
G01 X165.6378 Y21.9577
G01 X165.6862 Y21.9285
G01 X165.6994 Y21.9215
G01 X165.7506 Y21.8974
G01 X165.8037 Y21.8782
G01 X165.8180 Y21.8739
G01 X165.8693 Y21.8611
G01 X165.8803 Y21.8591
G01 X165.9362 Y21.8509
G01 X166.0002 Y21.8478
G01 X167.3482 Y21.8478
G01 X167.3482 Y6.1250
G01 X167.3495 Y6.0979
G01 X167.3535 Y6.0710
G01 X167.3601 Y6.0446
G01 X167.3693 Y6.0190
G01 X167.3809 Y5.9944
G01 X167.3949 Y5.9711
G01 X167.4111 Y5.9493
G01 X167.4267 Y5.9318
G01 X167.4320 Y5.9266
G01 X167.4466 Y5.9133
G01 X167.4652 Y5.8990
G01 X167.4776 Y5.8907
G01 X167.4979 Y5.8790
G01 X167.5192 Y5.8691
G01 X167.5448 Y5.8600
G01 X167.5711 Y5.8534
G01 X167.5906 Y5.8503
G01 X167.6017 Y5.8491
G01 X167.6252 Y5.8481
G01 X167.8789 Y5.8481
G01 X167.8986 Y5.8491
G01 X167.9097 Y5.8503
G01 X167.9292 Y5.8534
G01 X167.9484 Y5.8580
G01 X167.9626 Y5.8623
G01 X167.9846 Y5.8706
G01 X168.0057 Y5.8808
G01 X168.0290 Y5.8947
G01 X168.0508 Y5.9109
G01 X168.0656 Y5.9240
G01 X168.0761 Y5.9346
G01 X168.0916 Y5.9522
G01 X168.1054 Y5.9711
G01 X168.1176 Y5.9912
G01 X168.1280 Y6.0122
G01 X168.1337 Y6.0260
G01 X168.1402 Y6.0446
G01 X168.1468 Y6.0710
G01 X168.1508 Y6.0979
G01 X168.1519 Y6.1175
G01 X168.1521 Y21.8478
G01 X169.3482 Y21.8478
G01 X169.3482 Y6.1213
G01 X169.3495 Y6.0979
G01 X169.3535 Y6.0710
G01 X169.3601 Y6.0446
G01 X169.3693 Y6.0190
G01 X169.3809 Y5.9944
G01 X169.3949 Y5.9711
G01 X169.4111 Y5.9493
G01 X169.4293 Y5.9292
G01 X169.4495 Y5.9109
G01 X169.4713 Y5.8947
G01 X169.4946 Y5.8808
G01 X169.5192 Y5.8691
G01 X169.5448 Y5.8600
G01 X169.5711 Y5.8534
G01 X169.5980 Y5.8494
G01 X169.6252 Y5.8481
G01 X169.8752 Y5.8481
G01 X169.8986 Y5.8491
G01 X169.9060 Y5.8498
G01 X169.9255 Y5.8527
G01 X169.9328 Y5.8541
G01 X169.9520 Y5.8589
G01 X169.9591 Y5.8611
G01 X169.9777 Y5.8677
G01 X169.9846 Y5.8706
G01 X170.0024 Y5.8790
G01 X170.0122 Y5.8844
G01 X170.0321 Y5.8968
G01 X170.0508 Y5.9109
G01 X170.0656 Y5.9240
G01 X170.0736 Y5.9318
G01 X170.0892 Y5.9493
G01 X170.1011 Y5.9650
G01 X170.1075 Y5.9743
G01 X170.1194 Y5.9944
G01 X170.1280 Y6.0122
G01 X170.1324 Y6.0225
G01 X170.1402 Y6.0446
G01 X170.1460 Y6.0673
G01 X170.1481 Y6.0783
G01 X170.1508 Y6.0979
G01 X170.1521 Y6.1213
G01 X170.1521 Y21.8478
G01 X171.3482 Y21.8478
G01 X171.3482 Y6.1213
G01 X171.3495 Y6.0979
G01 X171.3535 Y6.0710
G01 X171.3601 Y6.0446
G01 X171.3693 Y6.0190
G01 X171.3809 Y5.9944
G01 X171.3949 Y5.9711
G01 X171.4111 Y5.9493
G01 X171.4293 Y5.9292
G01 X171.4495 Y5.9109
G01 X171.4713 Y5.8947
G01 X171.4946 Y5.8808
G01 X171.5192 Y5.8691
G01 X171.5448 Y5.8600
G01 X171.5711 Y5.8534
G01 X171.5980 Y5.8494
G01 X171.6252 Y5.8481
G01 X171.8752 Y5.8481
G01 X171.8986 Y5.8491
G01 X171.9060 Y5.8498
G01 X171.9255 Y5.8527
G01 X171.9328 Y5.8541
G01 X171.9520 Y5.8589
G01 X171.9591 Y5.8611
G01 X171.9777 Y5.8677
G01 X171.9846 Y5.8706
G01 X172.0024 Y5.8790
G01 X172.0122 Y5.8844
G01 X172.0321 Y5.8968
G01 X172.0508 Y5.9109
G01 X172.0656 Y5.9240
G01 X172.0736 Y5.9318
G01 X172.0892 Y5.9493
G01 X172.1011 Y5.9650
G01 X172.1075 Y5.9743
G01 X172.1194 Y5.9944
G01 X172.1280 Y6.0122
G01 X172.1324 Y6.0225
G01 X172.1402 Y6.0446
G01 X172.1460 Y6.0673
G01 X172.1481 Y6.0783
G01 X172.1508 Y6.0979
G01 X172.1521 Y6.1213
G01 X172.1521 Y21.8478
G01 X173.3482 Y21.8478
G01 X173.3482 Y6.1213
G01 X173.3495 Y6.0979
G01 X173.3535 Y6.0710
G01 X173.3601 Y6.0446
G01 X173.3693 Y6.0190
G01 X173.3809 Y5.9944
G01 X173.3949 Y5.9711
G01 X173.4111 Y5.9493
G01 X173.4293 Y5.9292
G01 X173.4495 Y5.9109
G01 X173.4713 Y5.8947
G01 X173.4946 Y5.8808
G01 X173.5192 Y5.8691
G01 X173.5448 Y5.8600
G01 X173.5711 Y5.8534
G01 X173.5980 Y5.8494
G01 X173.6252 Y5.8481
G01 X173.8752 Y5.8481
G01 X173.8986 Y5.8491
G01 X173.9060 Y5.8498
G01 X173.9255 Y5.8527
G01 X173.9328 Y5.8541
G01 X173.9520 Y5.8589
G01 X173.9591 Y5.8611
G01 X173.9777 Y5.8677
G01 X173.9846 Y5.8706
G01 X174.0024 Y5.8790
G01 X174.0122 Y5.8844
G01 X174.0321 Y5.8968
G01 X174.0508 Y5.9109
G01 X174.0656 Y5.9240
G01 X174.0736 Y5.9318
G01 X174.0892 Y5.9493
G01 X174.1011 Y5.9650
G01 X174.1075 Y5.9743
G01 X174.1194 Y5.9944
G01 X174.1280 Y6.0122
G01 X174.1324 Y6.0225
G01 X174.1402 Y6.0446
G01 X174.1460 Y6.0673
G01 X174.1481 Y6.0783
G01 X174.1508 Y6.0979
G01 X174.1521 Y6.1213
G01 X174.1521 Y21.8478
G01 X175.3482 Y21.8478
G01 X175.3482 Y6.1213
G01 X175.3495 Y6.0979
G01 X175.3535 Y6.0710
G01 X175.3601 Y6.0446
G01 X175.3693 Y6.0190
G01 X175.3809 Y5.9944
G01 X175.3949 Y5.9711
G01 X175.4111 Y5.9493
G01 X175.4293 Y5.9292
G01 X175.4495 Y5.9109
G01 X175.4713 Y5.8947
G01 X175.4946 Y5.8808
G01 X175.5192 Y5.8691
G01 X175.5448 Y5.8600
G01 X175.5711 Y5.8534
G01 X175.5980 Y5.8494
G01 X175.6252 Y5.8481
G01 X175.8752 Y5.8481
G01 X175.8986 Y5.8491
G01 X175.9060 Y5.8498
G01 X175.9255 Y5.8527
G01 X175.9328 Y5.8541
G01 X175.9520 Y5.8589
G01 X175.9591 Y5.8611
G01 X175.9777 Y5.8677
G01 X175.9846 Y5.8706
G01 X176.0024 Y5.8790
G01 X176.0122 Y5.8844
G01 X176.0321 Y5.8968
G01 X176.0508 Y5.9109
G01 X176.0656 Y5.9240
G01 X176.0736 Y5.9318
G01 X176.0892 Y5.9493
G01 X176.1011 Y5.9650
G01 X176.1075 Y5.9743
G01 X176.1194 Y5.9944
G01 X176.1280 Y6.0122
G01 X176.1324 Y6.0225
G01 X176.1402 Y6.0446
G01 X176.1460 Y6.0673
G01 X176.1481 Y6.0783
G01 X176.1508 Y6.0979
G01 X176.1521 Y6.1213
G01 X176.1521 Y21.8478
G01 X177.3482 Y21.8478
G01 X177.3482 Y6.1213
G01 X177.3495 Y6.0979
G01 X177.3535 Y6.0710
G01 X177.3601 Y6.0446
G01 X177.3693 Y6.0190
G01 X177.3809 Y5.9944
G01 X177.3949 Y5.9711
G01 X177.4111 Y5.9493
G01 X177.4293 Y5.9292
G01 X177.4495 Y5.9109
G01 X177.4713 Y5.8947
G01 X177.4946 Y5.8808
G01 X177.5192 Y5.8691
G01 X177.5448 Y5.8600
G01 X177.5711 Y5.8534
G01 X177.5980 Y5.8494
G01 X177.6252 Y5.8481
G01 X177.8752 Y5.8481
G01 X177.8986 Y5.8491
G01 X177.9060 Y5.8498
G01 X177.9255 Y5.8527
G01 X177.9328 Y5.8541
G01 X177.9520 Y5.8589
G01 X177.9591 Y5.8611
G01 X177.9777 Y5.8677
G01 X177.9846 Y5.8706
G01 X178.0024 Y5.8790
G01 X178.0122 Y5.8844
G01 X178.0321 Y5.8968
G01 X178.0508 Y5.9109
G01 X178.0656 Y5.9240
G01 X178.0736 Y5.9318
G01 X178.0892 Y5.9493
G01 X178.1011 Y5.9650
G01 X178.1075 Y5.9743
G01 X178.1194 Y5.9944
G01 X178.1280 Y6.0122
G01 X178.1324 Y6.0225
G01 X178.1402 Y6.0446
G01 X178.1460 Y6.0673
G01 X178.1481 Y6.0783
G01 X178.1508 Y6.0979
G01 X178.1521 Y6.1213
G01 X178.1521 Y21.8478
G01 X179.3482 Y21.8478
G01 X179.3482 Y6.1213
G01 X179.3495 Y6.0979
G01 X179.3535 Y6.0710
G01 X179.3601 Y6.0446
G01 X179.3693 Y6.0190
G01 X179.3809 Y5.9944
G01 X179.3949 Y5.9711
G01 X179.4111 Y5.9493
G01 X179.4293 Y5.9292
G01 X179.4495 Y5.9109
G01 X179.4713 Y5.8947
G01 X179.4946 Y5.8808
G01 X179.5192 Y5.8691
G01 X179.5448 Y5.8600
G01 X179.5711 Y5.8534
G01 X179.5980 Y5.8494
G01 X179.6252 Y5.8481
G01 X179.8752 Y5.8481
G01 X179.8986 Y5.8491
G01 X179.9060 Y5.8498
G01 X179.9255 Y5.8527
G01 X179.9328 Y5.8541
G01 X179.9520 Y5.8589
G01 X179.9591 Y5.8611
G01 X179.9777 Y5.8677
G01 X179.9846 Y5.8706
G01 X180.0024 Y5.8790
G01 X180.0122 Y5.8844
G01 X180.0321 Y5.8968
G01 X180.0508 Y5.9109
G01 X180.0656 Y5.9240
G01 X180.0736 Y5.9318
G01 X180.0892 Y5.9493
G01 X180.1011 Y5.9650
G01 X180.1075 Y5.9743
G01 X180.1194 Y5.9944
G01 X180.1280 Y6.0122
G01 X180.1324 Y6.0225
G01 X180.1402 Y6.0446
G01 X180.1460 Y6.0673
G01 X180.1481 Y6.0783
G01 X180.1508 Y6.0979
G01 X180.1521 Y6.1213
G01 X180.1521 Y21.8478
G01 X181.3482 Y21.8478
G01 X181.3482 Y6.1213
G01 X181.3495 Y6.0979
G01 X181.3535 Y6.0710
G01 X181.3601 Y6.0446
G01 X181.3693 Y6.0190
G01 X181.3809 Y5.9944
G01 X181.3949 Y5.9711
G01 X181.4111 Y5.9493
G01 X181.4293 Y5.9292
G01 X181.4495 Y5.9109
G01 X181.4713 Y5.8947
G01 X181.4946 Y5.8808
G01 X181.5192 Y5.8691
G01 X181.5448 Y5.8600
G01 X181.5711 Y5.8534
G01 X181.5980 Y5.8494
G01 X181.6252 Y5.8481
G01 X181.8752 Y5.8481
G01 X181.8986 Y5.8491
G01 X181.9060 Y5.8498
G01 X181.9255 Y5.8527
G01 X181.9328 Y5.8541
G01 X181.9520 Y5.8589
G01 X181.9591 Y5.8611
G01 X181.9777 Y5.8677
G01 X181.9846 Y5.8706
G01 X182.0024 Y5.8790
G01 X182.0122 Y5.8844
G01 X182.0321 Y5.8968
G01 X182.0508 Y5.9109
G01 X182.0656 Y5.9240
G01 X182.0736 Y5.9318
G01 X182.0892 Y5.9493
G01 X182.1011 Y5.9650
G01 X182.1075 Y5.9743
G01 X182.1194 Y5.9944
G01 X182.1280 Y6.0122
G01 X182.1324 Y6.0225
G01 X182.1402 Y6.0446
G01 X182.1460 Y6.0673
G01 X182.1481 Y6.0783
G01 X182.1508 Y6.0979
G01 X182.1521 Y6.1213
G01 X182.1521 Y21.8478
G01 X183.3482 Y21.8478
G01 X183.3482 Y6.1213
G01 X183.3495 Y6.0979
G01 X183.3535 Y6.0710
G01 X183.3601 Y6.0446
G01 X183.3693 Y6.0190
G01 X183.3809 Y5.9944
G01 X183.3949 Y5.9711
G01 X183.4111 Y5.9493
G01 X183.4293 Y5.9292
G01 X183.4495 Y5.9109
G01 X183.4713 Y5.8947
G01 X183.4946 Y5.8808
G01 X183.5192 Y5.8691
G01 X183.5448 Y5.8600
G01 X183.5711 Y5.8534
G01 X183.5980 Y5.8494
G01 X183.6252 Y5.8481
G01 X183.8752 Y5.8481
G01 X183.8986 Y5.8491
G01 X183.9060 Y5.8498
G01 X183.9255 Y5.8527
G01 X183.9328 Y5.8541
G01 X183.9520 Y5.8589
G01 X183.9591 Y5.8611
G01 X183.9777 Y5.8677
G01 X183.9846 Y5.8706
G01 X184.0024 Y5.8790
G01 X184.0122 Y5.8844
G01 X184.0321 Y5.8968
G01 X184.0508 Y5.9109
G01 X184.0656 Y5.9240
G01 X184.0736 Y5.9318
G01 X184.0892 Y5.9493
G01 X184.1011 Y5.9650
G01 X184.1075 Y5.9743
G01 X184.1194 Y5.9944
G01 X184.1280 Y6.0122
G01 X184.1324 Y6.0225
G01 X184.1402 Y6.0446
G01 X184.1460 Y6.0673
G01 X184.1481 Y6.0783
G01 X184.1508 Y6.0979
G01 X184.1521 Y6.1213
G01 X184.1521 Y21.8478
G01 X185.3482 Y21.8478
G01 X185.3484 Y6.1175
G01 X185.3495 Y6.0979
G01 X185.3535 Y6.0710
G01 X185.3601 Y6.0446
G01 X185.3666 Y6.0260
G01 X185.3723 Y6.0122
G01 X185.3827 Y5.9912
G01 X185.3949 Y5.9711
G01 X185.4087 Y5.9522
G01 X185.4242 Y5.9346
G01 X185.4347 Y5.9240
G01 X185.4495 Y5.9109
G01 X185.4713 Y5.8947
G01 X185.4946 Y5.8808
G01 X185.5123 Y5.8722
G01 X185.5261 Y5.8664
G01 X185.5483 Y5.8589
G01 X185.5711 Y5.8534
G01 X185.5906 Y5.8503
G01 X185.6017 Y5.8491
G01 X185.6214 Y5.8481
G01 X185.8752 Y5.8481
G01 X185.8949 Y5.8488
G01 X185.9060 Y5.8498
G01 X185.9292 Y5.8534
G01 X185.9520 Y5.8589
G01 X185.9742 Y5.8664
G01 X185.9880 Y5.8722
G01 X186.0057 Y5.8808
G01 X186.0290 Y5.8947
G01 X186.0508 Y5.9109
G01 X186.0683 Y5.9266
G01 X186.0761 Y5.9346
G01 X186.0892 Y5.9493
G01 X186.1054 Y5.9711
G01 X186.1194 Y5.9944
G01 X186.1310 Y6.0190
G01 X186.1402 Y6.0446
G01 X186.1468 Y6.0710
G01 X186.1508 Y6.0979
G01 X186.1521 Y6.1250
G01 X186.1521 Y21.8478
G01 X188.0002 Y21.8478
G01 X188.0641 Y21.8509
G01 X188.1237 Y21.8596
G01 X188.1347 Y21.8620
G01 X188.1895 Y21.8759
G01 X188.2428 Y21.8948
G01 X188.2566 Y21.9005
G01 X188.3076 Y21.9248
G01 X188.3562 Y21.9537
G01 X188.3686 Y21.9620
G01 X188.4139 Y21.9958
G01 X188.4613 Y22.0388
G01 X188.4994 Y22.0806
G01 X188.5089 Y22.0921
G01 X188.5424 Y22.1377
G01 X188.5717 Y22.1861
G01 X188.5787 Y22.1992
G01 X188.6012 Y22.2470
G01 X188.6054 Y22.2574
G01 X188.6243 Y22.3107
G01 X188.6398 Y22.3728
G01 X188.6492 Y22.4361
G01 X188.6524 Y22.5000
G01 X188.6524 Y27.5000
G01 X188.6492 Y27.5639
G01 X188.6411 Y27.6199
G01 X188.6382 Y27.6345
G01 X188.6263 Y27.6821
G01 X188.6219 Y27.6964
G01 X188.6027 Y27.7496
G01 X188.5753 Y27.8074
G01 X188.5424 Y27.8623
G01 X188.5089 Y27.9079
G01 X188.4994 Y27.9194
G01 X188.4665 Y27.9558
G01 X188.4559 Y27.9663
G01 X188.4139 Y28.0042
G01 X188.3625 Y28.0423
G01 X188.3076 Y28.0752
G01 X188.2566 Y28.0995
G01 X188.2428 Y28.1052
G01 X188.1966 Y28.1218
G01 X188.1823 Y28.1261
G01 X188.1274 Y28.1397
G01 X188.0641 Y28.1491
G01 X188.0002 Y28.1522
G01 X182.5747 Y28.1522
G01 X187.4639 Y33.0415
G01 X187.5043 Y33.0862
G01 X187.5381 Y33.1316
G01 X187.5464 Y33.1440
G01 X187.5753 Y33.1926
G01 X187.6027 Y33.2504
G01 X187.6219 Y33.3036
G01 X187.6263 Y33.3179
G01 X187.6382 Y33.3655
G01 X187.6411 Y33.3801
G01 X187.6492 Y33.4361
G01 X187.6524 Y33.5000
G01 X187.6524 Y42.0000
G01 X187.6492 Y42.0639
G01 X187.6405 Y42.1236
G01 X187.6382 Y42.1345
G01 X187.6243 Y42.1893
G01 X187.6054 Y42.2426
G01 X187.5997 Y42.2564
G01 X187.5753 Y42.3074
G01 X187.5464 Y42.3560
G01 X187.5381 Y42.3684
G01 X187.5089 Y42.4079
G01 X187.4994 Y42.4194
G01 X187.4613 Y42.4612
G01 X187.1705 Y42.7520
G01 X187.0937 Y42.9957
G01 X187.0902 Y43.0055
G01 X187.0853 Y43.0170
G01 X187.0658 Y43.0713
G01 X187.0614 Y43.0816
G01 X187.0178 Y43.1737
G01 X186.9990 Y43.2078
G01 X185.4978 Y45.8080
G01 X185.4918 Y45.8175
G01 X185.4864 Y45.8250
G01 X185.4620 Y45.8657
G01 X185.4559 Y45.8751
G01 X185.3929 Y45.9599
G01 X185.3857 Y45.9685
G01 X185.3173 Y46.0439
G01 X185.3093 Y46.0517
G01 X185.2366 Y46.1176
G01 X185.2251 Y46.1271
G01 X185.1401 Y46.1899
G01 X185.0432 Y46.2480
G01 X184.9478 Y46.2933
G01 X184.9340 Y46.2990
G01 X184.8345 Y46.3344
G01 X184.7249 Y46.3619
G01 X184.6131 Y46.3785
G01 X184.5076 Y46.3838
G01 X184.4927 Y46.3838
G01 X184.3872 Y46.3785
G01 X184.2754 Y46.3619
G01 X184.1729 Y46.3364
G01 X184.1587 Y46.3321
G01 X184.0663 Y46.2990
G01 X184.0525 Y46.2933
G01 X183.9571 Y46.2480
G01 X183.8602 Y46.1899
G01 X183.7694 Y46.1225
G01 X183.6910 Y46.0517
G01 X183.6805 Y46.0412
G01 X183.6146 Y45.9685
G01 X183.6051 Y45.9570
G01 X183.5423 Y45.8720
G01 X183.4879 Y45.7816
G01 X183.4809 Y45.7684
G01 X183.4389 Y45.6797
G01 X183.4332 Y45.6659
G01 X183.3978 Y45.5664
G01 X183.3703 Y45.4568
G01 X183.3547 Y45.3524
G01 X183.3532 Y45.3375
G01 X183.3482 Y45.2321
G01 X183.3534 Y45.1229
G01 X183.3547 Y45.1117
G01 X183.3703 Y45.0073
G01 X183.3978 Y44.8977
G01 X183.4359 Y44.7912
G01 X183.4842 Y44.6890
G01 X183.5025 Y44.6561
G01 X185.0025 Y42.0580
G01 X185.0085 Y42.0485
G01 X185.0139 Y42.0410
G01 X185.0383 Y42.0003
G01 X185.0444 Y41.9909
G01 X185.1051 Y41.9091
G01 X185.1146 Y41.8975
G01 X185.1805 Y41.8248
G01 X185.1910 Y41.8143
G01 X185.2694 Y41.7435
G01 X185.3541 Y41.6805
G01 X185.3633 Y41.6741
G01 X185.4539 Y41.6198
G01 X185.4604 Y41.6163
G01 X185.4796 Y41.6072
G01 X185.4883 Y41.6018
G01 X186.3479 Y41.1121
G01 X186.3479 Y33.7702
G01 X180.7300 Y28.1522
G01 X180.5001 Y28.1522
G01 X178.8560 Y28.5949
G01 X178.8381 Y28.6012
G01 X178.8310 Y28.6034
G01 X178.7322 Y28.6282
G01 X178.7175 Y28.6311
G01 X178.6131 Y28.6464
G01 X178.5002 Y28.6519
G01 X174.5002 Y28.6519
G01 X174.3910 Y28.6467
G01 X174.3798 Y28.6455
G01 X174.2754 Y28.6298
G01 X174.1729 Y28.6043
G01 X174.1622 Y28.6012
G01 X174.1443 Y28.5949
G01 X172.5002 Y28.1522
G01 X172.2703 Y28.1522
G01 X166.6524 Y33.7702
G01 X166.6524 Y41.1843
G01 X167.4935 Y41.5715
G01 X167.5066 Y41.5783
G01 X167.5311 Y41.5899
G01 X167.5410 Y41.5950
G01 X167.6304 Y41.6488
G01 X167.7172 Y41.7131
G01 X167.7972 Y41.7857
G01 X167.8649 Y41.8601
G01 X167.8721 Y41.8686
G01 X167.9320 Y41.9494
G01 X167.9722 Y42.0136
G01 X169.4298 Y44.5383
G01 X169.4367 Y44.5517
G01 X169.4473 Y44.5698
G01 X169.4935 Y44.6674
G01 X169.5299 Y44.7692
G01 X169.5561 Y44.8739
G01 X169.5719 Y44.9808
G01 X169.5771 Y45.0812
G01 X169.5771 Y45.0961
G01 X169.5719 Y45.1966
G01 X169.5561 Y45.3034
G01 X169.5299 Y45.4082
G01 X169.4961 Y45.5029
G01 X169.4904 Y45.5167
G01 X169.4473 Y45.6075
G01 X169.3957 Y45.6939
G01 X169.3874 Y45.7063
G01 X169.3274 Y45.7870
G01 X169.2549 Y45.8670
G01 X169.1748 Y45.9395
G01 X169.0942 Y45.9996
G01 X169.0818 Y46.0079
G01 X169.0019 Y46.0557
G01 X168.9887 Y46.0628
G01 X168.8978 Y46.1056
G01 X168.8031 Y46.1397
G01 X168.7889 Y46.1440
G01 X168.6913 Y46.1682
G01 X168.5844 Y46.1841
G01 X168.4840 Y46.1892
G01 X168.4691 Y46.1892
G01 X168.3761 Y46.1846
G01 X168.3612 Y46.1832
G01 X168.2618 Y46.1682
G01 X168.1570 Y46.1420
G01 X168.0553 Y46.1056
G01 X167.9643 Y46.0628
G01 X167.9512 Y46.0557
G01 X167.8713 Y46.0079
G01 X167.8589 Y45.9996
G01 X167.7782 Y45.9395
G01 X167.7036 Y45.8721
G01 X167.6931 Y45.8616
G01 X167.6305 Y45.7926
G01 X167.6233 Y45.7841
G01 X167.5634 Y45.7033
G01 X167.5233 Y45.6390
G01 X166.0657 Y43.1143
G01 X166.0588 Y43.1009
G01 X166.0464 Y43.0796
G01 X166.0034 Y42.9886
G01 X165.9993 Y42.9783
G01 X165.9831 Y42.9329
G01 X165.9786 Y42.9232
G01 X165.9641 Y42.8863
G01 X165.5390 Y42.4612
G01 X165.5009 Y42.4194
G01 X165.4937 Y42.4108
G01 X165.4622 Y42.3684
G01 X165.4539 Y42.3560
G01 X165.4250 Y42.3074
G01 X165.4006 Y42.2564
G01 X165.3949 Y42.2426
G01 X165.3760 Y42.1893
G01 X165.3605 Y42.1272
G01 X165.3511 Y42.0639
G01 X165.3479 Y42.0000
G01 X165.3479 Y33.5000
G01 X165.3511 Y33.4361
G01 X165.3592 Y33.3801
G01 X165.3621 Y33.3655
G01 X165.3740 Y33.3179
G01 X165.3784 Y33.3036
G01 X165.3976 Y33.2504
G01 X165.4250 Y33.1926
G01 X165.4539 Y33.1440
G01 X165.4622 Y33.1316
G01 X165.4960 Y33.0862
G01 X165.5364 Y33.0415
G01 X170.4256 Y28.1522
G01 X166.0002 Y28.1522
G01 X165.9437 Y28.1496
G01 X165.9325 Y28.1486
G01 X165.8729 Y28.1397
G01 X165.8108 Y28.1241
G01 X165.7506 Y28.1026
G01 X165.6927 Y28.0752
G01 X165.6378 Y28.0423
G01 X165.5864 Y28.0042
G01 X165.5390 Y27.9612
G01 X165.5009 Y27.9194
G01 X165.4914 Y27.9079
G01 X165.4579 Y27.8623
G01 X165.4286 Y27.8139
G01 X165.4216 Y27.8008
G01 X165.4006 Y27.7564
G01 X165.3949 Y27.7426
G01 X165.3760 Y27.6893
G01 X165.3605 Y27.6272
G01 X165.3511 Y27.5639
G01 X165.3479 Y27.5000
G00 Z1.0000
G00 X165.4259 Y28.2258
G01 F60.00
G01 Z-0.0900
G01 F500.00
G01 X165.4688 Y28.2577
G01 X165.4859 Y28.2697
G01 X165.5035 Y28.2809
G01 X165.5546 Y28.3114
G01 X165.5730 Y28.3212
G01 X165.6268 Y28.3468
G01 X165.6459 Y28.3552
G01 X165.6654 Y28.3628
G01 X165.7116 Y28.3793
G01 X165.7314 Y28.3859
G01 X165.7516 Y28.3914
G01 X165.7992 Y28.4033
G01 X165.8196 Y28.4079
G01 X165.8401 Y28.4115
G01 X165.8887 Y28.4187
G01 X165.9094 Y28.4213
G01 X165.9302 Y28.4228
G01 X165.9793 Y28.4252
G01 X166.0002 Y28.4257
G01 X169.7653 Y28.4257
G01 X165.4259 Y32.7651
G01 X165.4259 Y28.2258
G00 Z1.0000
G00 X165.6994 Y28.6603
G01 F60.00
G01 Z-0.0900
G01 F500.00
G01 X165.7327 Y28.6687
G01 X165.7662 Y28.6762
G01 X165.8000 Y28.6820
G01 X165.8656 Y28.6916
G01 X165.8826 Y28.6934
G01 X165.9168 Y28.6960
G01 X165.9659 Y28.6984
G01 X166.0002 Y28.6992
G01 X169.1050 Y28.6992
G01 X165.6994 Y32.1048
G01 X165.6994 Y28.6603
G00 Z1.0000
G00 X171.1832 Y30.0129
G01 F60.00
G01 Z-0.0900
G01 F500.00
G01 X172.4822 Y28.7139
G01 X173.3344 Y28.9433
G01 X173.0721 Y29.0344
G01 X173.0502 Y29.0424
G01 X173.0286 Y29.0512
G01 X172.4810 Y29.2834
G01 X172.4596 Y29.2929
G01 X172.4386 Y29.3030
G01 X171.9077 Y29.5713
G01 X171.8870 Y29.5822
G01 X171.8668 Y29.5938
G01 X171.3550 Y29.8969
G01 X171.3351 Y29.9091
G01 X171.3156 Y29.9220
G01 X171.1832 Y30.0129
G00 Z1.0000
G00 X171.6167 Y26.5743
G01 F60.00
G01 Z-0.0900
G01 F500.00
G01 X166.9259 Y26.5743
G01 X166.9259 Y23.4257
G01 X187.0744 Y23.4257
G01 X187.0744 Y26.5743
G01 X181.3836 Y26.5743
G01 X180.6547 Y25.8454
G01 X180.6396 Y25.8310
G01 X180.6032 Y25.7981
G01 X180.5954 Y25.7911
G01 X180.5793 Y25.7779
G01 X180.5315 Y25.7423
G01 X180.5144 Y25.7303
G01 X180.4968 Y25.7191
G01 X180.4547 Y25.6939
G01 X180.4365 Y25.6836
G01 X180.4273 Y25.6788
G01 X180.3735 Y25.6532
G01 X180.3544 Y25.6448
G01 X180.3349 Y25.6372
G01 X180.2887 Y25.6207
G01 X180.2689 Y25.6141
G01 X180.2487 Y25.6086
G01 X180.2011 Y25.5967
G01 X180.1807 Y25.5921
G01 X180.1602 Y25.5885
G01 X180.1013 Y25.5799
G01 X180.0805 Y25.5779
G01 X180.0210 Y25.5748
G01 X180.0002 Y25.5743
G01 X173.0002 Y25.5743
G01 X172.9793 Y25.5748
G01 X172.9198 Y25.5779
G01 X172.8990 Y25.5799
G01 X172.8887 Y25.5813
G01 X172.8401 Y25.5885
G01 X172.8196 Y25.5921
G01 X172.7992 Y25.5967
G01 X172.7516 Y25.6086
G01 X172.7314 Y25.6141
G01 X172.7116 Y25.6207
G01 X172.6654 Y25.6372
G01 X172.6459 Y25.6448
G01 X172.6268 Y25.6532
G01 X172.5824 Y25.6742
G01 X172.5638 Y25.6836
G01 X172.5456 Y25.6939
G01 X172.4946 Y25.7246
G01 X172.4772 Y25.7362
G01 X172.4688 Y25.7423
G01 X172.4293 Y25.7716
G01 X172.4129 Y25.7844
G01 X172.3971 Y25.7981
G01 X172.3607 Y25.8310
G01 X172.3456 Y25.8454
G01 X171.6167 Y26.5743
G00 Z1.0000
G00 X171.5034 Y26.3008
G01 F60.00
G01 Z-0.0900
G01 F500.00
G01 X167.1994 Y26.3008
G01 X167.1994 Y23.6992
G01 X186.8009 Y23.6992
G01 X186.8009 Y26.3008
G01 X181.4969 Y26.3008
G01 X180.8358 Y25.6400
G01 X180.7869 Y25.5954
G01 X180.7609 Y25.5730
G01 X180.7339 Y25.5519
G01 X180.6805 Y25.5126
G01 X180.6520 Y25.4935
G01 X180.5953 Y25.4593
G01 X180.5655 Y25.4424
G01 X180.5502 Y25.4345
G01 X180.4904 Y25.4060
G01 X180.4591 Y25.3921
G01 X180.4271 Y25.3797
G01 X180.3808 Y25.3632
G01 X180.3646 Y25.3576
G01 X180.3318 Y25.3476
G01 X180.2676 Y25.3313
G01 X180.2341 Y25.3238
G01 X180.2003 Y25.3180
G01 X180.1517 Y25.3108
G01 X180.1347 Y25.3084
G01 X180.1006 Y25.3051
G01 X180.0344 Y25.3016
G01 X180.0002 Y25.3008
G01 X173.0002 Y25.3008
G01 X172.9659 Y25.3016
G01 X172.8997 Y25.3051
G01 X172.8656 Y25.3084
G01 X172.8486 Y25.3108
G01 X172.7831 Y25.3207
G01 X172.7494 Y25.3274
G01 X172.6851 Y25.3433
G01 X172.6520 Y25.3524
G01 X172.6195 Y25.3632
G01 X172.5572 Y25.3857
G01 X172.5412 Y25.3921
G01 X172.5099 Y25.4060
G01 X172.4501 Y25.4345
G01 X172.4198 Y25.4507
G01 X172.3629 Y25.4845
G01 X172.3339 Y25.5029
G01 X172.3059 Y25.5226
G01 X172.2664 Y25.5519
G01 X172.2394 Y25.5730
G01 X172.2134 Y25.5954
G01 X172.1645 Y25.6400
G01 X171.5034 Y26.3008
G00 Z1.0000
G00 X178.6210 Y28.9200
G01 F60.00
G01 Z-0.0900
G01 F500.00
G01 X178.6399 Y28.9186
G01 X178.6606 Y28.9160
G01 X178.7680 Y28.9000
G01 X178.7782 Y28.8981
G01 X178.7986 Y28.8935
G01 X178.8938 Y28.8696
G01 X178.9139 Y28.8641
G01 X178.9378 Y28.8561
G01 X180.5299 Y28.4274
G01 X180.6179 Y28.4269
G01 X186.0744 Y33.8834
G01 X186.0744 Y40.9531
G01 X185.3596 Y41.3604
G01 X185.3282 Y41.3768
G01 X185.3100 Y41.3871
G01 X185.2258 Y41.4376
G01 X185.2082 Y41.4487
G01 X185.1911 Y41.4608
G01 X185.1407 Y41.4981
G01 X185.3096 Y41.0590
G01 X185.4943 Y40.4637
G01 X185.6387 Y39.8575
G01 X185.7403 Y39.2570
G01 X185.7441 Y39.2288
G01 X185.8036 Y38.6370
G01 X185.8055 Y38.6087
G01 X185.8256 Y38.0000
G01 X185.8055 Y37.3913
G01 X185.8036 Y37.3630
G01 X185.7441 Y36.7712
G01 X185.7403 Y36.7430
G01 X185.6387 Y36.1425
G01 X185.4943 Y35.5363
G01 X185.3141 Y34.9545
G01 X185.3047 Y34.9277
G01 X185.0856 Y34.3594
G01 X184.8233 Y33.7941
G01 X184.5238 Y33.2476
G01 X184.1963 Y32.7341
G01 X184.1802 Y32.7107
G01 X183.8274 Y32.2319
G01 X183.8098 Y32.2095
G01 X183.4164 Y31.7446
G01 X182.9831 Y31.2966
G01 X182.5209 Y30.8786
G01 X182.0431 Y30.5010
G01 X182.0202 Y30.4841
G01 X181.5299 Y30.1475
G01 X181.5059 Y30.1322
G01 X180.9818 Y29.8220
G01 X180.4256 Y29.5410
G01 X179.8518 Y29.2977
G01 X179.2766 Y29.0977
G01 X179.2494 Y29.0892
G01 X178.6758 Y28.9321
G01 X178.6620 Y28.9286
G01 X178.6210 Y28.9200
G00 Z1.0000
G00 X179.6659 Y28.9433
G01 F60.00
G01 Z-0.0900
G01 F500.00
G01 X180.5181 Y28.7139
G01 X181.8171 Y30.0129
G01 X181.6847 Y29.9220
G01 X181.6652 Y29.9091
G01 X181.6453 Y29.8969
G01 X181.1335 Y29.5938
G01 X181.1133 Y29.5822
G01 X181.0926 Y29.5713
G01 X180.5617 Y29.3030
G01 X180.5407 Y29.2929
G01 X180.5193 Y29.2834
G01 X179.9717 Y29.0512
G01 X179.9501 Y29.0424
G01 X179.9282 Y29.0344
G01 X179.6659 Y28.9433
G00 Z1.0000
G00 X184.4898 Y32.6856
G01 F60.00
G01 Z-0.0900
G01 F500.00
G01 X185.8009 Y33.9967
G01 X185.8009 Y35.6422
G01 X185.7639 Y35.4866
G01 X185.7581 Y35.4640
G01 X185.7515 Y35.4416
G01 X185.5753 Y34.8735
G01 X185.5680 Y34.8513
G01 X185.5600 Y34.8294
G01 X185.3462 Y34.2743
G01 X185.3374 Y34.2527
G01 X185.3280 Y34.2313
G01 X185.0776 Y33.6918
G01 X185.0674 Y33.6708
G01 X185.0565 Y33.6501
G01 X184.7707 Y33.1285
G01 X184.7591 Y33.1082
G01 X184.7469 Y33.0883
G01 X184.4898 Y32.6856
G00 Z1.0000
G00 X185.8009 Y40.3578
G01 F60.00
G01 Z-0.0900
G01 F500.00
G01 X185.8009 Y40.7941
G01 X185.6521 Y40.8790
G01 X185.7515 Y40.5584
G01 X185.7581 Y40.5360
G01 X185.7639 Y40.5134
G01 X185.8009 Y40.3578
G00 Z1.0000
G00 X183.4213 Y44.2498
G01 F60.00
G01 Z-0.0900
G01 F500.00
G01 X183.4067 Y44.2658
G01 X182.9831 Y44.7034
G01 X182.5209 Y45.1214
G01 X182.0318 Y45.5077
G01 X181.5299 Y45.8525
G01 X181.5059 Y45.8678
G01 X180.9818 Y46.1780
G01 X180.4384 Y46.4528
G01 X180.4126 Y46.4648
G01 X179.8650 Y46.6970
G01 X179.8384 Y46.7072
G01 X179.2631 Y46.9068
G01 X178.7164 Y47.0568
G01 X178.7187 Y48.4057
G01 X179.0531 Y49.0745
G01 X179.8006 Y49.0747
G01 X179.8215 Y49.0757
G01 X179.8319 Y49.0766
G01 X179.8526 Y49.0791
G01 X179.8732 Y49.0827
G01 X179.8834 Y49.0849
G01 X179.8935 Y49.0873
G01 X179.9137 Y49.0929
G01 X179.9236 Y49.0960
G01 X179.9433 Y49.1030
G01 X179.9626 Y49.1110
G01 X179.9721 Y49.1154
G01 X179.9907 Y49.1248
G01 X179.9999 Y49.1298
G01 X180.0178 Y49.1405
G01 X180.0265 Y49.1462
G01 X180.0436 Y49.1583
G01 X180.0519 Y49.1646
G01 X180.0680 Y49.1778
G01 X180.0835 Y49.1919
G01 X180.0983 Y49.2066
G01 X180.1054 Y49.2143
G01 X180.1190 Y49.2301
G01 X180.1319 Y49.2466
G01 X180.1380 Y49.2550
G01 X180.1496 Y49.2724
G01 X180.1551 Y49.2813
G01 X180.1603 Y49.2903
G01 X180.1702 Y49.3087
G01 X180.1748 Y49.3181
G01 X180.1832 Y49.3372
G01 X180.1871 Y49.3469
G01 X180.1941 Y49.3665
G01 X180.2002 Y49.3865
G01 X180.2029 Y49.3966
G01 X180.2074 Y49.4170
G01 X180.2110 Y49.4376
G01 X180.2136 Y49.4583
G01 X180.2151 Y49.4791
G01 X180.2156 Y49.5000
G01 X180.2156 Y52.0000
G01 X180.2151 Y52.0209
G01 X180.2145 Y52.0313
G01 X180.2124 Y52.0521
G01 X180.2093 Y52.0727
G01 X180.2053 Y52.0932
G01 X180.2002 Y52.1135
G01 X180.1973 Y52.1235
G01 X180.1941 Y52.1335
G01 X180.1871 Y52.1531
G01 X180.1791 Y52.1724
G01 X180.1702 Y52.1913
G01 X180.1603 Y52.2097
G01 X180.1551 Y52.2187
G01 X180.1439 Y52.2364
G01 X180.1319 Y52.2534
G01 X180.1190 Y52.2699
G01 X180.1054 Y52.2857
G01 X180.0910 Y52.3008
G01 X180.0759 Y52.3152
G01 X180.0680 Y52.3222
G01 X180.0519 Y52.3354
G01 X180.0351 Y52.3479
G01 X180.0178 Y52.3595
G01 X179.9999 Y52.3702
G01 X179.9814 Y52.3800
G01 X179.9721 Y52.3846
G01 X179.9530 Y52.3931
G01 X179.9433 Y52.3970
G01 X179.9236 Y52.4040
G01 X179.9036 Y52.4100
G01 X179.8834 Y52.4151
G01 X179.8629 Y52.4192
G01 X179.8422 Y52.4223
G01 X179.8215 Y52.4243
G01 X179.8110 Y52.4249
G01 X179.7902 Y52.4255
G01 X176.7902 Y52.4255
G01 X176.7693 Y52.4249
G01 X176.7484 Y52.4234
G01 X176.7277 Y52.4209
G01 X176.7071 Y52.4173
G01 X176.6868 Y52.4127
G01 X176.6666 Y52.4071
G01 X176.6567 Y52.4040
G01 X176.6370 Y52.3970
G01 X176.6177 Y52.3890
G01 X176.5989 Y52.3800
G01 X176.5804 Y52.3702
G01 X176.5714 Y52.3649
G01 X176.5538 Y52.3538
G01 X176.5452 Y52.3479
G01 X176.5284 Y52.3354
G01 X176.5123 Y52.3222
G01 X176.4968 Y52.3081
G01 X176.4820 Y52.2934
G01 X176.4680 Y52.2779
G01 X176.4613 Y52.2699
G01 X176.4484 Y52.2534
G01 X176.4423 Y52.2450
G01 X176.4307 Y52.2276
G01 X176.4200 Y52.2097
G01 X176.4101 Y52.1913
G01 X176.4012 Y52.1724
G01 X176.3932 Y52.1531
G01 X176.3862 Y52.1335
G01 X176.3801 Y52.1135
G01 X176.3750 Y52.0932
G01 X176.3710 Y52.0727
G01 X176.3693 Y52.0624
G01 X176.3667 Y52.0417
G01 X176.3652 Y52.0209
G01 X176.3647 Y52.0000
G01 X176.3647 Y51.7202
G01 X176.3081 Y51.7964
G01 X176.2953 Y51.8129
G01 X176.2817 Y51.8287
G01 X176.1993 Y51.9196
G01 X176.1849 Y51.9347
G01 X176.1698 Y51.9491
G01 X176.0789 Y52.0315
G01 X176.0630 Y52.0452
G01 X176.0466 Y52.0580
G01 X175.9396 Y52.1372
G01 X175.9310 Y52.1431
G01 X175.9133 Y52.1543
G01 X175.8081 Y52.2173
G01 X175.7900 Y52.2276
G01 X175.7713 Y52.2370
G01 X175.6604 Y52.2895
G01 X175.6413 Y52.2979
G01 X175.6218 Y52.3054
G01 X175.5063 Y52.3468
G01 X175.4865 Y52.3533
G01 X175.4765 Y52.3562
G01 X175.3474 Y52.3887
G01 X175.3270 Y52.3933
G01 X175.3064 Y52.3968
G01 X175.1851 Y52.4148
G01 X175.1644 Y52.4174
G01 X175.1435 Y52.4189
G01 X175.0210 Y52.4249
G01 X175.0002 Y52.4255
G01 X174.0402 Y52.4255
G01 X174.0193 Y52.4249
G01 X173.8968 Y52.4189
G01 X173.8759 Y52.4174
G01 X173.8552 Y52.4148
G01 X173.7339 Y52.3968
G01 X173.7133 Y52.3933
G01 X173.6929 Y52.3887
G01 X173.5739 Y52.3589
G01 X173.5638 Y52.3562
G01 X173.5438 Y52.3502
G01 X173.4185 Y52.3054
G01 X173.3990 Y52.2979
G01 X173.3799 Y52.2895
G01 X173.2596 Y52.2324
G01 X173.2503 Y52.2276
G01 X173.2322 Y52.2173
G01 X173.1270 Y52.1543
G01 X173.1093 Y52.1431
G01 X173.0922 Y52.1311
G01 X172.9944 Y52.0585
G01 X172.9838 Y52.0549
G01 X172.9643 Y52.0474
G01 X172.9547 Y52.0433
G01 X172.9359 Y52.0344
G01 X171.7238 Y51.4257
G01 X169.9897 Y51.4256
G01 X169.9302 Y51.4228
G01 X169.9094 Y51.4213
G01 X169.8887 Y51.4187
G01 X169.8401 Y51.4115
G01 X169.8196 Y51.4079
G01 X169.7992 Y51.4033
G01 X169.7516 Y51.3914
G01 X169.7314 Y51.3858
G01 X169.7116 Y51.3793
G01 X169.6654 Y51.3628
G01 X169.6459 Y51.3552
G01 X169.6363 Y51.3511
G01 X169.5824 Y51.3258
G01 X169.5638 Y51.3164
G01 X169.5456 Y51.3061
G01 X169.5035 Y51.2809
G01 X169.4859 Y51.2697
G01 X169.4688 Y51.2577
G01 X169.4293 Y51.2284
G01 X169.4129 Y51.2156
G01 X169.3971 Y51.2019
G01 X169.3607 Y51.1690
G01 X169.3456 Y51.1546
G01 X163.8456 Y45.6546
G01 X163.8312 Y45.6395
G01 X163.7982 Y45.6031
G01 X163.7846 Y45.5873
G01 X163.7717 Y45.5708
G01 X163.7425 Y45.5314
G01 X163.7304 Y45.5143
G01 X163.7193 Y45.4967
G01 X163.6940 Y45.4545
G01 X163.6838 Y45.4364
G01 X163.6744 Y45.4177
G01 X163.6534 Y45.3733
G01 X163.6449 Y45.3542
G01 X163.6374 Y45.3348
G01 X163.6209 Y45.2885
G01 X163.6143 Y45.2687
G01 X163.6087 Y45.2486
G01 X163.5968 Y45.2010
G01 X163.5922 Y45.1806
G01 X163.5887 Y45.1600
G01 X163.5815 Y45.1115
G01 X163.5789 Y45.0907
G01 X163.5774 Y45.0699
G01 X163.5750 Y45.0209
G01 X163.5744 Y45.0000
G01 X163.5744 Y20.7500
G01 X163.5750 Y20.7291
G01 X163.5780 Y20.6697
G01 X163.5800 Y20.6489
G01 X163.5887 Y20.5900
G01 X163.5922 Y20.5694
G01 X163.5968 Y20.5490
G01 X163.6087 Y20.5014
G01 X163.6143 Y20.4813
G01 X163.6209 Y20.4615
G01 X163.6374 Y20.4152
G01 X163.6449 Y20.3958
G01 X163.6534 Y20.3767
G01 X163.6744 Y20.3323
G01 X163.6838 Y20.3136
G01 X163.6940 Y20.2955
G01 X163.7193 Y20.2533
G01 X163.7304 Y20.2357
G01 X163.7425 Y20.2186
G01 X163.7780 Y20.1709
G01 X163.7913 Y20.1547
G01 X163.8312 Y20.1105
G01 X163.8456 Y20.0954
G01 X163.8607 Y20.0810
G01 X163.9049 Y20.0411
G01 X163.9210 Y20.0279
G01 X163.9688 Y19.9923
G01 X163.9859 Y19.9803
G01 X164.0035 Y19.9691
G01 X164.0456 Y19.9439
G01 X164.0638 Y19.9336
G01 X164.0824 Y19.9242
G01 X164.1268 Y19.9032
G01 X164.1459 Y19.8948
G01 X164.1654 Y19.8872
G01 X164.2116 Y19.8707
G01 X164.2314 Y19.8641
G01 X164.2516 Y19.8586
G01 X164.2992 Y19.8467
G01 X164.3196 Y19.8421
G01 X164.3298 Y19.8402
G01 X164.3990 Y19.8299
G01 X164.4094 Y19.8287
G01 X164.4302 Y19.8272
G01 X164.4897 Y19.8244
G01 X164.5002 Y19.8243
G01 X164.5210 Y19.8248
G01 X164.5701 Y19.8272
G01 X164.5909 Y19.8287
G01 X164.6116 Y19.8313
G01 X164.6705 Y19.8402
G01 X164.6807 Y19.8421
G01 X164.7011 Y19.8467
G01 X164.7588 Y19.8612
G01 X164.7788 Y19.8673
G01 X164.8201 Y19.8819
G01 X165.5545 Y20.0744
G01 X166.0746 Y20.0744
G01 X166.0748 Y4.1146
G01 X166.0758 Y4.0919
G01 X166.0773 Y4.0710
G01 X166.0817 Y4.0382
G01 X166.0853 Y4.0176
G01 X166.0874 Y4.0074
G01 X166.0928 Y3.9853
G01 X166.0984 Y3.9652
G01 X166.1049 Y3.9454
G01 X166.1127 Y3.9240
G01 X166.1207 Y3.9048
G01 X166.1251 Y3.8953
G01 X166.1349 Y3.8748
G01 X166.1447 Y3.8564
G01 X166.1563 Y3.8368
G01 X166.1674 Y3.8192
G01 X166.1795 Y3.8021
G01 X166.1931 Y3.7839
G01 X166.1996 Y3.7758
G01 X166.2133 Y3.7600
G01 X166.2286 Y3.7432
G01 X166.2434 Y3.7285
G01 X166.2601 Y3.7131
G01 X166.2759 Y3.6995
G01 X166.2924 Y3.6866
G01 X166.3107 Y3.6732
G01 X166.3281 Y3.6616
G01 X166.3475 Y3.6498
G01 X166.3565 Y3.6446
G01 X166.3749 Y3.6347
G01 X166.3954 Y3.6249
G01 X166.4145 Y3.6164
G01 X166.4455 Y3.6048
G01 X166.4654 Y3.5982
G01 X166.4974 Y3.5897
G01 X166.5178 Y3.5851
G01 X166.5383 Y3.5815
G01 X166.5712 Y3.5772
G01 X166.5920 Y3.5757
G01 X166.6252 Y3.5745
G01 X166.8752 Y3.5745
G01 X166.9083 Y3.5757
G01 X166.9343 Y3.5778
G01 X166.9548 Y3.5763
G01 X166.9793 Y3.5751
G01 X167.0002 Y3.5745
G01 X186.5002 Y3.5745
G01 X186.5210 Y3.5751
G01 X186.5455 Y3.5763
G01 X186.5660 Y3.5778
G01 X186.5920 Y3.5757
G01 X186.6252 Y3.5745
G01 X186.8856 Y3.5747
G01 X186.9083 Y3.5757
G01 X186.9291 Y3.5772
G01 X186.9620 Y3.5815
G01 X186.9723 Y3.5832
G01 X186.9928 Y3.5873
G01 X187.0148 Y3.5927
G01 X187.0349 Y3.5982
G01 X187.0548 Y3.6048
G01 X187.0761 Y3.6126
G01 X187.0954 Y3.6206
G01 X187.1049 Y3.6249
G01 X187.1254 Y3.6347
G01 X187.1438 Y3.6446
G01 X187.1633 Y3.6561
G01 X187.1810 Y3.6673
G01 X187.1980 Y3.6793
G01 X187.2162 Y3.6930
G01 X187.2244 Y3.6995
G01 X187.2402 Y3.7131
G01 X187.2569 Y3.7285
G01 X187.2717 Y3.7432
G01 X187.2870 Y3.7600
G01 X187.3007 Y3.7758
G01 X187.3135 Y3.7923
G01 X187.3269 Y3.8106
G01 X187.3329 Y3.8192
G01 X187.3440 Y3.8368
G01 X187.3556 Y3.8564
G01 X187.3654 Y3.8748
G01 X187.3752 Y3.8953
G01 X187.3837 Y3.9143
G01 X187.3912 Y3.9338
G01 X187.4019 Y3.9652
G01 X187.4075 Y3.9853
G01 X187.4150 Y4.0176
G01 X187.4186 Y4.0382
G01 X187.4230 Y4.0710
G01 X187.4245 Y4.0919
G01 X187.4256 Y4.1250
G01 X187.4256 Y20.8750
G01 X187.4245 Y20.9081
G01 X187.4239 Y20.9186
G01 X187.4218 Y20.9393
G01 X187.4169 Y20.9721
G01 X187.4150 Y20.9824
G01 X187.4105 Y21.0028
G01 X187.4019 Y21.0348
G01 X187.3954 Y21.0546
G01 X187.3837 Y21.0856
G01 X187.3700 Y21.1158
G01 X187.3654 Y21.1252
G01 X187.3556 Y21.1436
G01 X187.3385 Y21.1721
G01 X187.3269 Y21.1894
G01 X187.3208 Y21.1979
G01 X187.3007 Y21.2242
G01 X187.2788 Y21.2491
G01 X187.2644 Y21.2642
G01 X187.2569 Y21.2715
G01 X187.2323 Y21.2938
G01 X187.2244 Y21.3005
G01 X187.2079 Y21.3134
G01 X187.1810 Y21.3327
G01 X187.1528 Y21.3502
G01 X187.1346 Y21.3605
G01 X187.1254 Y21.3653
G01 X187.1049 Y21.3751
G01 X187.0858 Y21.3836
G01 X187.0548 Y21.3952
G01 X187.0449 Y21.3986
G01 X187.0249 Y21.4047
G01 X187.0029 Y21.4103
G01 X186.9825 Y21.4149
G01 X186.9498 Y21.4203
G01 X186.9395 Y21.4217
G01 X186.9187 Y21.4237
G01 X186.8960 Y21.4249
G01 X186.8752 Y21.4255
G01 X186.6252 Y21.4255
G01 X186.6043 Y21.4249
G01 X186.5816 Y21.4237
G01 X186.5608 Y21.4217
G01 X186.5505 Y21.4203
G01 X186.5280 Y21.4168
G01 X186.5075 Y21.4127
G01 X186.4855 Y21.4073
G01 X186.4654 Y21.4018
G01 X186.4455 Y21.3952
G01 X186.4256 Y21.3880
G01 X186.4256 Y21.5743
G01 X188.0002 Y21.5743
G01 X188.0210 Y21.5748
G01 X188.0701 Y21.5772
G01 X188.0909 Y21.5787
G01 X188.1116 Y21.5813
G01 X188.1602 Y21.5885
G01 X188.1705 Y21.5902
G01 X188.1910 Y21.5942
G01 X188.2588 Y21.6112
G01 X188.2788 Y21.6173
G01 X188.2887 Y21.6207
G01 X188.3349 Y21.6372
G01 X188.3544 Y21.6448
G01 X188.3735 Y21.6532
G01 X188.4179 Y21.6742
G01 X188.4273 Y21.6788
G01 X188.4457 Y21.6886
G01 X188.5057 Y21.7246
G01 X188.5231 Y21.7362
G01 X188.5315 Y21.7423
G01 X188.5710 Y21.7716
G01 X188.5874 Y21.7844
G01 X188.6032 Y21.7981
G01 X188.6473 Y21.8381
G01 X188.6547 Y21.8454
G01 X188.6691 Y21.8605
G01 X188.7021 Y21.8969
G01 X188.7157 Y21.9127
G01 X188.7286 Y21.9292
G01 X188.7578 Y21.9686
G01 X188.7639 Y21.9771
G01 X188.7755 Y21.9945
G01 X188.8115 Y22.0545
G01 X188.8214 Y22.0729
G01 X188.8259 Y22.0823
G01 X188.8469 Y22.1267
G01 X188.8554 Y22.1458
G01 X188.8629 Y22.1652
G01 X188.8794 Y22.2115
G01 X188.8860 Y22.2313
G01 X188.8916 Y22.2514
G01 X188.9035 Y22.2990
G01 X188.9081 Y22.3194
G01 X188.9116 Y22.3400
G01 X188.9188 Y22.3885
G01 X188.9214 Y22.4093
G01 X188.9229 Y22.4301
G01 X188.9253 Y22.4791
G01 X188.9259 Y22.5000
G01 X188.9259 Y27.5000
G01 X188.9253 Y27.5209
G01 X188.9229 Y27.5699
G01 X188.9214 Y27.5907
G01 X188.9188 Y27.6115
G01 X188.9100 Y27.6703
G01 X188.9059 Y27.6908
G01 X188.8916 Y27.7486
G01 X188.8860 Y27.7687
G01 X188.8794 Y27.7885
G01 X188.8629 Y27.8348
G01 X188.8554 Y27.8542
G01 X188.8469 Y27.8733
G01 X188.8259 Y27.9177
G01 X188.8165 Y27.9364
G01 X188.8063 Y27.9545
G01 X188.7810 Y27.9967
G01 X188.7699 Y28.0143
G01 X188.7578 Y28.0314
G01 X188.7286 Y28.0708
G01 X188.7157 Y28.0873
G01 X188.7021 Y28.1031
G01 X188.6620 Y28.1471
G01 X188.6473 Y28.1619
G01 X188.6396 Y28.1690
G01 X188.6032 Y28.2019
G01 X188.5874 Y28.2156
G01 X188.5710 Y28.2284
G01 X188.5315 Y28.2577
G01 X188.5144 Y28.2697
G01 X188.4968 Y28.2809
G01 X188.4547 Y28.3061
G01 X188.4365 Y28.3164
G01 X188.4179 Y28.3258
G01 X188.3735 Y28.3468
G01 X188.3544 Y28.3552
G01 X188.3349 Y28.3628
G01 X188.2788 Y28.3827
G01 X188.2588 Y28.3888
G01 X188.2011 Y28.4033
G01 X188.1807 Y28.4079
G01 X188.1602 Y28.4115
G01 X188.1013 Y28.4201
G01 X188.0909 Y28.4213
G01 X188.0701 Y28.4228
G01 X188.0210 Y28.4252
G01 X188.0002 Y28.4257
G01 X183.2350 Y28.4257
G01 X187.6620 Y32.8529
G01 X187.7090 Y32.9047
G01 X187.7223 Y32.9209
G01 X187.7286 Y32.9292
G01 X187.7578 Y32.9686
G01 X187.7699 Y32.9857
G01 X187.7810 Y33.0033
G01 X187.8063 Y33.0455
G01 X187.8165 Y33.0636
G01 X187.8214 Y33.0729
G01 X187.8513 Y33.1362
G01 X187.8554 Y33.1458
G01 X187.8629 Y33.1652
G01 X187.8828 Y33.2213
G01 X187.8889 Y33.2413
G01 X187.9035 Y33.2990
G01 X187.9081 Y33.3194
G01 X187.9116 Y33.3400
G01 X187.9188 Y33.3885
G01 X187.9214 Y33.4093
G01 X187.9229 Y33.4301
G01 X187.9253 Y33.4791
G01 X187.9259 Y33.5000
G01 X187.9259 Y42.0000
G01 X187.9253 Y42.0209
G01 X187.9229 Y42.0699
G01 X187.9214 Y42.0907
G01 X187.9188 Y42.1115
G01 X187.9116 Y42.1600
G01 X187.9081 Y42.1806
G01 X187.9035 Y42.2010
G01 X187.8916 Y42.2486
G01 X187.8860 Y42.2687
G01 X187.8794 Y42.2885
G01 X187.8629 Y42.3348
G01 X187.8554 Y42.3542
G01 X187.8469 Y42.3733
G01 X187.8259 Y42.4177
G01 X187.8214 Y42.4271
G01 X187.8115 Y42.4455
G01 X187.7810 Y42.4967
G01 X187.7699 Y42.5143
G01 X187.7639 Y42.5229
G01 X187.7223 Y42.5791
G01 X187.7157 Y42.5873
G01 X187.7021 Y42.6031
G01 X187.6691 Y42.6395
G01 X187.6547 Y42.6546
G01 X187.4113 Y42.8980
G01 X187.3630 Y43.0518
G01 X187.3506 Y43.0899
G01 X187.3457 Y43.1031
G01 X187.3393 Y43.1190
G01 X187.3210 Y43.1698
G01 X187.3130 Y43.1891
G01 X187.3086 Y43.1986
G01 X187.2667 Y43.2873
G01 X187.2540 Y43.3120
G01 X187.2346 Y43.3467
G01 X185.7346 Y45.9448
G01 X185.7237 Y45.9626
G01 X185.7149 Y45.9757
G01 X185.6911 Y46.0152
G01 X185.6795 Y46.0326
G01 X185.6734 Y46.0411
G01 X185.6149 Y46.1199
G01 X185.6020 Y46.1364
G01 X185.5884 Y46.1522
G01 X185.5225 Y46.2249
G01 X185.5081 Y46.2400
G01 X185.4930 Y46.2544
G01 X185.4203 Y46.3203
G01 X185.4044 Y46.3339
G01 X185.3880 Y46.3468
G01 X185.3092 Y46.4053
G01 X185.2921 Y46.4173
G01 X185.2745 Y46.4284
G01 X185.1903 Y46.4789
G01 X185.1721 Y46.4892
G01 X185.1535 Y46.4986
G01 X185.0647 Y46.5405
G01 X185.0456 Y46.5490
G01 X185.0262 Y46.5565
G01 X184.9338 Y46.5896
G01 X184.9139 Y46.5961
G01 X184.8938 Y46.6017
G01 X184.7986 Y46.6255
G01 X184.7782 Y46.6301
G01 X184.7577 Y46.6337
G01 X184.6606 Y46.6481
G01 X184.6399 Y46.6506
G01 X184.6295 Y46.6515
G01 X184.5210 Y46.6570
G01 X184.5002 Y46.6575
G01 X184.4793 Y46.6570
G01 X184.3813 Y46.6522
G01 X184.3604 Y46.6506
G01 X184.3397 Y46.6481
G01 X184.2426 Y46.6337
G01 X184.2221 Y46.6301
G01 X184.2017 Y46.6255
G01 X184.1065 Y46.6017
G01 X184.0864 Y46.5961
G01 X184.0665 Y46.5896
G01 X183.9741 Y46.5565
G01 X183.9547 Y46.5490
G01 X183.9356 Y46.5405
G01 X183.8468 Y46.4986
G01 X183.8282 Y46.4892
G01 X183.8100 Y46.4789
G01 X183.7258 Y46.4284
G01 X183.7082 Y46.4173
G01 X183.6911 Y46.4053
G01 X183.6040 Y46.3405
G01 X183.5879 Y46.3272
G01 X183.5800 Y46.3203
G01 X183.5073 Y46.2544
G01 X183.4922 Y46.2400
G01 X183.4778 Y46.2249
G01 X183.4119 Y46.1522
G01 X183.3983 Y46.1364
G01 X183.3917 Y46.1282
G01 X183.3269 Y46.0411
G01 X183.3149 Y46.0240
G01 X183.3038 Y46.0064
G01 X183.2533 Y45.9222
G01 X183.2430 Y45.9040
G01 X183.2336 Y45.8854
G01 X183.1917 Y45.7966
G01 X183.1832 Y45.7775
G01 X183.1757 Y45.7581
G01 X183.1426 Y45.6657
G01 X183.1361 Y45.6458
G01 X183.1305 Y45.6257
G01 X183.1042 Y45.5204
G01 X183.1002 Y45.4999
G01 X183.0985 Y45.4896
G01 X183.0841 Y45.3925
G01 X183.0816 Y45.3718
G01 X183.0800 Y45.3509
G01 X183.0752 Y45.2529
G01 X183.0748 Y45.2425
G01 X183.0748 Y45.2216
G01 X183.0800 Y45.1132
G01 X183.0816 Y45.0923
G01 X183.0841 Y45.0716
G01 X183.0985 Y44.9745
G01 X183.1002 Y44.9642
G01 X183.1042 Y44.9437
G01 X183.1305 Y44.8384
G01 X183.1361 Y44.8183
G01 X183.1426 Y44.7984
G01 X183.1757 Y44.7060
G01 X183.1832 Y44.6866
G01 X183.1917 Y44.6675
G01 X183.2382 Y44.5694
G01 X183.2463 Y44.5540
G01 X183.2657 Y44.5193
G01 X183.4213 Y44.2498
G00 Z1.0000
G00 X182.8012 Y45.2370
G01 F60.00
G01 Z-0.0900
G01 F500.00
G01 X182.7151 Y45.3149
G01 X182.6975 Y45.3303
G01 X182.6794 Y45.3451
G01 X182.2126 Y45.7137
G01 X182.1940 Y45.7279
G01 X182.1750 Y45.7414
G01 X181.6847 Y46.0780
G01 X181.6652 Y46.0909
G01 X181.6453 Y46.1031
G01 X181.1335 Y46.4062
G01 X181.1133 Y46.4178
G01 X181.0926 Y46.4287
G01 X180.5617 Y46.6970
G01 X180.5407 Y46.7071
G01 X180.5193 Y46.7166
G01 X179.9717 Y46.9488
G01 X179.9501 Y46.9576
G01 X179.9282 Y46.9656
G01 X179.3663 Y47.1607
G01 X179.3441 Y47.1680
G01 X179.3217 Y47.1745
G01 X178.9903 Y47.2653
G01 X178.9921 Y48.3409
G01 X179.2221 Y48.8010
G01 X179.7902 Y48.8010
G01 X179.8073 Y48.8012
G01 X179.8416 Y48.8029
G01 X179.8757 Y48.8063
G01 X179.9096 Y48.8113
G01 X179.9433 Y48.8180
G01 X179.9766 Y48.8263
G01 X180.0094 Y48.8363
G01 X180.0417 Y48.8479
G01 X180.0734 Y48.8610
G01 X180.0890 Y48.8681
G01 X180.1044 Y48.8757
G01 X180.1347 Y48.8918
G01 X180.1641 Y48.9095
G01 X180.1926 Y48.9285
G01 X180.2065 Y48.9386
G01 X180.2336 Y48.9597
G01 X180.2467 Y48.9707
G01 X180.2721 Y48.9938
G01 X180.2964 Y49.0180
G01 X180.3194 Y49.0434
G01 X180.3305 Y49.0566
G01 X180.3516 Y49.0836
G01 X180.3713 Y49.1117
G01 X180.3807 Y49.1260
G01 X180.3983 Y49.1555
G01 X180.4145 Y49.1857
G01 X180.4220 Y49.2011
G01 X180.4359 Y49.2325
G01 X180.4483 Y49.2645
G01 X180.4590 Y49.2971
G01 X180.4638 Y49.3136
G01 X180.4682 Y49.3302
G01 X180.4757 Y49.3636
G01 X180.4816 Y49.3974
G01 X180.4858 Y49.4315
G01 X180.4872 Y49.4486
G01 X180.4889 Y49.4828
G01 X180.4891 Y49.5000
G01 X180.4891 Y52.0000
G01 X180.4883 Y52.0343
G01 X180.4858 Y52.0685
G01 X180.4816 Y52.1026
G01 X180.4757 Y52.1364
G01 X180.4682 Y52.1698
G01 X180.4590 Y52.2029
G01 X180.4483 Y52.2355
G01 X180.4423 Y52.2516
G01 X180.4359 Y52.2675
G01 X180.4220 Y52.2989
G01 X180.4066 Y52.3295
G01 X180.3897 Y52.3593
G01 X180.3713 Y52.3883
G01 X180.3616 Y52.4025
G01 X180.3412 Y52.4300
G01 X180.3194 Y52.4566
G01 X180.2964 Y52.4820
G01 X180.2721 Y52.5062
G01 X180.2467 Y52.5293
G01 X180.2336 Y52.5403
G01 X180.2065 Y52.5614
G01 X180.1926 Y52.5715
G01 X180.1641 Y52.5905
G01 X180.1347 Y52.6082
G01 X180.1044 Y52.6243
G01 X180.0734 Y52.6390
G01 X180.0417 Y52.6521
G01 X180.0256 Y52.6581
G01 X180.0094 Y52.6637
G01 X179.9766 Y52.6737
G01 X179.9433 Y52.6820
G01 X179.9096 Y52.6887
G01 X179.8757 Y52.6937
G01 X179.8416 Y52.6971
G01 X179.8073 Y52.6988
G01 X179.7902 Y52.6990
G01 X176.7902 Y52.6990
G01 X176.7558 Y52.6981
G01 X176.7216 Y52.6956
G01 X176.6876 Y52.6914
G01 X176.6707 Y52.6887
G01 X176.6538 Y52.6855
G01 X176.6203 Y52.6780
G01 X176.6037 Y52.6737
G01 X176.5709 Y52.6637
G01 X176.5386 Y52.6521
G01 X176.5069 Y52.6390
G01 X176.4759 Y52.6243
G01 X176.4607 Y52.6164
G01 X176.4456 Y52.6082
G01 X176.4162 Y52.5905
G01 X176.3877 Y52.5715
G01 X176.3738 Y52.5614
G01 X176.3467 Y52.5403
G01 X176.3208 Y52.5179
G01 X176.3082 Y52.5062
G01 X176.2839 Y52.4820
G01 X176.2609 Y52.4566
G01 X176.2391 Y52.4300
G01 X176.2187 Y52.4025
G01 X176.2090 Y52.3883
G01 X176.1996 Y52.3740
G01 X176.1820 Y52.3445
G01 X176.1737 Y52.3295
G01 X176.1643 Y52.3112
G01 X176.0971 Y52.3608
G01 X176.0686 Y52.3799
G01 X175.9339 Y52.4606
G01 X175.9037 Y52.4767
G01 X175.8882 Y52.4843
G01 X175.7618 Y52.5439
G01 X175.7460 Y52.5506
G01 X175.7140 Y52.5630
G01 X175.5985 Y52.6043
G01 X175.5659 Y52.6150
G01 X175.5328 Y52.6242
G01 X175.4138 Y52.6540
G01 X175.3972 Y52.6580
G01 X175.3635 Y52.6647
G01 X175.2252 Y52.6854
G01 X175.1912 Y52.6896
G01 X175.1570 Y52.6921
G01 X175.0173 Y52.6988
G01 X174.0402 Y52.6990
G01 X174.0059 Y52.6981
G01 X173.8833 Y52.6921
G01 X173.8491 Y52.6896
G01 X173.8151 Y52.6854
G01 X173.6937 Y52.6674
G01 X173.6599 Y52.6615
G01 X173.6265 Y52.6540
G01 X173.5075 Y52.6242
G01 X173.4744 Y52.6150
G01 X173.4418 Y52.6043
G01 X173.3263 Y52.5630
G01 X173.2943 Y52.5506
G01 X173.2785 Y52.5439
G01 X173.1366 Y52.4767
G01 X173.1214 Y52.4688
G01 X173.0916 Y52.4519
G01 X172.9863 Y52.3889
G01 X172.9574 Y52.3705
G01 X172.9293 Y52.3508
G01 X172.8626 Y52.3013
G01 X172.8441 Y52.2935
G01 X172.8131 Y52.2788
G01 X171.6590 Y51.6992
G01 X170.0002 Y51.6992
G01 X169.9659 Y51.6984
G01 X169.8997 Y51.6949
G01 X169.8656 Y51.6916
G01 X169.7831 Y51.6793
G01 X169.7494 Y51.6726
G01 X169.6685 Y51.6524
G01 X169.6357 Y51.6424
G01 X169.5572 Y51.6143
G01 X169.5255 Y51.6012
G01 X169.4655 Y51.5730
G01 X169.4348 Y51.5576
G01 X169.4050 Y51.5407
G01 X169.3629 Y51.5155
G01 X169.3339 Y51.4971
G01 X169.3059 Y51.4774
G01 X169.2664 Y51.4481
G01 X169.2394 Y51.4270
G01 X169.2134 Y51.4046
G01 X169.1770 Y51.3716
G01 X169.1522 Y51.3480
G01 X163.6522 Y45.8480
G01 X163.6285 Y45.8231
G01 X163.5955 Y45.7868
G01 X163.5732 Y45.7608
G01 X163.5520 Y45.7337
G01 X163.5228 Y45.6943
G01 X163.5030 Y45.6662
G01 X163.4847 Y45.6373
G01 X163.4594 Y45.5952
G01 X163.4425 Y45.5653
G01 X163.4271 Y45.5347
G01 X163.4061 Y45.4903
G01 X163.3990 Y45.4747
G01 X163.3858 Y45.4430
G01 X163.3633 Y45.3807
G01 X163.3526 Y45.3481
G01 X163.3434 Y45.3151
G01 X163.3315 Y45.2674
G01 X163.3240 Y45.2340
G01 X163.3181 Y45.2002
G01 X163.3109 Y45.1516
G01 X163.3067 Y45.1176
G01 X163.3042 Y45.0833
G01 X163.3018 Y45.0343
G01 X163.3009 Y45.0000
G01 X163.3009 Y20.7500
G01 X163.3018 Y20.7157
G01 X163.3052 Y20.6495
G01 X163.3086 Y20.6154
G01 X163.3181 Y20.5498
G01 X163.3208 Y20.5329
G01 X163.3275 Y20.4993
G01 X163.3434 Y20.4349
G01 X163.3526 Y20.4019
G01 X163.3633 Y20.3693
G01 X163.3858 Y20.3070
G01 X163.3990 Y20.2753
G01 X163.4061 Y20.2597
G01 X163.4346 Y20.1999
G01 X163.4508 Y20.1697
G01 X163.4847 Y20.1127
G01 X163.5030 Y20.0838
G01 X163.5228 Y20.0557
G01 X163.5624 Y20.0026
G01 X163.5731 Y19.9892
G01 X163.5955 Y19.9632
G01 X163.6402 Y19.9143
G01 X163.6644 Y19.8900
G01 X163.7134 Y19.8454
G01 X163.7394 Y19.8230
G01 X163.7664 Y19.8019
G01 X163.8198 Y19.7626
G01 X163.8483 Y19.7435
G01 X163.9050 Y19.7093
G01 X163.9348 Y19.6924
G01 X163.9501 Y19.6845
G01 X164.0099 Y19.6560
G01 X164.0412 Y19.6421
G01 X164.0732 Y19.6297
G01 X164.1357 Y19.6076
G01 X164.1520 Y19.6024
G01 X164.1851 Y19.5933
G01 X164.2327 Y19.5813
G01 X164.2662 Y19.5738
G01 X164.3000 Y19.5680
G01 X164.3486 Y19.5608
G01 X164.3826 Y19.5566
G01 X164.4168 Y19.5540
G01 X164.4659 Y19.5516
G01 X164.5002 Y19.5508
G01 X164.5344 Y19.5516
G01 X164.5835 Y19.5540
G01 X164.6177 Y19.5566
G01 X164.6347 Y19.5584
G01 X164.7003 Y19.5680
G01 X164.7341 Y19.5738
G01 X164.7676 Y19.5813
G01 X164.8152 Y19.5933
G01 X164.8483 Y19.6024
G01 X164.8646 Y19.6076
G01 X164.9010 Y19.6204
G01 X165.5897 Y19.8009
G01 X165.8011 Y19.8009
G01 X165.8014 Y4.1079
G01 X165.8026 Y4.0785
G01 X165.8051 Y4.0442
G01 X165.8093 Y4.0102
G01 X165.8139 Y3.9811
G01 X165.8206 Y3.9475
G01 X165.8275 Y3.9189
G01 X165.8319 Y3.9023
G01 X165.8418 Y3.8695
G01 X165.8516 Y3.8417
G01 X165.8639 Y3.8097
G01 X165.8778 Y3.7783
G01 X165.8906 Y3.7518
G01 X165.8985 Y3.7366
G01 X165.9154 Y3.7067
G01 X165.9307 Y3.6816
G01 X165.9497 Y3.6531
G01 X165.9671 Y3.6293
G01 X165.9882 Y3.6023
G01 X166.0106 Y3.5763
G01 X166.0305 Y3.5546
G01 X166.0548 Y3.5304
G01 X166.0765 Y3.5105
G01 X166.1024 Y3.4881
G01 X166.1158 Y3.4773
G01 X166.1393 Y3.4596
G01 X166.1674 Y3.4399
G01 X166.1964 Y3.4215
G01 X166.2217 Y3.4066
G01 X166.2520 Y3.3904
G01 X166.2785 Y3.3777
G01 X166.2941 Y3.3705
G01 X166.3258 Y3.3574
G01 X166.3534 Y3.3473
G01 X166.3860 Y3.3365
G01 X166.4024 Y3.3317
G01 X166.4309 Y3.3244
G01 X166.4644 Y3.3169
G01 X166.4982 Y3.3110
G01 X166.5273 Y3.3069
G01 X166.5444 Y3.3050
G01 X166.5786 Y3.3025
G01 X166.6080 Y3.3012
G01 X166.6252 Y3.3010
G01 X166.8752 Y3.3010
G01 X166.9094 Y3.3019
G01 X166.9364 Y3.3034
G01 X166.9659 Y3.3019
G01 X167.0002 Y3.3010
G01 X186.5002 Y3.3010
G01 X186.5344 Y3.3019
G01 X186.5639 Y3.3034
G01 X186.5909 Y3.3019
G01 X186.6252 Y3.3010
G01 X186.8923 Y3.3012
G01 X186.9217 Y3.3025
G01 X186.9559 Y3.3050
G01 X186.9900 Y3.3092
G01 X187.0190 Y3.3137
G01 X187.0359 Y3.3169
G01 X187.0694 Y3.3244
G01 X187.0979 Y3.3317
G01 X187.1307 Y3.3417
G01 X187.1585 Y3.3514
G01 X187.1905 Y3.3637
G01 X187.2218 Y3.3777
G01 X187.2483 Y3.3904
G01 X187.2786 Y3.4066
G01 X187.2934 Y3.4152
G01 X187.3185 Y3.4305
G01 X187.3471 Y3.4496
G01 X187.3708 Y3.4670
G01 X187.3979 Y3.4881
G01 X187.4238 Y3.5105
G01 X187.4455 Y3.5304
G01 X187.4698 Y3.5546
G01 X187.4814 Y3.5672
G01 X187.5010 Y3.5891
G01 X187.5228 Y3.6157
G01 X187.5405 Y3.6392
G01 X187.5603 Y3.6673
G01 X187.5786 Y3.6962
G01 X187.5936 Y3.7215
G01 X187.6097 Y3.7518
G01 X187.6173 Y3.7672
G01 X187.6296 Y3.7939
G01 X187.6428 Y3.8256
G01 X187.6529 Y3.8532
G01 X187.6636 Y3.8858
G01 X187.6728 Y3.9189
G01 X187.6797 Y3.9475
G01 X187.6833 Y3.9643
G01 X187.6892 Y3.9981
G01 X187.6933 Y4.0272
G01 X187.6952 Y4.0442
G01 X187.6977 Y4.0785
G01 X187.6989 Y4.1079
G01 X187.6991 Y4.1250
G01 X187.6991 Y20.8750
G01 X187.6983 Y20.9093
G01 X187.6966 Y20.9387
G01 X187.6952 Y20.9558
G01 X187.6910 Y20.9898
G01 X187.6864 Y21.0189
G01 X187.6833 Y21.0358
G01 X187.6758 Y21.0692
G01 X187.6684 Y21.0977
G01 X187.6585 Y21.1305
G01 X187.6529 Y21.1468
G01 X187.6428 Y21.1744
G01 X187.6296 Y21.2061
G01 X187.6173 Y21.2328
G01 X187.6018 Y21.2634
G01 X187.5936 Y21.2785
G01 X187.5804 Y21.3008
G01 X188.0173 Y21.3010
G01 X188.0835 Y21.3040
G01 X188.1177 Y21.3066
G01 X188.1517 Y21.3108
G01 X188.2003 Y21.3180
G01 X188.2172 Y21.3207
G01 X188.2509 Y21.3274
G01 X188.3152 Y21.3433
G01 X188.3483 Y21.3524
G01 X188.3808 Y21.3632
G01 X188.4431 Y21.3857
G01 X188.4748 Y21.3988
G01 X188.5502 Y21.4345
G01 X188.5655 Y21.4424
G01 X188.5953 Y21.4593
G01 X188.6520 Y21.4935
G01 X188.6805 Y21.5126
G01 X188.7475 Y21.5623
G01 X188.7741 Y21.5840
G01 X188.8359 Y21.6400
G01 X188.8601 Y21.6643
G01 X188.9161 Y21.7261
G01 X188.9379 Y21.7526
G01 X188.9483 Y21.7663
G01 X188.9876 Y21.8196
G01 X188.9973 Y21.8338
G01 X189.0156 Y21.8627
G01 X189.0409 Y21.9048
G01 X189.0578 Y21.9347
G01 X189.0732 Y21.9653
G01 X189.0942 Y22.0097
G01 X189.1013 Y22.0253
G01 X189.1145 Y22.0570
G01 X189.1426 Y22.1355
G01 X189.1525 Y22.1684
G01 X189.1688 Y22.2326
G01 X189.1763 Y22.2660
G01 X189.1795 Y22.2829
G01 X189.1917 Y22.3654
G01 X189.1951 Y22.3995
G01 X189.1961 Y22.4167
G01 X189.1985 Y22.4657
G01 X189.1994 Y22.5000
G01 X189.1994 Y27.5000
G01 X189.1985 Y27.5343
G01 X189.1951 Y27.6005
G01 X189.1917 Y27.6346
G01 X189.1822 Y27.7002
G01 X189.1763 Y27.7340
G01 X189.1688 Y27.7674
G01 X189.1525 Y27.8316
G01 X189.1426 Y27.8645
G01 X189.1204 Y27.9269
G01 X189.1081 Y27.9589
G01 X189.0942 Y27.9903
G01 X189.0657 Y28.0501
G01 X189.0495 Y28.0803
G01 X189.0156 Y28.1373
G01 X188.9973 Y28.1662
G01 X188.9876 Y28.1804
G01 X188.9483 Y28.2337
G01 X188.9272 Y28.2608
G01 X188.9048 Y28.2868
G01 X188.8601 Y28.3357
G01 X188.8359 Y28.3600
G01 X188.7869 Y28.4046
G01 X188.7609 Y28.4270
G01 X188.7339 Y28.4481
G01 X188.6805 Y28.4874
G01 X188.6520 Y28.5065
G01 X188.5953 Y28.5407
G01 X188.5655 Y28.5576
G01 X188.5348 Y28.5730
G01 X188.4748 Y28.6012
G01 X188.4431 Y28.6143
G01 X188.4271 Y28.6203
G01 X188.3646 Y28.6424
G01 X188.3318 Y28.6524
G01 X188.2676 Y28.6687
G01 X188.2341 Y28.6762
G01 X188.2003 Y28.6820
G01 X188.1517 Y28.6892
G01 X188.1177 Y28.6934
G01 X188.0835 Y28.6960
G01 X188.0344 Y28.6984
G01 X188.0002 Y28.6992
G01 X183.8953 Y28.6992
G01 X187.8601 Y32.6643
G01 X187.9161 Y32.7261
G01 X187.9379 Y32.7526
G01 X187.9483 Y32.7663
G01 X187.9775 Y32.8057
G01 X187.9973 Y32.8338
G01 X188.0156 Y32.8627
G01 X188.0409 Y32.9048
G01 X188.0578 Y32.9347
G01 X188.0657 Y32.9499
G01 X188.1013 Y33.0253
G01 X188.1145 Y33.0570
G01 X188.1426 Y33.1355
G01 X188.1525 Y33.1684
G01 X188.1688 Y33.2326
G01 X188.1763 Y33.2660
G01 X188.1822 Y33.2998
G01 X188.1917 Y33.3654
G01 X188.1951 Y33.3995
G01 X188.1985 Y33.4657
G01 X188.1994 Y33.5000
G01 X188.1994 Y42.0000
G01 X188.1985 Y42.0343
G01 X188.1961 Y42.0833
G01 X188.1951 Y42.1005
G01 X188.1917 Y42.1346
G01 X188.1795 Y42.2171
G01 X188.1728 Y42.2507
G01 X188.1525 Y42.3316
G01 X188.1426 Y42.3645
G01 X188.1145 Y42.4430
G01 X188.1013 Y42.4747
G01 X188.0657 Y42.5501
G01 X188.0495 Y42.5803
G01 X188.0066 Y42.6519
G01 X187.9876 Y42.6804
G01 X187.9379 Y42.7474
G01 X187.9161 Y42.7739
G01 X187.8718 Y42.8231
G01 X187.8481 Y42.8480
G01 X187.6522 Y43.0439
G01 X187.6239 Y43.1339
G01 X187.6089 Y43.1799
G01 X187.6017 Y43.1995
G01 X187.5944 Y43.2179
G01 X187.5762 Y43.2682
G01 X187.5630 Y43.2999
G01 X187.5559 Y43.3155
G01 X187.5139 Y43.4042
G01 X187.5064 Y43.4196
G01 X187.4930 Y43.4449
G01 X187.4715 Y43.4835
G01 X185.9715 Y46.0815
G01 X185.9627 Y46.0963
G01 X185.9451 Y46.1237
G01 X185.9221 Y46.1616
G01 X185.9031 Y46.1901
G01 X185.8930 Y46.2040
G01 X185.8346 Y46.2828
G01 X185.8134 Y46.3099
G01 X185.7911 Y46.3358
G01 X185.7135 Y46.4211
G01 X185.6892 Y46.4454
G01 X185.6767 Y46.4571
G01 X185.6039 Y46.5230
G01 X185.5780 Y46.5454
G01 X185.5509 Y46.5665
G01 X185.4721 Y46.6249
G01 X185.4582 Y46.6350
G01 X185.4297 Y46.6540
G01 X185.3161 Y46.7221
G01 X185.2858 Y46.7383
G01 X185.2704 Y46.7458
G01 X185.1817 Y46.7878
G01 X185.1503 Y46.8017
G01 X185.1183 Y46.8140
G01 X185.0097 Y46.8527
G01 X184.9769 Y46.8626
G01 X184.9603 Y46.8670
G01 X184.8651 Y46.8909
G01 X184.8316 Y46.8984
G01 X184.7978 Y46.9042
G01 X184.7007 Y46.9186
G01 X184.6667 Y46.9228
G01 X184.6496 Y46.9243
G01 X184.5344 Y46.9302
G01 X184.5002 Y46.9310
G01 X184.4659 Y46.9302
G01 X184.3507 Y46.9243
G01 X184.3336 Y46.9228
G01 X184.2996 Y46.9186
G01 X184.2025 Y46.9042
G01 X184.1687 Y46.8984
G01 X184.1352 Y46.8909
G01 X184.0400 Y46.8670
G01 X184.0234 Y46.8626
G01 X183.9906 Y46.8527
G01 X183.8820 Y46.8140
G01 X183.8500 Y46.8017
G01 X183.8186 Y46.7878
G01 X183.7145 Y46.7383
G01 X183.6993 Y46.7304
G01 X183.6694 Y46.7135
G01 X183.5852 Y46.6630
G01 X183.5563 Y46.6447
G01 X183.5282 Y46.6249
G01 X183.4494 Y46.5665
G01 X183.4223 Y46.5454
G01 X183.4092 Y46.5343
G01 X183.3236 Y46.4571
G01 X183.2988 Y46.4334
G01 X183.2751 Y46.4086
G01 X183.1979 Y46.3230
G01 X183.1761 Y46.2965
G01 X183.1657 Y46.2828
G01 X183.1073 Y46.2040
G01 X183.0875 Y46.1759
G01 X183.0692 Y46.1470
G01 X183.0187 Y46.0628
G01 X183.0018 Y46.0330
G01 X182.9939 Y46.0177
G01 X182.9444 Y45.9136
G01 X182.9305 Y45.8822
G01 X182.9182 Y45.8502
G01 X182.8795 Y45.7416
G01 X182.8743 Y45.7252
G01 X182.8652 Y45.6922
G01 X182.8413 Y45.5970
G01 X182.8338 Y45.5635
G01 X182.8280 Y45.5297
G01 X182.8136 Y45.4326
G01 X182.8094 Y45.3986
G01 X182.8079 Y45.3815
G01 X182.8020 Y45.2663
G01 X182.8012 Y45.2370
G00 Z1.0000
G00 X176.6557 Y49.4291
G01 F60.00
G01 Z-0.0900
G01 F500.00
G01 X177.1379 Y48.4646
G01 X177.1379 Y47.0245
G01 X176.8026 Y47.0469
G01 X176.1977 Y47.0469
G01 X175.5941 Y47.0065
G01 X174.9945 Y46.9259
G01 X174.4017 Y46.8054
G01 X173.8183 Y46.6455
G01 X173.2468 Y46.4471
G01 X172.6945 Y46.2130
G01 X172.6853 Y46.2087
G01 X172.1544 Y45.9405
G01 X172.1455 Y45.9356
G01 X171.6295 Y45.6298
G01 X171.1349 Y45.2904
G01 X171.1267 Y45.2844
G01 X170.6560 Y44.9125
G01 X170.2073 Y44.5068
G01 X169.7868 Y44.0719
G01 X169.3962 Y43.6100
G01 X169.0403 Y43.1271
G01 X169.0345 Y43.1187
G01 X168.7118 Y42.6130
G01 X168.4235 Y42.0870
G01 X168.4189 Y42.0780
G01 X168.1665 Y41.5338
G01 X167.9491 Y40.9693
G01 X167.7698 Y40.3915
G01 X167.6307 Y39.8080
G01 X167.6287 Y39.7980
G01 X167.5297 Y39.2115
G01 X167.5284 Y39.2015
G01 X167.4684 Y38.6046
G01 X167.4483 Y38.0051
G01 X167.4483 Y37.9949
G01 X167.4682 Y37.4005
G01 X167.4688 Y37.3903
G01 X167.5290 Y36.7935
G01 X167.6296 Y36.1970
G01 X167.7686 Y35.6134
G01 X167.7712 Y35.6036
G01 X167.9491 Y35.0307
G01 X168.1646 Y34.4709
G01 X168.1685 Y34.4616
G01 X168.4189 Y33.9220
G01 X168.4235 Y33.9130
G01 X168.7118 Y33.3870
G01 X169.0345 Y32.8813
G01 X169.0403 Y32.8729
G01 X169.3962 Y32.3900
G01 X169.7834 Y31.9319
G01 X169.7902 Y31.9244
G01 X170.2073 Y31.4932
G01 X170.6521 Y31.0908
G01 X170.6599 Y31.0842
G01 X171.1307 Y30.7125
G01 X171.6295 Y30.3702
G01 X172.1455 Y30.0644
G01 X172.1544 Y30.0595
G01 X172.6899 Y29.7891
G01 X173.2468 Y29.5529
G01 X173.8135 Y29.3560
G01 X173.8232 Y29.3530
G01 X174.4017 Y29.1946
G01 X174.9945 Y29.0741
G01 X175.5890 Y28.9941
G01 X175.5991 Y28.9931
G01 X176.1977 Y28.9531
G01 X176.8026 Y28.9531
G01 X177.4012 Y28.9931
G01 X177.4113 Y28.9941
G01 X178.0058 Y29.0741
G01 X178.5986 Y29.1946
G01 X179.1771 Y29.3530
G01 X179.1868 Y29.3560
G01 X179.7535 Y29.5529
G01 X180.3058 Y29.7870
G01 X180.3150 Y29.7913
G01 X180.8504 Y30.0619
G01 X181.3708 Y30.3702
