(G-CODE GENERATED BY FLATCAM v8.994 - www.flatcam.org - Version Date: 2020/11/7)

(Name: HIT2024-PTH.drl_3_cnc)
(Type: G-code from Geometry)
(Units: MM)

(Created on Saturday, 01 June 2024 at 10:15)

(This preprocessor is the default preprocessor used by FlatCAM.)
(It is made to work with MACH3 compatible motion controllers.)


(TOOLS DIAMETER: )
(Tool: 1 -> Dia: 0.6)

(FEEDRATE Z: )
(Tool: 1 -> Feedrate: 300)

(FEEDRATE RAPIDS: )
(Tool: 1 -> Feedrate Rapids: 1500)

(Z_CUT: )
(Tool: 1 -> Z_Cut: -1.7)

(Tools Offset: )
(Tool: 1 -> Offset Z: 0.0)

(Z_MOVE: )
(Tool: 1 -> Z_Move: 1.4999999999999996)

(Z Toolchange: 15 mm)
(X,Y Toolchange: 0.0000, 0.0000 mm)
(Z Start: None mm)
(Z End: 0.5 mm)
(X,Y End: None mm)
(Steps per circle: 64)
(Preprocessor Excellon: default)

(X range:    3.7000 ...  185.8000  mm)
(Y range:   27.2000 ...   51.3000  mm)

(Spindle Speed: 0 RPM)
G21
G90
G94

G01 F300.00

M5
G00 Z15.0000
T1
G00 X0.0000 Y0.0000                
M6
(MSG, Change to Tool Dia = 0.6000 ||| Total drills for tool T1 = 42)
M0
G00 Z15.0000

G01 F300.00
M03
G00 X4.0000 Y43.5000
G01 Z-1.7000
G01 Z0
G00 Z1.5000
G00 X11.7500 Y51.0000
G01 Z-1.7000
G01 Z0
G00 Z1.5000
G00 X14.2900 Y51.0000
G01 Z-1.7000
G01 Z0
G00 Z1.5000
G00 X22.0000 Y43.5000
G01 Z-1.7000
G01 Z0
G00 Z1.5000
G00 X31.0000 Y43.5000
G01 Z-1.7000
G01 Z0
G00 Z1.5000
G00 X38.7500 Y51.0000
G01 Z-1.7000
G01 Z0
G00 Z1.5000
G00 X41.2900 Y51.0000
G01 Z-1.7000
G01 Z0
G00 Z1.5000
G00 X49.0000 Y43.5000
G01 Z-1.7000
G01 Z0
G00 Z1.5000
G00 X58.5000 Y43.5000
G01 Z-1.7000
G01 Z0
G00 Z1.5000
G00 X66.2500 Y51.0000
G01 Z-1.7000
G01 Z0
G00 Z1.5000
G00 X68.7900 Y51.0000
G01 Z-1.7000
G01 Z0
G00 Z1.5000
G00 X76.5000 Y43.5000
G01 Z-1.7000
G01 Z0
G00 Z1.5000
G00 X85.5000 Y43.5000
G01 Z-1.7000
G01 Z0
G00 Z1.5000
G00 X93.2500 Y51.0000
G01 Z-1.7000
G01 Z0
G00 Z1.5000
G00 X95.7900 Y51.0000
G01 Z-1.7000
G01 Z0
G00 Z1.5000
G00 X103.5000 Y43.5000
G01 Z-1.7000
G01 Z0
G00 Z1.5000
G00 X113.0000 Y43.5000
G01 Z-1.7000
G01 Z0
G00 Z1.5000
G00 X120.7500 Y51.0000
G01 Z-1.7000
G01 Z0
G00 Z1.5000
G00 X123.2900 Y51.0000
G01 Z-1.7000
G01 Z0
G00 Z1.5000
G00 X131.0000 Y43.5000
G01 Z-1.7000
G01 Z0
G00 Z1.5000
G00 X140.5000 Y43.5000
G01 Z-1.7000
G01 Z0
G00 Z1.5000
G00 X148.2500 Y51.0000
G01 Z-1.7000
G01 Z0
G00 Z1.5000
G00 X150.7900 Y51.0000
G01 Z-1.7000
G01 Z0
G00 Z1.5000
G00 X158.5000 Y43.5000
G01 Z-1.7000
G01 Z0
G00 Z1.5000
G00 X167.5000 Y43.5000
G01 Z-1.7000
G01 Z0
G00 Z1.5000
G00 X175.2500 Y51.0000
G01 Z-1.7000
G01 Z0
G00 Z1.5000
G00 X177.7900 Y51.0000
G01 Z-1.7000
G01 Z0
G00 Z1.5000
G00 X185.5000 Y43.5000
G01 Z-1.7000
G01 Z0
G00 Z1.5000
G00 X177.5000 Y27.5000
G01 Z-1.7000
G01 Z0
G00 Z1.5000
G00 X175.5000 Y27.5000
G01 Z-1.7000
G01 Z0
G00 Z1.5000
G00 X150.5000 Y27.5000
G01 Z-1.7000
G01 Z0
G00 Z1.5000
G00 X148.5000 Y27.5000
G01 Z-1.7000
G01 Z0
G00 Z1.5000
G00 X123.0000 Y27.5000
G01 Z-1.7000
G01 Z0
G00 Z1.5000
G00 X121.0000 Y27.5000
G01 Z-1.7000
G01 Z0
G00 Z1.5000
G00 X95.5000 Y27.5000
G01 Z-1.7000
G01 Z0
G00 Z1.5000
G00 X93.5000 Y27.5000
G01 Z-1.7000
G01 Z0
G00 Z1.5000
G00 X68.5000 Y27.5000
G01 Z-1.7000
G01 Z0
G00 Z1.5000
G00 X66.5000 Y27.5000
G01 Z-1.7000
G01 Z0
G00 Z1.5000
G00 X41.0000 Y27.5000
G01 Z-1.7000
G01 Z0
G00 Z1.5000
G00 X39.0000 Y27.5000
G01 Z-1.7000
G01 Z0
G00 Z1.5000
G00 X14.0000 Y27.5000
G01 Z-1.7000
G01 Z0
G00 Z1.5000
G00 X12.0000 Y27.5000
G01 Z-1.7000
G01 Z0
G00 Z1.5000
M05
G00 Z0.50


