(G-CODE GENERATED BY FLATCAM v8.994 - www.flatcam.org - Version Date: 2020/11/7)

(Name: HIT2024-Edge_Cuts.gbr_edit_panelized_7_cutout_cnc)
(Type: G-code from Geometry)
(Units: MM)

(Created on Saturday, 01 June 2024 at 11:29)

(This preprocessor is the default preprocessor used by FlatCAM.)
(It is made to work with MACH3 compatible motion controllers.)

(TOOL DIAMETER: 1.0 mm)
(Feedrate_XY: 120.0 mm/min)
(Feedrate_Z: 60.0 mm/min)
(Feedrate rapids 1500.0 mm/min)

(Z_Cut: -1.8 mm)
(DepthPerCut: 0.5 mm <=>4 passes)
(Z_Move: 1.0 mm)
(Z Start: None mm)
(Z End: 15.0 mm)
(X,Y End: None mm)
(Steps per circle: 64)
(Preprocessor Geometry: default)

(X range:   -0.6250 ...  190.1252  mm)
(Y range:   -0.6250 ...   61.6250  mm)

(Spindle Speed: 0.0 RPM)
G21
G90
G94

G01 F120.00

M5
G00 Z15.0000
G00 X0.0000 Y0.0000
T1
M6    
(MSG, Change to Tool Dia = 1.0000)
M0
G00 Z15.0000

M03
G01 F120.00
G00 X-0.6248 Y1.9847
G01 F60.00
G01 Z-0.5000
G01 F120.00
G01 X-0.6250 Y59.0000
G01 X-0.6243 Y59.0307
G01 X-0.6146 Y59.2267
G01 X-0.6122 Y59.2585
G01 X-0.6086 Y59.2877
G01 X-0.5798 Y59.4819
G01 X-0.5743 Y59.5133
G01 X-0.5679 Y59.5420
G01 X-0.5202 Y59.7324
G01 X-0.5116 Y59.7632
G01 X-0.5024 Y59.7911
G01 X-0.4362 Y59.9759
G01 X-0.4256 Y60.0034
G01 X-0.4189 Y60.0192
G01 X-0.3288 Y60.2100
G01 X-0.3156 Y60.2363
G01 X-0.2999 Y60.2641
G01 X-0.1990 Y60.4325
G01 X-0.1819 Y60.4594
G01 X-0.1650 Y60.4835
G01 X-0.0480 Y60.6411
G01 X-0.0299 Y60.6643
G01 X-0.0091 Y60.6885
G01 X0.1227 Y60.8339
G01 X0.1430 Y60.8553
G01 X0.1661 Y60.8773
G01 X0.3115 Y61.0091
G01 X0.3357 Y61.0299
G01 X0.3589 Y61.0480
G01 X0.5165 Y61.1650
G01 X0.5406 Y61.1819
G01 X0.5675 Y61.1990
G01 X0.7359 Y61.2999
G01 X0.7637 Y61.3156
G01 X0.7900 Y61.3288
G01 X0.9674 Y61.4128
G01 X0.9966 Y61.4256
G01 X1.0241 Y61.4362
G01 X1.2089 Y61.5024
G01 X1.2368 Y61.5116
G01 X1.2676 Y61.5202
G01 X1.4580 Y61.5679
G01 X1.4891 Y61.5748
G01 X1.5181 Y61.5798
G01 X1.7123 Y61.6086
G01 X1.7439 Y61.6125
G01 X1.7733 Y61.6146
G01 X1.9693 Y61.6243
G01 X2.0000 Y61.6250
G01 X10.5000 Y61.6250
G01 X10.5319 Y61.6242
G01 X10.5613 Y61.6220
G01 X10.5929 Y61.6180
G01 X10.6219 Y61.6130
G01 X10.6507 Y61.6066
G01 X10.6814 Y61.5981
G01 X10.7094 Y61.5889
G01 X10.7392 Y61.5774
G01 X10.7683 Y61.5645
G01 X10.7946 Y61.5512
G01 X10.8203 Y61.5367
G01 X10.8472 Y61.5197
G01 X10.8733 Y61.5013
G01 X10.8965 Y61.4831
G01 X10.9188 Y61.4639
G01 X10.9420 Y61.4419
G01 X10.9639 Y61.4188
G01 X10.9831 Y61.3965
G01 X11.0013 Y61.3733
G01 X11.0197 Y61.3472
G01 X11.0367 Y61.3203
G01 X11.0512 Y61.2946
G01 X11.0645 Y61.2683
G01 X11.0774 Y61.2392
G01 X11.0880 Y61.2117
G01 X11.0981 Y61.1814
G01 X11.1066 Y61.1507
G01 X11.1130 Y61.1219
G01 X11.1180 Y61.0929
G01 X11.1220 Y61.0613
G01 X11.1243 Y61.0294
G01 X11.1250 Y61.0000
G01 X11.1248 Y53.9853
G01 X11.1242 Y53.9681
G01 X11.1220 Y53.9387
G01 X11.1180 Y53.9071
G01 X11.1130 Y53.8781
G01 X11.1060 Y53.8470
G01 X11.0981 Y53.8186
G01 X11.0880 Y53.7883
G01 X11.0774 Y53.7608
G01 X11.0645 Y53.7317
G01 X11.0512 Y53.7054
G01 X11.0367 Y53.6797
G01 X11.0197 Y53.6528
G01 X11.0027 Y53.6287
G01 X10.9831 Y53.6035
G01 X10.9639 Y53.5812
G01 X10.9420 Y53.5581
G01 X10.9188 Y53.5361
G01 X10.8965 Y53.5169
G01 X10.8713 Y53.4973
G01 X10.8472 Y53.4803
G01 X10.8224 Y53.4646
G01 X10.7946 Y53.4488
G01 X10.7661 Y53.4345
G01 X10.7392 Y53.4226
G01 X10.7094 Y53.4111
G01 X10.6814 Y53.4019
G01 X10.6530 Y53.3940
G01 X10.6250 Y53.3877
G01 X10.6250 Y52.6250
G01 X14.8750 Y52.6250
G01 X14.8752 Y61.0147
G01 X14.8758 Y61.0319
G01 X14.8780 Y61.0613
G01 X14.8816 Y61.0905
G01 X14.8870 Y61.1219
G01 X14.8934 Y61.1507
G01 X14.9019 Y61.1814
G01 X14.9111 Y61.2094
G01 X14.9226 Y61.2392
G01 X14.9345 Y61.2661
G01 X14.9488 Y61.2946
G01 X14.9633 Y61.3203
G01 X14.9803 Y61.3472
G01 X14.9987 Y61.3733
G01 X15.0169 Y61.3965
G01 X15.0377 Y61.4206
G01 X15.0580 Y61.4419
G01 X15.0812 Y61.4639
G01 X15.1035 Y61.4831
G01 X15.1287 Y61.5027
G01 X15.1528 Y61.5197
G01 X15.1776 Y61.5354
G01 X15.2054 Y61.5512
G01 X15.2339 Y61.5655
G01 X15.2608 Y61.5774
G01 X15.2906 Y61.5889
G01 X15.3186 Y61.5981
G01 X15.3470 Y61.6060
G01 X15.3781 Y61.6130
G01 X15.4071 Y61.6180
G01 X15.4387 Y61.6220
G01 X15.4681 Y61.6242
G01 X15.4853 Y61.6248
G01 X24.0000 Y61.6250
G01 X24.0307 Y61.6243
G01 X24.2267 Y61.6146
G01 X24.2585 Y61.6122
G01 X24.2877 Y61.6086
G01 X24.4819 Y61.5798
G01 X24.5133 Y61.5743
G01 X24.5420 Y61.5679
G01 X24.7324 Y61.5202
G01 X24.7632 Y61.5116
G01 X24.7911 Y61.5024
G01 X24.9759 Y61.4362
G01 X25.0034 Y61.4256
G01 X25.0192 Y61.4189
G01 X25.2100 Y61.3288
G01 X25.2363 Y61.3156
G01 X25.2641 Y61.2999
G01 X25.4325 Y61.1990
G01 X25.4594 Y61.1819
G01 X25.4835 Y61.1650
G01 X25.6411 Y61.0480
G01 X25.6662 Y61.0284
G01 X25.6885 Y61.0091
G01 X25.8339 Y60.8773
G01 X25.8553 Y60.8570
G01 X25.8773 Y60.8339
G01 X26.0091 Y60.6885
G01 X26.0299 Y60.6643
G01 X26.0480 Y60.6411
G01 X26.1650 Y60.4835
G01 X26.1833 Y60.4573
G01 X26.1990 Y60.4325
G01 X26.2999 Y60.2641
G01 X26.3156 Y60.2363
G01 X26.3288 Y60.2100
G01 X26.4128 Y60.0326
G01 X26.4256 Y60.0034
G01 X26.4362 Y59.9759
G01 X26.5024 Y59.7911
G01 X26.5116 Y59.7632
G01 X26.5202 Y59.7324
G01 X26.5679 Y59.5420
G01 X26.5748 Y59.5109
G01 X26.5798 Y59.4819
G01 X26.6086 Y59.2877
G01 X26.6125 Y59.2561
G01 X26.6146 Y59.2267
G01 X26.6248 Y59.0147
G01 X26.6250 Y2.0000
G01 X26.6243 Y1.9693
G01 X26.6146 Y1.7733
G01 X26.6122 Y1.7415
G01 X26.6086 Y1.7123
G01 X26.5798 Y1.5181
G01 X26.5743 Y1.4867
G01 X26.5679 Y1.4580
G01 X26.5202 Y1.2676
G01 X26.5116 Y1.2368
G01 X26.5024 Y1.2089
G01 X26.4362 Y1.0241
G01 X26.4256 Y0.9966
G01 X26.4189 Y0.9808
G01 X26.3288 Y0.7900
G01 X26.3156 Y0.7637
G01 X26.2999 Y0.7359
G01 X26.1990 Y0.5675
G01 X26.1833 Y0.5427
G01 X26.1650 Y0.5165
G01 X26.0480 Y0.3589
G01 X26.0299 Y0.3357
G01 X26.0091 Y0.3115
G01 X25.8773 Y0.1661
G01 X25.8570 Y0.1447
G01 X25.8339 Y0.1227
G01 X25.6885 Y-0.0091
G01 X25.6662 Y-0.0284
G01 X25.6411 Y-0.0480
G01 X25.4835 Y-0.1650
G01 X25.4573 Y-0.1833
G01 X25.4325 Y-0.1990
G01 X25.2641 Y-0.2999
G01 X25.2363 Y-0.3156
G01 X25.2100 Y-0.3288
G01 X25.0326 Y-0.4128
G01 X25.0034 Y-0.4256
G01 X24.9759 Y-0.4362
G01 X24.7911 Y-0.5024
G01 X24.7632 Y-0.5116
G01 X24.7324 Y-0.5202
G01 X24.5420 Y-0.5679
G01 X24.5133 Y-0.5743
G01 X24.4819 Y-0.5798
G01 X24.2877 Y-0.6086
G01 X24.2585 Y-0.6122
G01 X24.2414 Y-0.6137
G01 X24.0307 Y-0.6243
G01 X24.0000 Y-0.6250
G01 X2.0000 Y-0.6250
G01 X1.9693 Y-0.6243
G01 X1.7733 Y-0.6146
G01 X1.7415 Y-0.6122
G01 X1.7123 Y-0.6086
G01 X1.5181 Y-0.5798
G01 X1.4867 Y-0.5743
G01 X1.4580 Y-0.5679
G01 X1.2676 Y-0.5202
G01 X1.2368 Y-0.5116
G01 X1.2089 Y-0.5024
G01 X1.0241 Y-0.4362
G01 X0.9943 Y-0.4247
G01 X0.9674 Y-0.4128
G01 X0.7900 Y-0.3288
G01 X0.7615 Y-0.3144
G01 X0.7359 Y-0.2999
G01 X0.5675 Y-0.1990
G01 X0.5406 Y-0.1819
G01 X0.5165 Y-0.1650
G01 X0.3589 Y-0.0480
G01 X0.3338 Y-0.0284
G01 X0.3115 Y-0.0091
G01 X0.1661 Y0.1227
G01 X0.1430 Y0.1447
G01 X0.1227 Y0.1661
G01 X-0.0091 Y0.3115
G01 X-0.0284 Y0.3338
G01 X-0.0480 Y0.3589
G01 X-0.1650 Y0.5165
G01 X-0.1819 Y0.5406
G01 X-0.1990 Y0.5675
G01 X-0.2999 Y0.7359
G01 X-0.3144 Y0.7615
G01 X-0.3288 Y0.7900
G01 X-0.4128 Y0.9674
G01 X-0.4247 Y0.9943
G01 X-0.4362 Y1.0241
G01 X-0.5024 Y1.2089
G01 X-0.5116 Y1.2368
G01 X-0.5202 Y1.2676
G01 X-0.5679 Y1.4580
G01 X-0.5743 Y1.4867
G01 X-0.5798 Y1.5181
G01 X-0.6086 Y1.7123
G01 X-0.6122 Y1.7415
G01 X-0.6146 Y1.7733
G01 X-0.6248 Y1.9847
G00 X-0.6248 Y1.9847
G01 F60.00
G01 Z-1.0000
G01 F120.00
G01 X-0.6146 Y1.7733
G01 X-0.6122 Y1.7415
G01 X-0.6086 Y1.7123
G01 X-0.5798 Y1.5181
G01 X-0.5743 Y1.4867
G01 X-0.5679 Y1.4580
G01 X-0.5202 Y1.2676
G01 X-0.5116 Y1.2368
G01 X-0.5024 Y1.2089
G01 X-0.4362 Y1.0241
G01 X-0.4247 Y0.9943
G01 X-0.4128 Y0.9674
G01 X-0.3288 Y0.7900
G01 X-0.3144 Y0.7615
G01 X-0.2999 Y0.7359
G01 X-0.1990 Y0.5675
G01 X-0.1819 Y0.5406
G01 X-0.1650 Y0.5165
G01 X-0.0480 Y0.3589
G01 X-0.0284 Y0.3338
G01 X-0.0091 Y0.3115
G01 X0.1227 Y0.1661
G01 X0.1430 Y0.1447
G01 X0.1661 Y0.1227
G01 X0.3115 Y-0.0091
G01 X0.3338 Y-0.0284
G01 X0.3589 Y-0.0480
G01 X0.5165 Y-0.1650
G01 X0.5406 Y-0.1819
G01 X0.5675 Y-0.1990
G01 X0.7359 Y-0.2999
G01 X0.7615 Y-0.3144
G01 X0.7900 Y-0.3288
G01 X0.9674 Y-0.4128
G01 X0.9943 Y-0.4247
G01 X1.0241 Y-0.4362
G01 X1.2089 Y-0.5024
G01 X1.2368 Y-0.5116
G01 X1.2676 Y-0.5202
G01 X1.4580 Y-0.5679
G01 X1.4867 Y-0.5743
G01 X1.5181 Y-0.5798
G01 X1.7123 Y-0.6086
G01 X1.7415 Y-0.6122
G01 X1.7733 Y-0.6146
G01 X1.9693 Y-0.6243
G01 X2.0000 Y-0.6250
G01 X24.0000 Y-0.6250
G01 X24.0307 Y-0.6243
G01 X24.2414 Y-0.6137
G01 X24.2585 Y-0.6122
G01 X24.2877 Y-0.6086
G01 X24.4819 Y-0.5798
G01 X24.5133 Y-0.5743
G01 X24.5420 Y-0.5679
G01 X24.7324 Y-0.5202
G01 X24.7632 Y-0.5116
G01 X24.7911 Y-0.5024
G01 X24.9759 Y-0.4362
G01 X25.0034 Y-0.4256
G01 X25.0326 Y-0.4128
G01 X25.2100 Y-0.3288
G01 X25.2363 Y-0.3156
G01 X25.2641 Y-0.2999
G01 X25.4325 Y-0.1990
G01 X25.4573 Y-0.1833
G01 X25.4835 Y-0.1650
G01 X25.6411 Y-0.0480
G01 X25.6662 Y-0.0284
G01 X25.6885 Y-0.0091
G01 X25.8339 Y0.1227
G01 X25.8570 Y0.1447
G01 X25.8773 Y0.1661
G01 X26.0091 Y0.3115
G01 X26.0299 Y0.3357
G01 X26.0480 Y0.3589
G01 X26.1650 Y0.5165
G01 X26.1833 Y0.5427
G01 X26.1990 Y0.5675
G01 X26.2999 Y0.7359
G01 X26.3156 Y0.7637
G01 X26.3288 Y0.7900
G01 X26.4189 Y0.9808
G01 X26.4256 Y0.9966
G01 X26.4362 Y1.0241
G01 X26.5024 Y1.2089
G01 X26.5116 Y1.2368
G01 X26.5202 Y1.2676
G01 X26.5679 Y1.4580
G01 X26.5743 Y1.4867
G01 X26.5798 Y1.5181
G01 X26.6086 Y1.7123
G01 X26.6122 Y1.7415
G01 X26.6146 Y1.7733
G01 X26.6243 Y1.9693
G01 X26.6250 Y2.0000
G01 X26.6248 Y59.0147
G01 X26.6146 Y59.2267
G01 X26.6125 Y59.2561
G01 X26.6086 Y59.2877
G01 X26.5798 Y59.4819
G01 X26.5748 Y59.5109
G01 X26.5679 Y59.5420
G01 X26.5202 Y59.7324
G01 X26.5116 Y59.7632
G01 X26.5024 Y59.7911
G01 X26.4362 Y59.9759
G01 X26.4256 Y60.0034
G01 X26.4128 Y60.0326
G01 X26.3288 Y60.2100
G01 X26.3156 Y60.2363
G01 X26.2999 Y60.2641
G01 X26.1990 Y60.4325
G01 X26.1833 Y60.4573
G01 X26.1650 Y60.4835
G01 X26.0480 Y60.6411
G01 X26.0299 Y60.6643
G01 X26.0091 Y60.6885
G01 X25.8773 Y60.8339
G01 X25.8553 Y60.8570
G01 X25.8339 Y60.8773
G01 X25.6885 Y61.0091
G01 X25.6662 Y61.0284
G01 X25.6411 Y61.0480
G01 X25.4835 Y61.1650
G01 X25.4594 Y61.1819
G01 X25.4325 Y61.1990
G01 X25.2641 Y61.2999
G01 X25.2363 Y61.3156
G01 X25.2100 Y61.3288
G01 X25.0192 Y61.4189
G01 X25.0034 Y61.4256
G01 X24.9759 Y61.4362
G01 X24.7911 Y61.5024
G01 X24.7632 Y61.5116
G01 X24.7324 Y61.5202
G01 X24.5420 Y61.5679
G01 X24.5133 Y61.5743
G01 X24.4819 Y61.5798
G01 X24.2877 Y61.6086
G01 X24.2585 Y61.6122
G01 X24.2267 Y61.6146
G01 X24.0307 Y61.6243
G01 X24.0000 Y61.6250
G01 X15.4853 Y61.6248
G01 X15.4681 Y61.6242
G01 X15.4387 Y61.6220
G01 X15.4071 Y61.6180
G01 X15.3781 Y61.6130
G01 X15.3470 Y61.6060
G01 X15.3186 Y61.5981
G01 X15.2906 Y61.5889
G01 X15.2608 Y61.5774
G01 X15.2339 Y61.5655
G01 X15.2054 Y61.5512
G01 X15.1776 Y61.5354
G01 X15.1528 Y61.5197
G01 X15.1287 Y61.5027
G01 X15.1035 Y61.4831
G01 X15.0812 Y61.4639
G01 X15.0580 Y61.4419
G01 X15.0377 Y61.4206
G01 X15.0169 Y61.3965
G01 X14.9987 Y61.3733
G01 X14.9803 Y61.3472
G01 X14.9633 Y61.3203
G01 X14.9488 Y61.2946
G01 X14.9345 Y61.2661
G01 X14.9226 Y61.2392
G01 X14.9111 Y61.2094
G01 X14.9019 Y61.1814
G01 X14.8934 Y61.1507
G01 X14.8870 Y61.1219
G01 X14.8816 Y61.0905
G01 X14.8780 Y61.0613
G01 X14.8758 Y61.0319
G01 X14.8752 Y61.0147
G01 X14.8750 Y52.6250
G01 X10.6250 Y52.6250
G01 X10.6250 Y53.3877
G01 X10.6530 Y53.3940
G01 X10.6814 Y53.4019
G01 X10.7094 Y53.4111
G01 X10.7392 Y53.4226
G01 X10.7661 Y53.4345
G01 X10.7946 Y53.4488
G01 X10.8224 Y53.4646
G01 X10.8472 Y53.4803
G01 X10.8713 Y53.4973
G01 X10.8965 Y53.5169
G01 X10.9188 Y53.5361
G01 X10.9420 Y53.5581
G01 X10.9639 Y53.5812
G01 X10.9831 Y53.6035
G01 X11.0027 Y53.6287
G01 X11.0197 Y53.6528
G01 X11.0367 Y53.6797
G01 X11.0512 Y53.7054
G01 X11.0645 Y53.7317
G01 X11.0774 Y53.7608
G01 X11.0880 Y53.7883
G01 X11.0981 Y53.8186
G01 X11.1060 Y53.8470
G01 X11.1130 Y53.8781
G01 X11.1180 Y53.9071
G01 X11.1220 Y53.9387
G01 X11.1242 Y53.9681
G01 X11.1248 Y53.9853
G01 X11.1250 Y61.0000
G01 X11.1243 Y61.0294
G01 X11.1220 Y61.0613
G01 X11.1180 Y61.0929
G01 X11.1130 Y61.1219
G01 X11.1066 Y61.1507
G01 X11.0981 Y61.1814
G01 X11.0880 Y61.2117
G01 X11.0774 Y61.2392
G01 X11.0645 Y61.2683
G01 X11.0512 Y61.2946
G01 X11.0367 Y61.3203
G01 X11.0197 Y61.3472
G01 X11.0013 Y61.3733
G01 X10.9831 Y61.3965
G01 X10.9639 Y61.4188
G01 X10.9420 Y61.4419
G01 X10.9188 Y61.4639
G01 X10.8965 Y61.4831
G01 X10.8733 Y61.5013
G01 X10.8472 Y61.5197
G01 X10.8203 Y61.5367
G01 X10.7946 Y61.5512
G01 X10.7683 Y61.5645
G01 X10.7392 Y61.5774
G01 X10.7094 Y61.5889
G01 X10.6814 Y61.5981
G01 X10.6507 Y61.6066
G01 X10.6219 Y61.6130
G01 X10.5929 Y61.6180
G01 X10.5613 Y61.6220
G01 X10.5319 Y61.6242
G01 X10.5000 Y61.6250
G01 X2.0000 Y61.6250
G01 X1.9693 Y61.6243
G01 X1.7733 Y61.6146
G01 X1.7439 Y61.6125
G01 X1.7123 Y61.6086
G01 X1.5181 Y61.5798
G01 X1.4891 Y61.5748
G01 X1.4580 Y61.5679
G01 X1.2676 Y61.5202
G01 X1.2368 Y61.5116
G01 X1.2089 Y61.5024
G01 X1.0241 Y61.4362
G01 X0.9966 Y61.4256
G01 X0.9674 Y61.4128
G01 X0.7900 Y61.3288
G01 X0.7637 Y61.3156
G01 X0.7359 Y61.2999
G01 X0.5675 Y61.1990
G01 X0.5406 Y61.1819
G01 X0.5165 Y61.1650
G01 X0.3589 Y61.0480
G01 X0.3357 Y61.0299
G01 X0.3115 Y61.0091
G01 X0.1661 Y60.8773
G01 X0.1430 Y60.8553
G01 X0.1227 Y60.8339
G01 X-0.0091 Y60.6885
G01 X-0.0299 Y60.6643
G01 X-0.0480 Y60.6411
G01 X-0.1650 Y60.4835
G01 X-0.1819 Y60.4594
G01 X-0.1990 Y60.4325
G01 X-0.2999 Y60.2641
G01 X-0.3156 Y60.2363
G01 X-0.3288 Y60.2100
G01 X-0.4189 Y60.0192
G01 X-0.4256 Y60.0034
G01 X-0.4362 Y59.9759
G01 X-0.5024 Y59.7911
G01 X-0.5116 Y59.7632
G01 X-0.5202 Y59.7324
G01 X-0.5679 Y59.5420
G01 X-0.5743 Y59.5133
G01 X-0.5798 Y59.4819
G01 X-0.6086 Y59.2877
G01 X-0.6122 Y59.2585
G01 X-0.6146 Y59.2267
G01 X-0.6243 Y59.0307
G01 X-0.6250 Y59.0000
G01 X-0.6248 Y1.9847
G00 X-0.6248 Y1.9847
G01 F60.00
G01 Z-1.5000
G01 F120.00
G01 X-0.6250 Y59.0000
G01 X-0.6243 Y59.0307
G01 X-0.6146 Y59.2267
G01 X-0.6122 Y59.2585
G01 X-0.6086 Y59.2877
G01 X-0.5798 Y59.4819
G01 X-0.5743 Y59.5133
G01 X-0.5679 Y59.5420
G01 X-0.5202 Y59.7324
G01 X-0.5116 Y59.7632
G01 X-0.5024 Y59.7911
G01 X-0.4362 Y59.9759
G01 X-0.4256 Y60.0034
G01 X-0.4189 Y60.0192
G01 X-0.3288 Y60.2100
G01 X-0.3156 Y60.2363
G01 X-0.2999 Y60.2641
G01 X-0.1990 Y60.4325
G01 X-0.1819 Y60.4594
G01 X-0.1650 Y60.4835
G01 X-0.0480 Y60.6411
G01 X-0.0299 Y60.6643
G01 X-0.0091 Y60.6885
G01 X0.1227 Y60.8339
G01 X0.1430 Y60.8553
G01 X0.1661 Y60.8773
G01 X0.3115 Y61.0091
G01 X0.3357 Y61.0299
G01 X0.3589 Y61.0480
G01 X0.5165 Y61.1650
G01 X0.5406 Y61.1819
G01 X0.5675 Y61.1990
G01 X0.7359 Y61.2999
G01 X0.7637 Y61.3156
G01 X0.7900 Y61.3288
G01 X0.9674 Y61.4128
G01 X0.9966 Y61.4256
G01 X1.0241 Y61.4362
G01 X1.2089 Y61.5024
G01 X1.2368 Y61.5116
G01 X1.2676 Y61.5202
G01 X1.4580 Y61.5679
G01 X1.4891 Y61.5748
G01 X1.5181 Y61.5798
G01 X1.7123 Y61.6086
G01 X1.7439 Y61.6125
G01 X1.7733 Y61.6146
G01 X1.9693 Y61.6243
G01 X2.0000 Y61.6250
G01 X10.5000 Y61.6250
G01 X10.5319 Y61.6242
G01 X10.5613 Y61.6220
G01 X10.5929 Y61.6180
G01 X10.6219 Y61.6130
G01 X10.6507 Y61.6066
G01 X10.6814 Y61.5981
G01 X10.7094 Y61.5889
G01 X10.7392 Y61.5774
G01 X10.7683 Y61.5645
G01 X10.7946 Y61.5512
G01 X10.8203 Y61.5367
G01 X10.8472 Y61.5197
G01 X10.8733 Y61.5013
G01 X10.8965 Y61.4831
G01 X10.9188 Y61.4639
G01 X10.9420 Y61.4419
G01 X10.9639 Y61.4188
G01 X10.9831 Y61.3965
G01 X11.0013 Y61.3733
G01 X11.0197 Y61.3472
G01 X11.0367 Y61.3203
G01 X11.0512 Y61.2946
G01 X11.0645 Y61.2683
G01 X11.0774 Y61.2392
G01 X11.0880 Y61.2117
G01 X11.0981 Y61.1814
G01 X11.1066 Y61.1507
G01 X11.1130 Y61.1219
G01 X11.1180 Y61.0929
G01 X11.1220 Y61.0613
G01 X11.1243 Y61.0294
G01 X11.1250 Y61.0000
G01 X11.1248 Y53.9853
G01 X11.1242 Y53.9681
G01 X11.1220 Y53.9387
G01 X11.1180 Y53.9071
G01 X11.1130 Y53.8781
G01 X11.1060 Y53.8470
G01 X11.0981 Y53.8186
G01 X11.0880 Y53.7883
G01 X11.0774 Y53.7608
G01 X11.0645 Y53.7317
G01 X11.0512 Y53.7054
G01 X11.0367 Y53.6797
G01 X11.0197 Y53.6528
G01 X11.0027 Y53.6287
G01 X10.9831 Y53.6035
G01 X10.9639 Y53.5812
G01 X10.9420 Y53.5581
G01 X10.9188 Y53.5361
G01 X10.8965 Y53.5169
G01 X10.8713 Y53.4973
G01 X10.8472 Y53.4803
G01 X10.8224 Y53.4646
G01 X10.7946 Y53.4488
G01 X10.7661 Y53.4345
G01 X10.7392 Y53.4226
G01 X10.7094 Y53.4111
G01 X10.6814 Y53.4019
G01 X10.6530 Y53.3940
G01 X10.6250 Y53.3877
G01 X10.6250 Y52.6250
G01 X14.8750 Y52.6250
G01 X14.8752 Y61.0147
G01 X14.8758 Y61.0319
G01 X14.8780 Y61.0613
G01 X14.8816 Y61.0905
G01 X14.8870 Y61.1219
G01 X14.8934 Y61.1507
G01 X14.9019 Y61.1814
G01 X14.9111 Y61.2094
G01 X14.9226 Y61.2392
G01 X14.9345 Y61.2661
G01 X14.9488 Y61.2946
G01 X14.9633 Y61.3203
G01 X14.9803 Y61.3472
G01 X14.9987 Y61.3733
G01 X15.0169 Y61.3965
G01 X15.0377 Y61.4206
G01 X15.0580 Y61.4419
G01 X15.0812 Y61.4639
G01 X15.1035 Y61.4831
G01 X15.1287 Y61.5027
G01 X15.1528 Y61.5197
G01 X15.1776 Y61.5354
G01 X15.2054 Y61.5512
G01 X15.2339 Y61.5655
G01 X15.2608 Y61.5774
G01 X15.2906 Y61.5889
G01 X15.3186 Y61.5981
G01 X15.3470 Y61.6060
G01 X15.3781 Y61.6130
G01 X15.4071 Y61.6180
G01 X15.4387 Y61.6220
G01 X15.4681 Y61.6242
G01 X15.4853 Y61.6248
G01 X24.0000 Y61.6250
G01 X24.0307 Y61.6243
G01 X24.2267 Y61.6146
G01 X24.2585 Y61.6122
G01 X24.2877 Y61.6086
G01 X24.4819 Y61.5798
G01 X24.5133 Y61.5743
G01 X24.5420 Y61.5679
G01 X24.7324 Y61.5202
G01 X24.7632 Y61.5116
G01 X24.7911 Y61.5024
G01 X24.9759 Y61.4362
G01 X25.0034 Y61.4256
G01 X25.0192 Y61.4189
G01 X25.2100 Y61.3288
G01 X25.2363 Y61.3156
G01 X25.2641 Y61.2999
G01 X25.4325 Y61.1990
G01 X25.4594 Y61.1819
G01 X25.4835 Y61.1650
G01 X25.6411 Y61.0480
G01 X25.6662 Y61.0284
G01 X25.6885 Y61.0091
G01 X25.8339 Y60.8773
G01 X25.8553 Y60.8570
G01 X25.8773 Y60.8339
G01 X26.0091 Y60.6885
G01 X26.0299 Y60.6643
G01 X26.0480 Y60.6411
G01 X26.1650 Y60.4835
G01 X26.1833 Y60.4573
G01 X26.1990 Y60.4325
G01 X26.2999 Y60.2641
G01 X26.3156 Y60.2363
G01 X26.3288 Y60.2100
G01 X26.4128 Y60.0326
G01 X26.4256 Y60.0034
G01 X26.4362 Y59.9759
G01 X26.5024 Y59.7911
G01 X26.5116 Y59.7632
G01 X26.5202 Y59.7324
G01 X26.5679 Y59.5420
G01 X26.5748 Y59.5109
G01 X26.5798 Y59.4819
G01 X26.6086 Y59.2877
G01 X26.6125 Y59.2561
G01 X26.6146 Y59.2267
G01 X26.6248 Y59.0147
G01 X26.6250 Y2.0000
G01 X26.6243 Y1.9693
G01 X26.6146 Y1.7733
G01 X26.6122 Y1.7415
G01 X26.6086 Y1.7123
G01 X26.5798 Y1.5181
G01 X26.5743 Y1.4867
G01 X26.5679 Y1.4580
G01 X26.5202 Y1.2676
G01 X26.5116 Y1.2368
G01 X26.5024 Y1.2089
G01 X26.4362 Y1.0241
G01 X26.4256 Y0.9966
G01 X26.4189 Y0.9808
G01 X26.3288 Y0.7900
G01 X26.3156 Y0.7637
G01 X26.2999 Y0.7359
G01 X26.1990 Y0.5675
G01 X26.1833 Y0.5427
G01 X26.1650 Y0.5165
G01 X26.0480 Y0.3589
G01 X26.0299 Y0.3357
G01 X26.0091 Y0.3115
G01 X25.8773 Y0.1661
G01 X25.8570 Y0.1447
G01 X25.8339 Y0.1227
G01 X25.6885 Y-0.0091
G01 X25.6662 Y-0.0284
G01 X25.6411 Y-0.0480
G01 X25.4835 Y-0.1650
G01 X25.4573 Y-0.1833
G01 X25.4325 Y-0.1990
G01 X25.2641 Y-0.2999
G01 X25.2363 Y-0.3156
G01 X25.2100 Y-0.3288
G01 X25.0326 Y-0.4128
G01 X25.0034 Y-0.4256
G01 X24.9759 Y-0.4362
G01 X24.7911 Y-0.5024
G01 X24.7632 Y-0.5116
G01 X24.7324 Y-0.5202
G01 X24.5420 Y-0.5679
G01 X24.5133 Y-0.5743
G01 X24.4819 Y-0.5798
G01 X24.2877 Y-0.6086
G01 X24.2585 Y-0.6122
G01 X24.2414 Y-0.6137
G01 X24.0307 Y-0.6243
G01 X24.0000 Y-0.6250
G01 X2.0000 Y-0.6250
G01 X1.9693 Y-0.6243
G01 X1.7733 Y-0.6146
G01 X1.7415 Y-0.6122
G01 X1.7123 Y-0.6086
G01 X1.5181 Y-0.5798
G01 X1.4867 Y-0.5743
G01 X1.4580 Y-0.5679
G01 X1.2676 Y-0.5202
G01 X1.2368 Y-0.5116
G01 X1.2089 Y-0.5024
G01 X1.0241 Y-0.4362
G01 X0.9943 Y-0.4247
G01 X0.9674 Y-0.4128
G01 X0.7900 Y-0.3288
G01 X0.7615 Y-0.3144
G01 X0.7359 Y-0.2999
G01 X0.5675 Y-0.1990
G01 X0.5406 Y-0.1819
G01 X0.5165 Y-0.1650
G01 X0.3589 Y-0.0480
G01 X0.3338 Y-0.0284
G01 X0.3115 Y-0.0091
G01 X0.1661 Y0.1227
G01 X0.1430 Y0.1447
G01 X0.1227 Y0.1661
G01 X-0.0091 Y0.3115
G01 X-0.0284 Y0.3338
G01 X-0.0480 Y0.3589
G01 X-0.1650 Y0.5165
G01 X-0.1819 Y0.5406
G01 X-0.1990 Y0.5675
G01 X-0.2999 Y0.7359
G01 X-0.3144 Y0.7615
G01 X-0.3288 Y0.7900
G01 X-0.4128 Y0.9674
G01 X-0.4247 Y0.9943
G01 X-0.4362 Y1.0241
G01 X-0.5024 Y1.2089
G01 X-0.5116 Y1.2368
G01 X-0.5202 Y1.2676
G01 X-0.5679 Y1.4580
G01 X-0.5743 Y1.4867
G01 X-0.5798 Y1.5181
G01 X-0.6086 Y1.7123
G01 X-0.6122 Y1.7415
G01 X-0.6146 Y1.7733
G01 X-0.6248 Y1.9847
G00 X-0.6248 Y1.9847
G01 F60.00
G01 Z-1.8000
G01 F120.00
G01 X-0.6146 Y1.7733
G01 X-0.6122 Y1.7415
G01 X-0.6086 Y1.7123
G01 X-0.5798 Y1.5181
G01 X-0.5743 Y1.4867
G01 X-0.5679 Y1.4580
G01 X-0.5202 Y1.2676
G01 X-0.5116 Y1.2368
G01 X-0.5024 Y1.2089
G01 X-0.4362 Y1.0241
G01 X-0.4247 Y0.9943
G01 X-0.4128 Y0.9674
G01 X-0.3288 Y0.7900
G01 X-0.3144 Y0.7615
G01 X-0.2999 Y0.7359
G01 X-0.1990 Y0.5675
G01 X-0.1819 Y0.5406
G01 X-0.1650 Y0.5165
G01 X-0.0480 Y0.3589
G01 X-0.0284 Y0.3338
G01 X-0.0091 Y0.3115
G01 X0.1227 Y0.1661
G01 X0.1430 Y0.1447
G01 X0.1661 Y0.1227
G01 X0.3115 Y-0.0091
G01 X0.3338 Y-0.0284
G01 X0.3589 Y-0.0480
G01 X0.5165 Y-0.1650
G01 X0.5406 Y-0.1819
G01 X0.5675 Y-0.1990
G01 X0.7359 Y-0.2999
G01 X0.7615 Y-0.3144
G01 X0.7900 Y-0.3288
G01 X0.9674 Y-0.4128
G01 X0.9943 Y-0.4247
G01 X1.0241 Y-0.4362
G01 X1.2089 Y-0.5024
G01 X1.2368 Y-0.5116
G01 X1.2676 Y-0.5202
G01 X1.4580 Y-0.5679
G01 X1.4867 Y-0.5743
G01 X1.5181 Y-0.5798
G01 X1.7123 Y-0.6086
G01 X1.7415 Y-0.6122
G01 X1.7733 Y-0.6146
G01 X1.9693 Y-0.6243
G01 X2.0000 Y-0.6250
G01 X24.0000 Y-0.6250
G01 X24.0307 Y-0.6243
G01 X24.2414 Y-0.6137
G01 X24.2585 Y-0.6122
G01 X24.2877 Y-0.6086
G01 X24.4819 Y-0.5798
G01 X24.5133 Y-0.5743
G01 X24.5420 Y-0.5679
G01 X24.7324 Y-0.5202
G01 X24.7632 Y-0.5116
G01 X24.7911 Y-0.5024
G01 X24.9759 Y-0.4362
G01 X25.0034 Y-0.4256
G01 X25.0326 Y-0.4128
G01 X25.2100 Y-0.3288
G01 X25.2363 Y-0.3156
G01 X25.2641 Y-0.2999
G01 X25.4325 Y-0.1990
G01 X25.4573 Y-0.1833
G01 X25.4835 Y-0.1650
G01 X25.6411 Y-0.0480
G01 X25.6662 Y-0.0284
G01 X25.6885 Y-0.0091
G01 X25.8339 Y0.1227
G01 X25.8570 Y0.1447
G01 X25.8773 Y0.1661
G01 X26.0091 Y0.3115
G01 X26.0299 Y0.3357
G01 X26.0480 Y0.3589
G01 X26.1650 Y0.5165
G01 X26.1833 Y0.5427
G01 X26.1990 Y0.5675
G01 X26.2999 Y0.7359
G01 X26.3156 Y0.7637
G01 X26.3288 Y0.7900
G01 X26.4189 Y0.9808
G01 X26.4256 Y0.9966
G01 X26.4362 Y1.0241
G01 X26.5024 Y1.2089
G01 X26.5116 Y1.2368
G01 X26.5202 Y1.2676
G01 X26.5679 Y1.4580
G01 X26.5743 Y1.4867
G01 X26.5798 Y1.5181
G01 X26.6086 Y1.7123
G01 X26.6122 Y1.7415
G01 X26.6146 Y1.7733
G01 X26.6243 Y1.9693
G01 X26.6250 Y2.0000
G01 X26.6248 Y59.0147
G01 X26.6146 Y59.2267
G01 X26.6125 Y59.2561
G01 X26.6086 Y59.2877
G01 X26.5798 Y59.4819
G01 X26.5748 Y59.5109
G01 X26.5679 Y59.5420
G01 X26.5202 Y59.7324
G01 X26.5116 Y59.7632
G01 X26.5024 Y59.7911
G01 X26.4362 Y59.9759
G01 X26.4256 Y60.0034
G01 X26.4128 Y60.0326
G01 X26.3288 Y60.2100
G01 X26.3156 Y60.2363
G01 X26.2999 Y60.2641
G01 X26.1990 Y60.4325
G01 X26.1833 Y60.4573
G01 X26.1650 Y60.4835
G01 X26.0480 Y60.6411
G01 X26.0299 Y60.6643
G01 X26.0091 Y60.6885
G01 X25.8773 Y60.8339
G01 X25.8553 Y60.8570
G01 X25.8339 Y60.8773
G01 X25.6885 Y61.0091
G01 X25.6662 Y61.0284
G01 X25.6411 Y61.0480
G01 X25.4835 Y61.1650
G01 X25.4594 Y61.1819
G01 X25.4325 Y61.1990
G01 X25.2641 Y61.2999
G01 X25.2363 Y61.3156
G01 X25.2100 Y61.3288
G01 X25.0192 Y61.4189
G01 X25.0034 Y61.4256
G01 X24.9759 Y61.4362
G01 X24.7911 Y61.5024
G01 X24.7632 Y61.5116
G01 X24.7324 Y61.5202
G01 X24.5420 Y61.5679
G01 X24.5133 Y61.5743
G01 X24.4819 Y61.5798
G01 X24.2877 Y61.6086
G01 X24.2585 Y61.6122
G01 X24.2267 Y61.6146
G01 X24.0307 Y61.6243
G01 X24.0000 Y61.6250
G01 X15.4853 Y61.6248
G01 X15.4681 Y61.6242
G01 X15.4387 Y61.6220
G01 X15.4071 Y61.6180
G01 X15.3781 Y61.6130
G01 X15.3470 Y61.6060
G01 X15.3186 Y61.5981
G01 X15.2906 Y61.5889
G01 X15.2608 Y61.5774
G01 X15.2339 Y61.5655
G01 X15.2054 Y61.5512
G01 X15.1776 Y61.5354
G01 X15.1528 Y61.5197
G01 X15.1287 Y61.5027
G01 X15.1035 Y61.4831
G01 X15.0812 Y61.4639
G01 X15.0580 Y61.4419
G01 X15.0377 Y61.4206
G01 X15.0169 Y61.3965
G01 X14.9987 Y61.3733
G01 X14.9803 Y61.3472
G01 X14.9633 Y61.3203
G01 X14.9488 Y61.2946
G01 X14.9345 Y61.2661
G01 X14.9226 Y61.2392
G01 X14.9111 Y61.2094
G01 X14.9019 Y61.1814
G01 X14.8934 Y61.1507
G01 X14.8870 Y61.1219
G01 X14.8816 Y61.0905
G01 X14.8780 Y61.0613
G01 X14.8758 Y61.0319
G01 X14.8752 Y61.0147
G01 X14.8750 Y52.6250
G01 X10.6250 Y52.6250
G01 X10.6250 Y53.3877
G01 X10.6530 Y53.3940
G01 X10.6814 Y53.4019
G01 X10.7094 Y53.4111
G01 X10.7392 Y53.4226
G01 X10.7661 Y53.4345
G01 X10.7946 Y53.4488
G01 X10.8224 Y53.4646
G01 X10.8472 Y53.4803
G01 X10.8713 Y53.4973
G01 X10.8965 Y53.5169
G01 X10.9188 Y53.5361
G01 X10.9420 Y53.5581
G01 X10.9639 Y53.5812
G01 X10.9831 Y53.6035
G01 X11.0027 Y53.6287
G01 X11.0197 Y53.6528
G01 X11.0367 Y53.6797
G01 X11.0512 Y53.7054
G01 X11.0645 Y53.7317
G01 X11.0774 Y53.7608
G01 X11.0880 Y53.7883
G01 X11.0981 Y53.8186
G01 X11.1060 Y53.8470
G01 X11.1130 Y53.8781
G01 X11.1180 Y53.9071
G01 X11.1220 Y53.9387
G01 X11.1242 Y53.9681
G01 X11.1248 Y53.9853
G01 X11.1250 Y61.0000
G01 X11.1243 Y61.0294
G01 X11.1220 Y61.0613
G01 X11.1180 Y61.0929
G01 X11.1130 Y61.1219
G01 X11.1066 Y61.1507
G01 X11.0981 Y61.1814
G01 X11.0880 Y61.2117
G01 X11.0774 Y61.2392
G01 X11.0645 Y61.2683
G01 X11.0512 Y61.2946
G01 X11.0367 Y61.3203
G01 X11.0197 Y61.3472
G01 X11.0013 Y61.3733
G01 X10.9831 Y61.3965
G01 X10.9639 Y61.4188
G01 X10.9420 Y61.4419
G01 X10.9188 Y61.4639
G01 X10.8965 Y61.4831
G01 X10.8733 Y61.5013
G01 X10.8472 Y61.5197
G01 X10.8203 Y61.5367
G01 X10.7946 Y61.5512
G01 X10.7683 Y61.5645
G01 X10.7392 Y61.5774
G01 X10.7094 Y61.5889
G01 X10.6814 Y61.5981
G01 X10.6507 Y61.6066
G01 X10.6219 Y61.6130
G01 X10.5929 Y61.6180
G01 X10.5613 Y61.6220
G01 X10.5319 Y61.6242
G01 X10.5000 Y61.6250
G01 X2.0000 Y61.6250
G01 X1.9693 Y61.6243
G01 X1.7733 Y61.6146
G01 X1.7439 Y61.6125
G01 X1.7123 Y61.6086
G01 X1.5181 Y61.5798
G01 X1.4891 Y61.5748
G01 X1.4580 Y61.5679
G01 X1.2676 Y61.5202
G01 X1.2368 Y61.5116
G01 X1.2089 Y61.5024
G01 X1.0241 Y61.4362
G01 X0.9966 Y61.4256
G01 X0.9674 Y61.4128
G01 X0.7900 Y61.3288
G01 X0.7637 Y61.3156
G01 X0.7359 Y61.2999
G01 X0.5675 Y61.1990
G01 X0.5406 Y61.1819
G01 X0.5165 Y61.1650
G01 X0.3589 Y61.0480
G01 X0.3357 Y61.0299
G01 X0.3115 Y61.0091
G01 X0.1661 Y60.8773
G01 X0.1430 Y60.8553
G01 X0.1227 Y60.8339
G01 X-0.0091 Y60.6885
G01 X-0.0299 Y60.6643
G01 X-0.0480 Y60.6411
G01 X-0.1650 Y60.4835
G01 X-0.1819 Y60.4594
G01 X-0.1990 Y60.4325
G01 X-0.2999 Y60.2641
G01 X-0.3156 Y60.2363
G01 X-0.3288 Y60.2100
G01 X-0.4189 Y60.0192
G01 X-0.4256 Y60.0034
G01 X-0.4362 Y59.9759
G01 X-0.5024 Y59.7911
G01 X-0.5116 Y59.7632
G01 X-0.5202 Y59.7324
G01 X-0.5679 Y59.5420
G01 X-0.5743 Y59.5133
G01 X-0.5798 Y59.4819
G01 X-0.6086 Y59.2877
G01 X-0.6122 Y59.2585
G01 X-0.6146 Y59.2267
G01 X-0.6243 Y59.0307
G01 X-0.6250 Y59.0000
G01 X-0.6248 Y1.9847
G00 Z1.0000
G00 X23.0000 Y3.1250
G01 F60.00
G01 Z-0.5000
G01 F120.00
G01 X23.0307 Y3.1242
G01 X23.0613 Y3.1220
G01 X23.0917 Y3.1182
G01 X23.1219 Y3.1130
G01 X23.1519 Y3.1063
G01 X23.1814 Y3.0981
G01 X23.2106 Y3.0885
G01 X23.2392 Y3.0774
G01 X23.2672 Y3.0650
G01 X23.2946 Y3.0512
G01 X23.3213 Y3.0361
G01 X23.3472 Y3.0197
G01 X23.3723 Y3.0020
G01 X23.3965 Y2.9831
G01 X23.4197 Y2.9631
G01 X23.4367 Y2.9471
G01 X23.4581 Y2.9251
G01 X23.4784 Y2.9022
G01 X23.4976 Y2.8782
G01 X23.5155 Y2.8533
G01 X23.5323 Y2.8276
G01 X23.5477 Y2.8011
G01 X23.5618 Y2.7739
G01 X23.5746 Y2.7460
G01 X23.5859 Y2.7175
G01 X23.5959 Y2.6885
G01 X23.6044 Y2.6590
G01 X23.6115 Y2.6291
G01 X23.6171 Y2.5990
G01 X23.6212 Y2.5686
G01 X23.6238 Y2.5386
G01 X23.6249 Y2.5080
G01 X23.6248 Y2.4847
G01 X23.6233 Y2.4540
G01 X23.6203 Y2.4235
G01 X23.6158 Y2.3932
G01 X23.6098 Y2.3631
G01 X23.6024 Y2.3333
G01 X23.5935 Y2.3039
G01 X23.5831 Y2.2751
G01 X23.5714 Y2.2467
G01 X23.5583 Y2.2190
G01 X23.5438 Y2.1919
G01 X23.5280 Y2.1656
G01 X23.5110 Y2.1401
G01 X23.4927 Y2.1155
G01 X23.4733 Y2.0918
G01 X23.4527 Y2.0690
G01 X23.4310 Y2.0474
G01 X23.4082 Y2.0267
G01 X23.3845 Y2.0073
G01 X23.3599 Y1.9890
G01 X23.3344 Y1.9720
G01 X23.3081 Y1.9562
G01 X23.2810 Y1.9417
G01 X23.2533 Y1.9286
G01 X23.2249 Y1.9169
G01 X23.1960 Y1.9065
G01 X23.1667 Y1.8976
G01 X23.1369 Y1.8902
G01 X23.1069 Y1.8842
G01 X23.0765 Y1.8797
G01 X23.0460 Y1.8767
G01 X23.0227 Y1.8754
G01 X23.0000 Y1.8750
G01 X3.9847 Y1.8752
G01 X3.9540 Y1.8767
G01 X3.9235 Y1.8797
G01 X3.8931 Y1.8842
G01 X3.8703 Y1.8886
G01 X3.8410 Y1.8956
G01 X3.8115 Y1.9041
G01 X3.7825 Y1.9141
G01 X3.7540 Y1.9254
G01 X3.7328 Y1.9350
G01 X3.7054 Y1.9488
G01 X3.6787 Y1.9639
G01 X3.6528 Y1.9803
G01 X3.6277 Y1.9980
G01 X3.6035 Y2.0169
G01 X3.5803 Y2.0369
G01 X3.5581 Y2.0581
G01 X3.5369 Y2.0803
G01 X3.5169 Y2.1035
G01 X3.4980 Y2.1277
G01 X3.4845 Y2.1467
G01 X3.4677 Y2.1724
G01 X3.4526 Y2.1984
G01 X3.4385 Y2.2256
G01 X3.4257 Y2.2535
G01 X3.4169 Y2.2751
G01 X3.4065 Y2.3039
G01 X3.3976 Y2.3333
G01 X3.3902 Y2.3631
G01 X3.3842 Y2.3931
G01 X3.3797 Y2.4235
G01 X3.3767 Y2.4540
G01 X3.3754 Y2.4773
G01 X3.3751 Y2.5080
G01 X3.3762 Y2.5386
G01 X3.3788 Y2.5692
G01 X3.3830 Y2.5996
G01 X3.3886 Y2.6297
G01 X3.3957 Y2.6596
G01 X3.4043 Y2.6890
G01 X3.4143 Y2.7180
G01 X3.4257 Y2.7465
G01 X3.4385 Y2.7744
G01 X3.4526 Y2.8016
G01 X3.4681 Y2.8281
G01 X3.4848 Y2.8538
G01 X3.5028 Y2.8787
G01 X3.5220 Y2.9026
G01 X3.5423 Y2.9256
G01 X3.5637 Y2.9475
G01 X3.5862 Y2.9684
G01 X3.6097 Y2.9882
G01 X3.6341 Y3.0067
G01 X3.6594 Y3.0241
G01 X3.6856 Y3.0401
G01 X3.7124 Y3.0549
G01 X3.7400 Y3.0684
G01 X3.7682 Y3.0804
G01 X3.7970 Y3.0911
G01 X3.8262 Y3.1004
G01 X3.8559 Y3.1082
G01 X3.8859 Y3.1145
G01 X3.9162 Y3.1194
G01 X3.9467 Y3.1227
G01 X3.9773 Y3.1246
G01 X4.0000 Y3.1250
G01 X23.0000 Y3.1250
G00 X23.0000 Y3.1250
G01 F60.00
G01 Z-1.0000
G01 F120.00
G01 X4.0000 Y3.1250
G01 X3.9773 Y3.1246
G01 X3.9467 Y3.1227
G01 X3.9162 Y3.1194
G01 X3.8859 Y3.1145
G01 X3.8559 Y3.1082
G01 X3.8262 Y3.1004
G01 X3.7970 Y3.0911
G01 X3.7682 Y3.0804
G01 X3.7400 Y3.0684
G01 X3.7124 Y3.0549
G01 X3.6856 Y3.0401
G01 X3.6594 Y3.0241
G01 X3.6341 Y3.0067
G01 X3.6097 Y2.9882
G01 X3.5862 Y2.9684
G01 X3.5637 Y2.9475
G01 X3.5423 Y2.9256
G01 X3.5220 Y2.9026
G01 X3.5028 Y2.8787
G01 X3.4848 Y2.8538
G01 X3.4681 Y2.8281
G01 X3.4526 Y2.8016
G01 X3.4385 Y2.7744
G01 X3.4257 Y2.7465
G01 X3.4143 Y2.7180
G01 X3.4043 Y2.6890
G01 X3.3957 Y2.6596
G01 X3.3886 Y2.6297
G01 X3.3830 Y2.5996
G01 X3.3788 Y2.5692
G01 X3.3762 Y2.5386
G01 X3.3751 Y2.5080
G01 X3.3754 Y2.4773
G01 X3.3767 Y2.4540
G01 X3.3797 Y2.4235
G01 X3.3842 Y2.3931
G01 X3.3902 Y2.3631
G01 X3.3976 Y2.3333
G01 X3.4065 Y2.3039
G01 X3.4169 Y2.2751
G01 X3.4257 Y2.2535
G01 X3.4385 Y2.2256
G01 X3.4526 Y2.1984
G01 X3.4677 Y2.1724
G01 X3.4845 Y2.1467
G01 X3.4980 Y2.1277
G01 X3.5169 Y2.1035
G01 X3.5369 Y2.0803
G01 X3.5581 Y2.0581
G01 X3.5803 Y2.0369
G01 X3.6035 Y2.0169
G01 X3.6277 Y1.9980
G01 X3.6528 Y1.9803
G01 X3.6787 Y1.9639
G01 X3.7054 Y1.9488
G01 X3.7328 Y1.9350
G01 X3.7540 Y1.9254
G01 X3.7825 Y1.9141
G01 X3.8115 Y1.9041
G01 X3.8410 Y1.8956
G01 X3.8703 Y1.8886
G01 X3.8931 Y1.8842
G01 X3.9235 Y1.8797
G01 X3.9540 Y1.8767
G01 X3.9847 Y1.8752
G01 X23.0000 Y1.8750
G01 X23.0227 Y1.8754
G01 X23.0460 Y1.8767
G01 X23.0765 Y1.8797
G01 X23.1069 Y1.8842
G01 X23.1369 Y1.8902
G01 X23.1667 Y1.8976
G01 X23.1960 Y1.9065
G01 X23.2249 Y1.9169
G01 X23.2533 Y1.9286
G01 X23.2810 Y1.9417
G01 X23.3081 Y1.9562
G01 X23.3344 Y1.9720
G01 X23.3599 Y1.9890
G01 X23.3845 Y2.0073
G01 X23.4082 Y2.0267
G01 X23.4310 Y2.0474
G01 X23.4527 Y2.0690
G01 X23.4733 Y2.0918
G01 X23.4927 Y2.1155
G01 X23.5110 Y2.1401
G01 X23.5280 Y2.1656
G01 X23.5438 Y2.1919
G01 X23.5583 Y2.2190
G01 X23.5714 Y2.2467
G01 X23.5831 Y2.2751
G01 X23.5935 Y2.3039
G01 X23.6024 Y2.3333
G01 X23.6098 Y2.3631
G01 X23.6158 Y2.3932
G01 X23.6203 Y2.4235
G01 X23.6233 Y2.4540
G01 X23.6248 Y2.4847
G01 X23.6249 Y2.5080
G01 X23.6238 Y2.5386
G01 X23.6212 Y2.5686
G01 X23.6171 Y2.5990
G01 X23.6115 Y2.6291
G01 X23.6044 Y2.6590
G01 X23.5959 Y2.6885
G01 X23.5859 Y2.7175
G01 X23.5746 Y2.7460
G01 X23.5618 Y2.7739
G01 X23.5477 Y2.8011
G01 X23.5323 Y2.8276
G01 X23.5155 Y2.8533
G01 X23.4976 Y2.8782
G01 X23.4784 Y2.9022
G01 X23.4581 Y2.9251
G01 X23.4367 Y2.9471
G01 X23.4197 Y2.9631
G01 X23.3965 Y2.9831
G01 X23.3723 Y3.0020
G01 X23.3472 Y3.0197
G01 X23.3213 Y3.0361
G01 X23.2946 Y3.0512
G01 X23.2672 Y3.0650
G01 X23.2392 Y3.0774
G01 X23.2106 Y3.0885
G01 X23.1814 Y3.0981
G01 X23.1519 Y3.1063
G01 X23.1219 Y3.1130
G01 X23.0917 Y3.1182
G01 X23.0613 Y3.1220
G01 X23.0307 Y3.1242
G01 X23.0000 Y3.1250
G00 X23.0000 Y3.1250
G01 F60.00
G01 Z-1.5000
G01 F120.00
G01 X23.0307 Y3.1242
G01 X23.0613 Y3.1220
G01 X23.0917 Y3.1182
G01 X23.1219 Y3.1130
G01 X23.1519 Y3.1063
G01 X23.1814 Y3.0981
G01 X23.2106 Y3.0885
G01 X23.2392 Y3.0774
G01 X23.2672 Y3.0650
G01 X23.2946 Y3.0512
G01 X23.3213 Y3.0361
G01 X23.3472 Y3.0197
G01 X23.3723 Y3.0020
G01 X23.3965 Y2.9831
G01 X23.4197 Y2.9631
G01 X23.4367 Y2.9471
G01 X23.4581 Y2.9251
G01 X23.4784 Y2.9022
G01 X23.4976 Y2.8782
G01 X23.5155 Y2.8533
G01 X23.5323 Y2.8276
G01 X23.5477 Y2.8011
G01 X23.5618 Y2.7739
G01 X23.5746 Y2.7460
G01 X23.5859 Y2.7175
G01 X23.5959 Y2.6885
G01 X23.6044 Y2.6590
G01 X23.6115 Y2.6291
G01 X23.6171 Y2.5990
G01 X23.6212 Y2.5686
G01 X23.6238 Y2.5386
G01 X23.6249 Y2.5080
G01 X23.6248 Y2.4847
G01 X23.6233 Y2.4540
G01 X23.6203 Y2.4235
G01 X23.6158 Y2.3932
G01 X23.6098 Y2.3631
G01 X23.6024 Y2.3333
G01 X23.5935 Y2.3039
G01 X23.5831 Y2.2751
G01 X23.5714 Y2.2467
G01 X23.5583 Y2.2190
G01 X23.5438 Y2.1919
G01 X23.5280 Y2.1656
G01 X23.5110 Y2.1401
G01 X23.4927 Y2.1155
G01 X23.4733 Y2.0918
G01 X23.4527 Y2.0690
G01 X23.4310 Y2.0474
G01 X23.4082 Y2.0267
G01 X23.3845 Y2.0073
G01 X23.3599 Y1.9890
G01 X23.3344 Y1.9720
G01 X23.3081 Y1.9562
G01 X23.2810 Y1.9417
G01 X23.2533 Y1.9286
G01 X23.2249 Y1.9169
G01 X23.1960 Y1.9065
G01 X23.1667 Y1.8976
G01 X23.1369 Y1.8902
G01 X23.1069 Y1.8842
G01 X23.0765 Y1.8797
G01 X23.0460 Y1.8767
G01 X23.0227 Y1.8754
G01 X23.0000 Y1.8750
G01 X3.9847 Y1.8752
G01 X3.9540 Y1.8767
G01 X3.9235 Y1.8797
G01 X3.8931 Y1.8842
G01 X3.8703 Y1.8886
G01 X3.8410 Y1.8956
G01 X3.8115 Y1.9041
G01 X3.7825 Y1.9141
G01 X3.7540 Y1.9254
G01 X3.7328 Y1.9350
G01 X3.7054 Y1.9488
G01 X3.6787 Y1.9639
G01 X3.6528 Y1.9803
G01 X3.6277 Y1.9980
G01 X3.6035 Y2.0169
G01 X3.5803 Y2.0369
G01 X3.5581 Y2.0581
G01 X3.5369 Y2.0803
G01 X3.5169 Y2.1035
G01 X3.4980 Y2.1277
G01 X3.4845 Y2.1467
G01 X3.4677 Y2.1724
G01 X3.4526 Y2.1984
G01 X3.4385 Y2.2256
G01 X3.4257 Y2.2535
G01 X3.4169 Y2.2751
G01 X3.4065 Y2.3039
G01 X3.3976 Y2.3333
G01 X3.3902 Y2.3631
G01 X3.3842 Y2.3931
G01 X3.3797 Y2.4235
G01 X3.3767 Y2.4540
G01 X3.3754 Y2.4773
G01 X3.3751 Y2.5080
G01 X3.3762 Y2.5386
G01 X3.3788 Y2.5692
G01 X3.3830 Y2.5996
G01 X3.3886 Y2.6297
G01 X3.3957 Y2.6596
G01 X3.4043 Y2.6890
G01 X3.4143 Y2.7180
G01 X3.4257 Y2.7465
G01 X3.4385 Y2.7744
G01 X3.4526 Y2.8016
G01 X3.4681 Y2.8281
G01 X3.4848 Y2.8538
G01 X3.5028 Y2.8787
G01 X3.5220 Y2.9026
G01 X3.5423 Y2.9256
G01 X3.5637 Y2.9475
G01 X3.5862 Y2.9684
G01 X3.6097 Y2.9882
G01 X3.6341 Y3.0067
G01 X3.6594 Y3.0241
G01 X3.6856 Y3.0401
G01 X3.7124 Y3.0549
G01 X3.7400 Y3.0684
G01 X3.7682 Y3.0804
G01 X3.7970 Y3.0911
G01 X3.8262 Y3.1004
G01 X3.8559 Y3.1082
G01 X3.8859 Y3.1145
G01 X3.9162 Y3.1194
G01 X3.9467 Y3.1227
G01 X3.9773 Y3.1246
G01 X4.0000 Y3.1250
G01 X23.0000 Y3.1250
G00 X23.0000 Y3.1250
G01 F60.00
G01 Z-1.8000
G01 F120.00
G01 X4.0000 Y3.1250
G01 X3.9773 Y3.1246
G01 X3.9467 Y3.1227
G01 X3.9162 Y3.1194
G01 X3.8859 Y3.1145
G01 X3.8559 Y3.1082
G01 X3.8262 Y3.1004
G01 X3.7970 Y3.0911
G01 X3.7682 Y3.0804
G01 X3.7400 Y3.0684
G01 X3.7124 Y3.0549
G01 X3.6856 Y3.0401
G01 X3.6594 Y3.0241
G01 X3.6341 Y3.0067
G01 X3.6097 Y2.9882
G01 X3.5862 Y2.9684
G01 X3.5637 Y2.9475
G01 X3.5423 Y2.9256
G01 X3.5220 Y2.9026
G01 X3.5028 Y2.8787
G01 X3.4848 Y2.8538
G01 X3.4681 Y2.8281
G01 X3.4526 Y2.8016
G01 X3.4385 Y2.7744
G01 X3.4257 Y2.7465
G01 X3.4143 Y2.7180
G01 X3.4043 Y2.6890
G01 X3.3957 Y2.6596
G01 X3.3886 Y2.6297
G01 X3.3830 Y2.5996
G01 X3.3788 Y2.5692
G01 X3.3762 Y2.5386
G01 X3.3751 Y2.5080
G01 X3.3754 Y2.4773
G01 X3.3767 Y2.4540
G01 X3.3797 Y2.4235
G01 X3.3842 Y2.3931
G01 X3.3902 Y2.3631
G01 X3.3976 Y2.3333
G01 X3.4065 Y2.3039
G01 X3.4169 Y2.2751
G01 X3.4257 Y2.2535
G01 X3.4385 Y2.2256
G01 X3.4526 Y2.1984
G01 X3.4677 Y2.1724
G01 X3.4845 Y2.1467
G01 X3.4980 Y2.1277
G01 X3.5169 Y2.1035
G01 X3.5369 Y2.0803
G01 X3.5581 Y2.0581
G01 X3.5803 Y2.0369
G01 X3.6035 Y2.0169
G01 X3.6277 Y1.9980
G01 X3.6528 Y1.9803
G01 X3.6787 Y1.9639
G01 X3.7054 Y1.9488
G01 X3.7328 Y1.9350
G01 X3.7540 Y1.9254
G01 X3.7825 Y1.9141
G01 X3.8115 Y1.9041
G01 X3.8410 Y1.8956
G01 X3.8703 Y1.8886
G01 X3.8931 Y1.8842
G01 X3.9235 Y1.8797
G01 X3.9540 Y1.8767
G01 X3.9847 Y1.8752
G01 X23.0000 Y1.8750
G01 X23.0227 Y1.8754
G01 X23.0460 Y1.8767
G01 X23.0765 Y1.8797
G01 X23.1069 Y1.8842
G01 X23.1369 Y1.8902
G01 X23.1667 Y1.8976
G01 X23.1960 Y1.9065
G01 X23.2249 Y1.9169
G01 X23.2533 Y1.9286
G01 X23.2810 Y1.9417
G01 X23.3081 Y1.9562
G01 X23.3344 Y1.9720
G01 X23.3599 Y1.9890
G01 X23.3845 Y2.0073
G01 X23.4082 Y2.0267
G01 X23.4310 Y2.0474
G01 X23.4527 Y2.0690
G01 X23.4733 Y2.0918
G01 X23.4927 Y2.1155
G01 X23.5110 Y2.1401
G01 X23.5280 Y2.1656
G01 X23.5438 Y2.1919
G01 X23.5583 Y2.2190
G01 X23.5714 Y2.2467
G01 X23.5831 Y2.2751
G01 X23.5935 Y2.3039
G01 X23.6024 Y2.3333
G01 X23.6098 Y2.3631
G01 X23.6158 Y2.3932
G01 X23.6203 Y2.4235
G01 X23.6233 Y2.4540
G01 X23.6248 Y2.4847
G01 X23.6249 Y2.5080
G01 X23.6238 Y2.5386
G01 X23.6212 Y2.5686
G01 X23.6171 Y2.5990
G01 X23.6115 Y2.6291
G01 X23.6044 Y2.6590
G01 X23.5959 Y2.6885
G01 X23.5859 Y2.7175
G01 X23.5746 Y2.7460
G01 X23.5618 Y2.7739
G01 X23.5477 Y2.8011
G01 X23.5323 Y2.8276
G01 X23.5155 Y2.8533
G01 X23.4976 Y2.8782
G01 X23.4784 Y2.9022
G01 X23.4581 Y2.9251
G01 X23.4367 Y2.9471
G01 X23.4197 Y2.9631
G01 X23.3965 Y2.9831
G01 X23.3723 Y3.0020
G01 X23.3472 Y3.0197
G01 X23.3213 Y3.0361
G01 X23.2946 Y3.0512
G01 X23.2672 Y3.0650
G01 X23.2392 Y3.0774
G01 X23.2106 Y3.0885
G01 X23.1814 Y3.0981
G01 X23.1519 Y3.1063
G01 X23.1219 Y3.1130
G01 X23.0917 Y3.1182
G01 X23.0613 Y3.1220
G01 X23.0307 Y3.1242
G01 X23.0000 Y3.1250
G00 Z1.0000
G00 X26.6252 Y1.9847
G01 F60.00
G01 Z-0.5000
G01 F120.00
G01 X26.6250 Y59.0000
G01 X26.6258 Y59.0307
G01 X26.6354 Y59.2267
G01 X26.6378 Y59.2585
G01 X26.6414 Y59.2877
G01 X26.6702 Y59.4819
G01 X26.6757 Y59.5133
G01 X26.6822 Y59.5420
G01 X26.7299 Y59.7324
G01 X26.7384 Y59.7632
G01 X26.7477 Y59.7911
G01 X26.8138 Y59.9759
G01 X26.8244 Y60.0034
G01 X26.8311 Y60.0192
G01 X26.9212 Y60.2100
G01 X26.9344 Y60.2363
G01 X26.9501 Y60.2641
G01 X27.0510 Y60.4325
G01 X27.0681 Y60.4594
G01 X27.0851 Y60.4835
G01 X27.2020 Y60.6411
G01 X27.2201 Y60.6643
G01 X27.2409 Y60.6885
G01 X27.3727 Y60.8339
G01 X27.3948 Y60.8570
G01 X27.4161 Y60.8773
G01 X27.5615 Y61.0091
G01 X27.5857 Y61.0299
G01 X27.6089 Y61.0480
G01 X27.7666 Y61.1650
G01 X27.7906 Y61.1819
G01 X27.8176 Y61.1990
G01 X27.9859 Y61.2999
G01 X28.0115 Y61.3144
G01 X28.0400 Y61.3288
G01 X28.2174 Y61.4128
G01 X28.2466 Y61.4256
G01 X28.2741 Y61.4362
G01 X28.4589 Y61.5024
G01 X28.4869 Y61.5116
G01 X28.5176 Y61.5202
G01 X28.7080 Y61.5679
G01 X28.7391 Y61.5748
G01 X28.7681 Y61.5798
G01 X28.9623 Y61.6086
G01 X28.9940 Y61.6125
G01 X29.0233 Y61.6146
G01 X29.2194 Y61.6243
G01 X29.2500 Y61.6250
G01 X37.7500 Y61.6250
G01 X37.7819 Y61.6242
G01 X37.8113 Y61.6220
G01 X37.8429 Y61.6180
G01 X37.8720 Y61.6130
G01 X37.9007 Y61.6066
G01 X37.9315 Y61.5981
G01 X37.9594 Y61.5889
G01 X37.9892 Y61.5774
G01 X38.0183 Y61.5645
G01 X38.0447 Y61.5512
G01 X38.0703 Y61.5367
G01 X38.0973 Y61.5197
G01 X38.1233 Y61.5013
G01 X38.1465 Y61.4831
G01 X38.1688 Y61.4639
G01 X38.1920 Y61.4420
G01 X38.2139 Y61.4188
G01 X38.2332 Y61.3965
G01 X38.2513 Y61.3733
G01 X38.2697 Y61.3472
G01 X38.2867 Y61.3203
G01 X38.3012 Y61.2946
G01 X38.3155 Y61.2661
G01 X38.3275 Y61.2392
G01 X38.3381 Y61.2117
G01 X38.3481 Y61.1814
G01 X38.3566 Y61.1507
G01 X38.3630 Y61.1219
G01 X38.3681 Y61.0929
G01 X38.3720 Y61.0613
G01 X38.3743 Y61.0294
G01 X38.3750 Y61.0000
G01 X38.3749 Y53.9853
G01 X38.3742 Y53.9681
G01 X38.3720 Y53.9387
G01 X38.3681 Y53.9071
G01 X38.3630 Y53.8781
G01 X38.3566 Y53.8493
G01 X38.3481 Y53.8186
G01 X38.3381 Y53.7883
G01 X38.3275 Y53.7608
G01 X38.3145 Y53.7317
G01 X38.3012 Y53.7054
G01 X38.2867 Y53.6797
G01 X38.2697 Y53.6528
G01 X38.2527 Y53.6287
G01 X38.2332 Y53.6035
G01 X38.2139 Y53.5812
G01 X38.1920 Y53.5580
G01 X38.1688 Y53.5361
G01 X38.1465 Y53.5169
G01 X38.1213 Y53.4973
G01 X38.0973 Y53.4803
G01 X38.0724 Y53.4646
G01 X38.0447 Y53.4488
G01 X38.0183 Y53.4355
G01 X37.9892 Y53.4226
G01 X37.9594 Y53.4111
G01 X37.9315 Y53.4019
G01 X37.9031 Y53.3940
G01 X37.8750 Y53.3877
G01 X37.8750 Y52.6250
G01 X42.1250 Y52.6250
G01 X42.1252 Y61.0147
G01 X42.1259 Y61.0319
G01 X42.1280 Y61.0613
G01 X42.1316 Y61.0905
G01 X42.1370 Y61.1219
G01 X42.1435 Y61.1507
G01 X42.1519 Y61.1814
G01 X42.1612 Y61.2094
G01 X42.1726 Y61.2392
G01 X42.1845 Y61.2661
G01 X42.1988 Y61.2946
G01 X42.2133 Y61.3203
G01 X42.2303 Y61.3472
G01 X42.2488 Y61.3733
G01 X42.2669 Y61.3965
G01 X42.2878 Y61.4206
G01 X42.3081 Y61.4420
G01 X42.3312 Y61.4639
G01 X42.3535 Y61.4831
G01 X42.3787 Y61.5027
G01 X42.4028 Y61.5197
G01 X42.4277 Y61.5354
G01 X42.4554 Y61.5512
G01 X42.4817 Y61.5645
G01 X42.5108 Y61.5774
G01 X42.5406 Y61.5889
G01 X42.5686 Y61.5981
G01 X42.5994 Y61.6066
G01 X42.6281 Y61.6130
G01 X42.6571 Y61.6180
G01 X42.6888 Y61.6220
G01 X42.7181 Y61.6242
G01 X42.7353 Y61.6248
G01 X51.2500 Y61.6250
G01 X51.2807 Y61.6243
G01 X51.4767 Y61.6146
G01 X51.5085 Y61.6122
G01 X51.5378 Y61.6086
G01 X51.7319 Y61.5798
G01 X51.7633 Y61.5743
G01 X51.7921 Y61.5679
G01 X51.9825 Y61.5202
G01 X52.0132 Y61.5116
G01 X52.0412 Y61.5024
G01 X52.2260 Y61.4362
G01 X52.2534 Y61.4256
G01 X52.2692 Y61.4189
G01 X52.4600 Y61.3288
G01 X52.4864 Y61.3156
G01 X52.5141 Y61.2999
G01 X52.6825 Y61.1990
G01 X52.7094 Y61.1819
G01 X52.7335 Y61.1650
G01 X52.8911 Y61.0480
G01 X52.9162 Y61.0284
G01 X52.9385 Y61.0091
G01 X53.0840 Y60.8773
G01 X53.1053 Y60.8570
G01 X53.1273 Y60.8339
G01 X53.2591 Y60.6885
G01 X53.2799 Y60.6643
G01 X53.2981 Y60.6411
G01 X53.4150 Y60.4835
G01 X53.4333 Y60.4573
G01 X53.4491 Y60.4325
G01 X53.5500 Y60.2641
G01 X53.5645 Y60.2385
G01 X53.5789 Y60.2100
G01 X53.6628 Y60.0326
G01 X53.6747 Y60.0057
G01 X53.6863 Y59.9759
G01 X53.7524 Y59.7911
G01 X53.7616 Y59.7632
G01 X53.7702 Y59.7324
G01 X53.8179 Y59.5420
G01 X53.8243 Y59.5133
G01 X53.8298 Y59.4819
G01 X53.8586 Y59.2877
G01 X53.8625 Y59.2561
G01 X53.8647 Y59.2267
G01 X53.8749 Y59.0147
G01 X53.8750 Y2.0000
G01 X53.8743 Y1.9693
G01 X53.8647 Y1.7733
G01 X53.8622 Y1.7415
G01 X53.8586 Y1.7123
G01 X53.8298 Y1.5181
G01 X53.8243 Y1.4867
G01 X53.8179 Y1.4580
G01 X53.7702 Y1.2676
G01 X53.7616 Y1.2368
G01 X53.7524 Y1.2089
G01 X53.6863 Y1.0241
G01 X53.6757 Y0.9966
G01 X53.6689 Y0.9808
G01 X53.5789 Y0.7900
G01 X53.5656 Y0.7637
G01 X53.5500 Y0.7359
G01 X53.4491 Y0.5675
G01 X53.4333 Y0.5427
G01 X53.4150 Y0.5165
G01 X53.2981 Y0.3589
G01 X53.2799 Y0.3357
G01 X53.2591 Y0.3115
G01 X53.1273 Y0.1661
G01 X53.1053 Y0.1430
G01 X53.0840 Y0.1227
G01 X52.9385 Y-0.0091
G01 X52.9162 Y-0.0284
G01 X52.8911 Y-0.0480
G01 X52.7335 Y-0.1650
G01 X52.7074 Y-0.1833
G01 X52.6825 Y-0.1990
G01 X52.5141 Y-0.2999
G01 X52.4885 Y-0.3144
G01 X52.4600 Y-0.3288
G01 X52.2826 Y-0.4128
G01 X52.2534 Y-0.4256
G01 X52.2260 Y-0.4362
G01 X52.0412 Y-0.5024
G01 X52.0132 Y-0.5116
G01 X51.9825 Y-0.5202
G01 X51.7921 Y-0.5679
G01 X51.7609 Y-0.5748
G01 X51.7319 Y-0.5798
G01 X51.5378 Y-0.6086
G01 X51.5085 Y-0.6122
G01 X51.4914 Y-0.6137
G01 X51.2807 Y-0.6243
G01 X51.2500 Y-0.6250
G01 X29.2500 Y-0.6250
G01 X29.2194 Y-0.6243
G01 X29.0233 Y-0.6146
G01 X28.9915 Y-0.6122
G01 X28.9623 Y-0.6086
G01 X28.7681 Y-0.5798
G01 X28.7367 Y-0.5743
G01 X28.7080 Y-0.5679
G01 X28.5176 Y-0.5202
G01 X28.4869 Y-0.5116
G01 X28.4589 Y-0.5024
G01 X28.2741 Y-0.4362
G01 X28.2444 Y-0.4247
G01 X28.2174 Y-0.4128
G01 X28.0400 Y-0.3288
G01 X28.0115 Y-0.3144
G01 X27.9859 Y-0.2999
G01 X27.8176 Y-0.1990
G01 X27.7906 Y-0.1819
G01 X27.7666 Y-0.1650
G01 X27.6089 Y-0.0480
G01 X27.5838 Y-0.0284
G01 X27.5615 Y-0.0091
G01 X27.4161 Y0.1227
G01 X27.3930 Y0.1447
G01 X27.3727 Y0.1661
G01 X27.2409 Y0.3115
G01 X27.2201 Y0.3357
G01 X27.2020 Y0.3589
G01 X27.0851 Y0.5165
G01 X27.0668 Y0.5427
G01 X27.0510 Y0.5675
G01 X26.9501 Y0.7359
G01 X26.9344 Y0.7637
G01 X26.9212 Y0.7900
G01 X26.8373 Y0.9674
G01 X26.8253 Y0.9943
G01 X26.8138 Y1.0241
G01 X26.7477 Y1.2089
G01 X26.7384 Y1.2368
G01 X26.7299 Y1.2676
G01 X26.6822 Y1.4580
G01 X26.6757 Y1.4867
G01 X26.6702 Y1.5181
G01 X26.6414 Y1.7123
G01 X26.6378 Y1.7415
G01 X26.6354 Y1.7733
G01 X26.6252 Y1.9847
G00 X26.6252 Y1.9847
G01 F60.00
G01 Z-1.0000
G01 F120.00
G01 X26.6354 Y1.7733
G01 X26.6378 Y1.7415
G01 X26.6414 Y1.7123
G01 X26.6702 Y1.5181
G01 X26.6757 Y1.4867
G01 X26.6822 Y1.4580
G01 X26.7299 Y1.2676
G01 X26.7384 Y1.2368
G01 X26.7477 Y1.2089
G01 X26.8138 Y1.0241
G01 X26.8253 Y0.9943
G01 X26.8373 Y0.9674
G01 X26.9212 Y0.7900
G01 X26.9344 Y0.7637
G01 X26.9501 Y0.7359
G01 X27.0510 Y0.5675
G01 X27.0668 Y0.5427
G01 X27.0851 Y0.5165
G01 X27.2020 Y0.3589
G01 X27.2201 Y0.3357
G01 X27.2409 Y0.3115
G01 X27.3727 Y0.1661
G01 X27.3930 Y0.1447
G01 X27.4161 Y0.1227
G01 X27.5615 Y-0.0091
G01 X27.5838 Y-0.0284
G01 X27.6089 Y-0.0480
G01 X27.7666 Y-0.1650
G01 X27.7906 Y-0.1819
G01 X27.8176 Y-0.1990
G01 X27.9859 Y-0.2999
G01 X28.0115 Y-0.3144
G01 X28.0400 Y-0.3288
G01 X28.2174 Y-0.4128
G01 X28.2444 Y-0.4247
G01 X28.2741 Y-0.4362
G01 X28.4589 Y-0.5024
G01 X28.4869 Y-0.5116
G01 X28.5176 Y-0.5202
G01 X28.7080 Y-0.5679
G01 X28.7367 Y-0.5743
G01 X28.7681 Y-0.5798
G01 X28.9623 Y-0.6086
G01 X28.9915 Y-0.6122
G01 X29.0233 Y-0.6146
G01 X29.2194 Y-0.6243
G01 X29.2500 Y-0.6250
G01 X51.2500 Y-0.6250
G01 X51.2807 Y-0.6243
G01 X51.4914 Y-0.6137
G01 X51.5085 Y-0.6122
G01 X51.5378 Y-0.6086
G01 X51.7319 Y-0.5798
G01 X51.7609 Y-0.5748
G01 X51.7921 Y-0.5679
G01 X51.9825 Y-0.5202
G01 X52.0132 Y-0.5116
G01 X52.0412 Y-0.5024
G01 X52.2260 Y-0.4362
G01 X52.2534 Y-0.4256
G01 X52.2826 Y-0.4128
G01 X52.4600 Y-0.3288
G01 X52.4885 Y-0.3144
G01 X52.5141 Y-0.2999
G01 X52.6825 Y-0.1990
G01 X52.7074 Y-0.1833
G01 X52.7335 Y-0.1650
G01 X52.8911 Y-0.0480
G01 X52.9162 Y-0.0284
G01 X52.9385 Y-0.0091
G01 X53.0840 Y0.1227
G01 X53.1053 Y0.1430
G01 X53.1273 Y0.1661
G01 X53.2591 Y0.3115
G01 X53.2799 Y0.3357
G01 X53.2981 Y0.3589
G01 X53.4150 Y0.5165
G01 X53.4333 Y0.5427
G01 X53.4491 Y0.5675
G01 X53.5500 Y0.7359
G01 X53.5656 Y0.7637
G01 X53.5789 Y0.7900
G01 X53.6689 Y0.9808
G01 X53.6757 Y0.9966
G01 X53.6863 Y1.0241
G01 X53.7524 Y1.2089
G01 X53.7616 Y1.2368
G01 X53.7702 Y1.2676
G01 X53.8179 Y1.4580
G01 X53.8243 Y1.4867
G01 X53.8298 Y1.5181
G01 X53.8586 Y1.7123
G01 X53.8622 Y1.7415
G01 X53.8647 Y1.7733
G01 X53.8743 Y1.9693
G01 X53.8750 Y2.0000
G01 X53.8749 Y59.0147
G01 X53.8647 Y59.2267
G01 X53.8625 Y59.2561
G01 X53.8586 Y59.2877
G01 X53.8298 Y59.4819
G01 X53.8243 Y59.5133
G01 X53.8179 Y59.5420
G01 X53.7702 Y59.7324
G01 X53.7616 Y59.7632
G01 X53.7524 Y59.7911
G01 X53.6863 Y59.9759
G01 X53.6747 Y60.0057
G01 X53.6628 Y60.0326
G01 X53.5789 Y60.2100
G01 X53.5645 Y60.2385
G01 X53.5500 Y60.2641
G01 X53.4491 Y60.4325
G01 X53.4333 Y60.4573
G01 X53.4150 Y60.4835
G01 X53.2981 Y60.6411
G01 X53.2799 Y60.6643
G01 X53.2591 Y60.6885
G01 X53.1273 Y60.8339
G01 X53.1053 Y60.8570
G01 X53.0840 Y60.8773
G01 X52.9385 Y61.0091
G01 X52.9162 Y61.0284
G01 X52.8911 Y61.0480
G01 X52.7335 Y61.1650
G01 X52.7094 Y61.1819
G01 X52.6825 Y61.1990
G01 X52.5141 Y61.2999
G01 X52.4864 Y61.3156
G01 X52.4600 Y61.3288
G01 X52.2692 Y61.4189
G01 X52.2534 Y61.4256
G01 X52.2260 Y61.4362
G01 X52.0412 Y61.5024
G01 X52.0132 Y61.5116
G01 X51.9825 Y61.5202
G01 X51.7921 Y61.5679
G01 X51.7633 Y61.5743
G01 X51.7319 Y61.5798
G01 X51.5378 Y61.6086
G01 X51.5085 Y61.6122
G01 X51.4767 Y61.6146
G01 X51.2807 Y61.6243
G01 X51.2500 Y61.6250
G01 X42.7353 Y61.6248
G01 X42.7181 Y61.6242
G01 X42.6888 Y61.6220
G01 X42.6571 Y61.6180
G01 X42.6281 Y61.6130
G01 X42.5994 Y61.6066
G01 X42.5686 Y61.5981
G01 X42.5406 Y61.5889
G01 X42.5108 Y61.5774
G01 X42.4817 Y61.5645
G01 X42.4554 Y61.5512
G01 X42.4277 Y61.5354
G01 X42.4028 Y61.5197
G01 X42.3787 Y61.5027
G01 X42.3535 Y61.4831
G01 X42.3312 Y61.4639
G01 X42.3081 Y61.4420
G01 X42.2878 Y61.4206
G01 X42.2669 Y61.3965
G01 X42.2488 Y61.3733
G01 X42.2303 Y61.3472
G01 X42.2133 Y61.3203
G01 X42.1988 Y61.2946
G01 X42.1845 Y61.2661
G01 X42.1726 Y61.2392
G01 X42.1612 Y61.2094
G01 X42.1519 Y61.1814
G01 X42.1435 Y61.1507
G01 X42.1370 Y61.1219
G01 X42.1316 Y61.0905
G01 X42.1280 Y61.0613
G01 X42.1259 Y61.0319
G01 X42.1252 Y61.0147
G01 X42.1250 Y52.6250
G01 X37.8750 Y52.6250
G01 X37.8750 Y53.3877
G01 X37.9031 Y53.3940
G01 X37.9315 Y53.4019
G01 X37.9594 Y53.4111
G01 X37.9892 Y53.4226
G01 X38.0183 Y53.4355
G01 X38.0447 Y53.4488
G01 X38.0724 Y53.4646
G01 X38.0973 Y53.4803
G01 X38.1213 Y53.4973
G01 X38.1465 Y53.5169
G01 X38.1688 Y53.5361
G01 X38.1920 Y53.5580
G01 X38.2139 Y53.5812
G01 X38.2332 Y53.6035
G01 X38.2527 Y53.6287
G01 X38.2697 Y53.6528
G01 X38.2867 Y53.6797
G01 X38.3012 Y53.7054
G01 X38.3145 Y53.7317
G01 X38.3275 Y53.7608
G01 X38.3381 Y53.7883
G01 X38.3481 Y53.8186
G01 X38.3566 Y53.8493
G01 X38.3630 Y53.8781
G01 X38.3681 Y53.9071
G01 X38.3720 Y53.9387
G01 X38.3742 Y53.9681
G01 X38.3749 Y53.9853
G01 X38.3750 Y61.0000
G01 X38.3743 Y61.0294
G01 X38.3720 Y61.0613
G01 X38.3681 Y61.0929
G01 X38.3630 Y61.1219
G01 X38.3566 Y61.1507
G01 X38.3481 Y61.1814
G01 X38.3381 Y61.2117
G01 X38.3275 Y61.2392
G01 X38.3155 Y61.2661
G01 X38.3012 Y61.2946
G01 X38.2867 Y61.3203
G01 X38.2697 Y61.3472
G01 X38.2513 Y61.3733
G01 X38.2332 Y61.3965
G01 X38.2139 Y61.4188
G01 X38.1920 Y61.4420
G01 X38.1688 Y61.4639
G01 X38.1465 Y61.4831
G01 X38.1233 Y61.5013
G01 X38.0973 Y61.5197
G01 X38.0703 Y61.5367
G01 X38.0447 Y61.5512
G01 X38.0183 Y61.5645
G01 X37.9892 Y61.5774
G01 X37.9594 Y61.5889
G01 X37.9315 Y61.5981
G01 X37.9007 Y61.6066
G01 X37.8720 Y61.6130
G01 X37.8429 Y61.6180
G01 X37.8113 Y61.6220
G01 X37.7819 Y61.6242
G01 X37.7500 Y61.6250
G01 X29.2500 Y61.6250
G01 X29.2194 Y61.6243
G01 X29.0233 Y61.6146
G01 X28.9940 Y61.6125
G01 X28.9623 Y61.6086
G01 X28.7681 Y61.5798
G01 X28.7391 Y61.5748
G01 X28.7080 Y61.5679
G01 X28.5176 Y61.5202
G01 X28.4869 Y61.5116
G01 X28.4589 Y61.5024
G01 X28.2741 Y61.4362
G01 X28.2466 Y61.4256
G01 X28.2174 Y61.4128
G01 X28.0400 Y61.3288
G01 X28.0115 Y61.3144
G01 X27.9859 Y61.2999
G01 X27.8176 Y61.1990
G01 X27.7906 Y61.1819
G01 X27.7666 Y61.1650
G01 X27.6089 Y61.0480
G01 X27.5857 Y61.0299
G01 X27.5615 Y61.0091
G01 X27.4161 Y60.8773
G01 X27.3948 Y60.8570
G01 X27.3727 Y60.8339
G01 X27.2409 Y60.6885
G01 X27.2201 Y60.6643
G01 X27.2020 Y60.6411
G01 X27.0851 Y60.4835
G01 X27.0681 Y60.4594
G01 X27.0510 Y60.4325
G01 X26.9501 Y60.2641
G01 X26.9344 Y60.2363
G01 X26.9212 Y60.2100
G01 X26.8311 Y60.0192
G01 X26.8244 Y60.0034
G01 X26.8138 Y59.9759
G01 X26.7477 Y59.7911
G01 X26.7384 Y59.7632
G01 X26.7299 Y59.7324
G01 X26.6822 Y59.5420
G01 X26.6757 Y59.5133
G01 X26.6702 Y59.4819
G01 X26.6414 Y59.2877
G01 X26.6378 Y59.2585
G01 X26.6354 Y59.2267
G01 X26.6258 Y59.0307
G01 X26.6250 Y59.0000
G01 X26.6252 Y1.9847
G00 X26.6252 Y1.9847
G01 F60.00
G01 Z-1.5000
G01 F120.00
G01 X26.6250 Y59.0000
G01 X26.6258 Y59.0307
G01 X26.6354 Y59.2267
G01 X26.6378 Y59.2585
G01 X26.6414 Y59.2877
G01 X26.6702 Y59.4819
G01 X26.6757 Y59.5133
G01 X26.6822 Y59.5420
G01 X26.7299 Y59.7324
G01 X26.7384 Y59.7632
G01 X26.7477 Y59.7911
G01 X26.8138 Y59.9759
G01 X26.8244 Y60.0034
G01 X26.8311 Y60.0192
G01 X26.9212 Y60.2100
G01 X26.9344 Y60.2363
G01 X26.9501 Y60.2641
G01 X27.0510 Y60.4325
G01 X27.0681 Y60.4594
G01 X27.0851 Y60.4835
G01 X27.2020 Y60.6411
G01 X27.2201 Y60.6643
G01 X27.2409 Y60.6885
G01 X27.3727 Y60.8339
G01 X27.3948 Y60.8570
G01 X27.4161 Y60.8773
G01 X27.5615 Y61.0091
G01 X27.5857 Y61.0299
G01 X27.6089 Y61.0480
G01 X27.7666 Y61.1650
G01 X27.7906 Y61.1819
G01 X27.8176 Y61.1990
G01 X27.9859 Y61.2999
G01 X28.0115 Y61.3144
G01 X28.0400 Y61.3288
G01 X28.2174 Y61.4128
G01 X28.2466 Y61.4256
G01 X28.2741 Y61.4362
G01 X28.4589 Y61.5024
G01 X28.4869 Y61.5116
G01 X28.5176 Y61.5202
G01 X28.7080 Y61.5679
G01 X28.7391 Y61.5748
G01 X28.7681 Y61.5798
G01 X28.9623 Y61.6086
G01 X28.9940 Y61.6125
G01 X29.0233 Y61.6146
G01 X29.2194 Y61.6243
G01 X29.2500 Y61.6250
G01 X37.7500 Y61.6250
G01 X37.7819 Y61.6242
G01 X37.8113 Y61.6220
G01 X37.8429 Y61.6180
G01 X37.8720 Y61.6130
G01 X37.9007 Y61.6066
G01 X37.9315 Y61.5981
G01 X37.9594 Y61.5889
G01 X37.9892 Y61.5774
G01 X38.0183 Y61.5645
G01 X38.0447 Y61.5512
G01 X38.0703 Y61.5367
G01 X38.0973 Y61.5197
G01 X38.1233 Y61.5013
G01 X38.1465 Y61.4831
G01 X38.1688 Y61.4639
G01 X38.1920 Y61.4420
G01 X38.2139 Y61.4188
G01 X38.2332 Y61.3965
G01 X38.2513 Y61.3733
G01 X38.2697 Y61.3472
G01 X38.2867 Y61.3203
G01 X38.3012 Y61.2946
G01 X38.3155 Y61.2661
G01 X38.3275 Y61.2392
G01 X38.3381 Y61.2117
G01 X38.3481 Y61.1814
G01 X38.3566 Y61.1507
G01 X38.3630 Y61.1219
G01 X38.3681 Y61.0929
G01 X38.3720 Y61.0613
G01 X38.3743 Y61.0294
G01 X38.3750 Y61.0000
G01 X38.3749 Y53.9853
G01 X38.3742 Y53.9681
G01 X38.3720 Y53.9387
G01 X38.3681 Y53.9071
G01 X38.3630 Y53.8781
G01 X38.3566 Y53.8493
G01 X38.3481 Y53.8186
G01 X38.3381 Y53.7883
G01 X38.3275 Y53.7608
G01 X38.3145 Y53.7317
G01 X38.3012 Y53.7054
G01 X38.2867 Y53.6797
G01 X38.2697 Y53.6528
G01 X38.2527 Y53.6287
G01 X38.2332 Y53.6035
G01 X38.2139 Y53.5812
G01 X38.1920 Y53.5580
G01 X38.1688 Y53.5361
G01 X38.1465 Y53.5169
G01 X38.1213 Y53.4973
G01 X38.0973 Y53.4803
G01 X38.0724 Y53.4646
G01 X38.0447 Y53.4488
G01 X38.0183 Y53.4355
G01 X37.9892 Y53.4226
G01 X37.9594 Y53.4111
G01 X37.9315 Y53.4019
G01 X37.9031 Y53.3940
G01 X37.8750 Y53.3877
G01 X37.8750 Y52.6250
G01 X42.1250 Y52.6250
G01 X42.1252 Y61.0147
G01 X42.1259 Y61.0319
G01 X42.1280 Y61.0613
G01 X42.1316 Y61.0905
G01 X42.1370 Y61.1219
G01 X42.1435 Y61.1507
G01 X42.1519 Y61.1814
G01 X42.1612 Y61.2094
G01 X42.1726 Y61.2392
G01 X42.1845 Y61.2661
G01 X42.1988 Y61.2946
G01 X42.2133 Y61.3203
G01 X42.2303 Y61.3472
G01 X42.2488 Y61.3733
G01 X42.2669 Y61.3965
G01 X42.2878 Y61.4206
G01 X42.3081 Y61.4420
G01 X42.3312 Y61.4639
G01 X42.3535 Y61.4831
G01 X42.3787 Y61.5027
G01 X42.4028 Y61.5197
G01 X42.4277 Y61.5354
G01 X42.4554 Y61.5512
G01 X42.4817 Y61.5645
G01 X42.5108 Y61.5774
G01 X42.5406 Y61.5889
G01 X42.5686 Y61.5981
G01 X42.5994 Y61.6066
G01 X42.6281 Y61.6130
G01 X42.6571 Y61.6180
G01 X42.6888 Y61.6220
G01 X42.7181 Y61.6242
G01 X42.7353 Y61.6248
G01 X51.2500 Y61.6250
G01 X51.2807 Y61.6243
G01 X51.4767 Y61.6146
G01 X51.5085 Y61.6122
G01 X51.5378 Y61.6086
G01 X51.7319 Y61.5798
G01 X51.7633 Y61.5743
G01 X51.7921 Y61.5679
G01 X51.9825 Y61.5202
G01 X52.0132 Y61.5116
G01 X52.0412 Y61.5024
G01 X52.2260 Y61.4362
G01 X52.2534 Y61.4256
G01 X52.2692 Y61.4189
G01 X52.4600 Y61.3288
G01 X52.4864 Y61.3156
G01 X52.5141 Y61.2999
G01 X52.6825 Y61.1990
G01 X52.7094 Y61.1819
G01 X52.7335 Y61.1650
G01 X52.8911 Y61.0480
G01 X52.9162 Y61.0284
G01 X52.9385 Y61.0091
G01 X53.0840 Y60.8773
G01 X53.1053 Y60.8570
G01 X53.1273 Y60.8339
G01 X53.2591 Y60.6885
G01 X53.2799 Y60.6643
G01 X53.2981 Y60.6411
G01 X53.4150 Y60.4835
G01 X53.4333 Y60.4573
G01 X53.4491 Y60.4325
G01 X53.5500 Y60.2641
G01 X53.5645 Y60.2385
G01 X53.5789 Y60.2100
G01 X53.6628 Y60.0326
G01 X53.6747 Y60.0057
G01 X53.6863 Y59.9759
G01 X53.7524 Y59.7911
G01 X53.7616 Y59.7632
G01 X53.7702 Y59.7324
G01 X53.8179 Y59.5420
G01 X53.8243 Y59.5133
G01 X53.8298 Y59.4819
G01 X53.8586 Y59.2877
G01 X53.8625 Y59.2561
G01 X53.8647 Y59.2267
G01 X53.8749 Y59.0147
G01 X53.8750 Y2.0000
G01 X53.8743 Y1.9693
G01 X53.8647 Y1.7733
G01 X53.8622 Y1.7415
G01 X53.8586 Y1.7123
G01 X53.8298 Y1.5181
G01 X53.8243 Y1.4867
G01 X53.8179 Y1.4580
G01 X53.7702 Y1.2676
G01 X53.7616 Y1.2368
G01 X53.7524 Y1.2089
G01 X53.6863 Y1.0241
G01 X53.6757 Y0.9966
G01 X53.6689 Y0.9808
G01 X53.5789 Y0.7900
G01 X53.5656 Y0.7637
G01 X53.5500 Y0.7359
G01 X53.4491 Y0.5675
G01 X53.4333 Y0.5427
G01 X53.4150 Y0.5165
G01 X53.2981 Y0.3589
G01 X53.2799 Y0.3357
G01 X53.2591 Y0.3115
G01 X53.1273 Y0.1661
G01 X53.1053 Y0.1430
G01 X53.0840 Y0.1227
G01 X52.9385 Y-0.0091
G01 X52.9162 Y-0.0284
G01 X52.8911 Y-0.0480
G01 X52.7335 Y-0.1650
G01 X52.7074 Y-0.1833
G01 X52.6825 Y-0.1990
G01 X52.5141 Y-0.2999
G01 X52.4885 Y-0.3144
G01 X52.4600 Y-0.3288
G01 X52.2826 Y-0.4128
G01 X52.2534 Y-0.4256
G01 X52.2260 Y-0.4362
G01 X52.0412 Y-0.5024
G01 X52.0132 Y-0.5116
G01 X51.9825 Y-0.5202
G01 X51.7921 Y-0.5679
G01 X51.7609 Y-0.5748
G01 X51.7319 Y-0.5798
G01 X51.5378 Y-0.6086
G01 X51.5085 Y-0.6122
G01 X51.4914 Y-0.6137
G01 X51.2807 Y-0.6243
G01 X51.2500 Y-0.6250
G01 X29.2500 Y-0.6250
G01 X29.2194 Y-0.6243
G01 X29.0233 Y-0.6146
G01 X28.9915 Y-0.6122
G01 X28.9623 Y-0.6086
G01 X28.7681 Y-0.5798
G01 X28.7367 Y-0.5743
G01 X28.7080 Y-0.5679
G01 X28.5176 Y-0.5202
G01 X28.4869 Y-0.5116
G01 X28.4589 Y-0.5024
G01 X28.2741 Y-0.4362
G01 X28.2444 Y-0.4247
G01 X28.2174 Y-0.4128
G01 X28.0400 Y-0.3288
G01 X28.0115 Y-0.3144
G01 X27.9859 Y-0.2999
G01 X27.8176 Y-0.1990
G01 X27.7906 Y-0.1819
G01 X27.7666 Y-0.1650
G01 X27.6089 Y-0.0480
G01 X27.5838 Y-0.0284
G01 X27.5615 Y-0.0091
G01 X27.4161 Y0.1227
G01 X27.3930 Y0.1447
G01 X27.3727 Y0.1661
G01 X27.2409 Y0.3115
G01 X27.2201 Y0.3357
G01 X27.2020 Y0.3589
G01 X27.0851 Y0.5165
G01 X27.0668 Y0.5427
G01 X27.0510 Y0.5675
G01 X26.9501 Y0.7359
G01 X26.9344 Y0.7637
G01 X26.9212 Y0.7900
G01 X26.8373 Y0.9674
G01 X26.8253 Y0.9943
G01 X26.8138 Y1.0241
G01 X26.7477 Y1.2089
G01 X26.7384 Y1.2368
G01 X26.7299 Y1.2676
G01 X26.6822 Y1.4580
G01 X26.6757 Y1.4867
G01 X26.6702 Y1.5181
G01 X26.6414 Y1.7123
G01 X26.6378 Y1.7415
G01 X26.6354 Y1.7733
G01 X26.6252 Y1.9847
G00 X26.6252 Y1.9847
G01 F60.00
G01 Z-1.8000
G01 F120.00
G01 X26.6354 Y1.7733
G01 X26.6378 Y1.7415
G01 X26.6414 Y1.7123
G01 X26.6702 Y1.5181
G01 X26.6757 Y1.4867
G01 X26.6822 Y1.4580
G01 X26.7299 Y1.2676
G01 X26.7384 Y1.2368
G01 X26.7477 Y1.2089
G01 X26.8138 Y1.0241
G01 X26.8253 Y0.9943
G01 X26.8373 Y0.9674
G01 X26.9212 Y0.7900
G01 X26.9344 Y0.7637
G01 X26.9501 Y0.7359
G01 X27.0510 Y0.5675
G01 X27.0668 Y0.5427
G01 X27.0851 Y0.5165
G01 X27.2020 Y0.3589
G01 X27.2201 Y0.3357
G01 X27.2409 Y0.3115
G01 X27.3727 Y0.1661
G01 X27.3930 Y0.1447
G01 X27.4161 Y0.1227
G01 X27.5615 Y-0.0091
G01 X27.5838 Y-0.0284
G01 X27.6089 Y-0.0480
G01 X27.7666 Y-0.1650
G01 X27.7906 Y-0.1819
G01 X27.8176 Y-0.1990
G01 X27.9859 Y-0.2999
G01 X28.0115 Y-0.3144
G01 X28.0400 Y-0.3288
G01 X28.2174 Y-0.4128
G01 X28.2444 Y-0.4247
G01 X28.2741 Y-0.4362
G01 X28.4589 Y-0.5024
G01 X28.4869 Y-0.5116
G01 X28.5176 Y-0.5202
G01 X28.7080 Y-0.5679
G01 X28.7367 Y-0.5743
G01 X28.7681 Y-0.5798
G01 X28.9623 Y-0.6086
G01 X28.9915 Y-0.6122
G01 X29.0233 Y-0.6146
G01 X29.2194 Y-0.6243
G01 X29.2500 Y-0.6250
G01 X51.2500 Y-0.6250
G01 X51.2807 Y-0.6243
G01 X51.4914 Y-0.6137
G01 X51.5085 Y-0.6122
G01 X51.5378 Y-0.6086
G01 X51.7319 Y-0.5798
G01 X51.7609 Y-0.5748
G01 X51.7921 Y-0.5679
G01 X51.9825 Y-0.5202
G01 X52.0132 Y-0.5116
G01 X52.0412 Y-0.5024
G01 X52.2260 Y-0.4362
G01 X52.2534 Y-0.4256
G01 X52.2826 Y-0.4128
G01 X52.4600 Y-0.3288
G01 X52.4885 Y-0.3144
G01 X52.5141 Y-0.2999
G01 X52.6825 Y-0.1990
G01 X52.7074 Y-0.1833
G01 X52.7335 Y-0.1650
G01 X52.8911 Y-0.0480
G01 X52.9162 Y-0.0284
G01 X52.9385 Y-0.0091
G01 X53.0840 Y0.1227
G01 X53.1053 Y0.1430
G01 X53.1273 Y0.1661
G01 X53.2591 Y0.3115
G01 X53.2799 Y0.3357
G01 X53.2981 Y0.3589
G01 X53.4150 Y0.5165
G01 X53.4333 Y0.5427
G01 X53.4491 Y0.5675
G01 X53.5500 Y0.7359
G01 X53.5656 Y0.7637
G01 X53.5789 Y0.7900
G01 X53.6689 Y0.9808
G01 X53.6757 Y0.9966
G01 X53.6863 Y1.0241
G01 X53.7524 Y1.2089
G01 X53.7616 Y1.2368
G01 X53.7702 Y1.2676
G01 X53.8179 Y1.4580
G01 X53.8243 Y1.4867
G01 X53.8298 Y1.5181
G01 X53.8586 Y1.7123
G01 X53.8622 Y1.7415
G01 X53.8647 Y1.7733
G01 X53.8743 Y1.9693
G01 X53.8750 Y2.0000
G01 X53.8749 Y59.0147
G01 X53.8647 Y59.2267
G01 X53.8625 Y59.2561
G01 X53.8586 Y59.2877
G01 X53.8298 Y59.4819
G01 X53.8243 Y59.5133
G01 X53.8179 Y59.5420
G01 X53.7702 Y59.7324
G01 X53.7616 Y59.7632
G01 X53.7524 Y59.7911
G01 X53.6863 Y59.9759
G01 X53.6747 Y60.0057
G01 X53.6628 Y60.0326
G01 X53.5789 Y60.2100
G01 X53.5645 Y60.2385
G01 X53.5500 Y60.2641
G01 X53.4491 Y60.4325
G01 X53.4333 Y60.4573
G01 X53.4150 Y60.4835
G01 X53.2981 Y60.6411
G01 X53.2799 Y60.6643
G01 X53.2591 Y60.6885
G01 X53.1273 Y60.8339
G01 X53.1053 Y60.8570
G01 X53.0840 Y60.8773
G01 X52.9385 Y61.0091
G01 X52.9162 Y61.0284
G01 X52.8911 Y61.0480
G01 X52.7335 Y61.1650
G01 X52.7094 Y61.1819
G01 X52.6825 Y61.1990
G01 X52.5141 Y61.2999
G01 X52.4864 Y61.3156
G01 X52.4600 Y61.3288
G01 X52.2692 Y61.4189
G01 X52.2534 Y61.4256
G01 X52.2260 Y61.4362
G01 X52.0412 Y61.5024
G01 X52.0132 Y61.5116
G01 X51.9825 Y61.5202
G01 X51.7921 Y61.5679
G01 X51.7633 Y61.5743
G01 X51.7319 Y61.5798
G01 X51.5378 Y61.6086
G01 X51.5085 Y61.6122
G01 X51.4767 Y61.6146
G01 X51.2807 Y61.6243
G01 X51.2500 Y61.6250
G01 X42.7353 Y61.6248
G01 X42.7181 Y61.6242
G01 X42.6888 Y61.6220
G01 X42.6571 Y61.6180
G01 X42.6281 Y61.6130
G01 X42.5994 Y61.6066
G01 X42.5686 Y61.5981
G01 X42.5406 Y61.5889
G01 X42.5108 Y61.5774
G01 X42.4817 Y61.5645
G01 X42.4554 Y61.5512
G01 X42.4277 Y61.5354
G01 X42.4028 Y61.5197
G01 X42.3787 Y61.5027
G01 X42.3535 Y61.4831
G01 X42.3312 Y61.4639
G01 X42.3081 Y61.4420
G01 X42.2878 Y61.4206
G01 X42.2669 Y61.3965
G01 X42.2488 Y61.3733
G01 X42.2303 Y61.3472
G01 X42.2133 Y61.3203
G01 X42.1988 Y61.2946
G01 X42.1845 Y61.2661
G01 X42.1726 Y61.2392
G01 X42.1612 Y61.2094
G01 X42.1519 Y61.1814
G01 X42.1435 Y61.1507
G01 X42.1370 Y61.1219
G01 X42.1316 Y61.0905
G01 X42.1280 Y61.0613
G01 X42.1259 Y61.0319
G01 X42.1252 Y61.0147
G01 X42.1250 Y52.6250
G01 X37.8750 Y52.6250
G01 X37.8750 Y53.3877
G01 X37.9031 Y53.3940
G01 X37.9315 Y53.4019
G01 X37.9594 Y53.4111
G01 X37.9892 Y53.4226
G01 X38.0183 Y53.4355
G01 X38.0447 Y53.4488
G01 X38.0724 Y53.4646
G01 X38.0973 Y53.4803
G01 X38.1213 Y53.4973
G01 X38.1465 Y53.5169
G01 X38.1688 Y53.5361
G01 X38.1920 Y53.5580
G01 X38.2139 Y53.5812
G01 X38.2332 Y53.6035
G01 X38.2527 Y53.6287
G01 X38.2697 Y53.6528
G01 X38.2867 Y53.6797
G01 X38.3012 Y53.7054
G01 X38.3145 Y53.7317
G01 X38.3275 Y53.7608
G01 X38.3381 Y53.7883
G01 X38.3481 Y53.8186
G01 X38.3566 Y53.8493
G01 X38.3630 Y53.8781
G01 X38.3681 Y53.9071
G01 X38.3720 Y53.9387
G01 X38.3742 Y53.9681
G01 X38.3749 Y53.9853
G01 X38.3750 Y61.0000
G01 X38.3743 Y61.0294
G01 X38.3720 Y61.0613
G01 X38.3681 Y61.0929
G01 X38.3630 Y61.1219
G01 X38.3566 Y61.1507
G01 X38.3481 Y61.1814
G01 X38.3381 Y61.2117
G01 X38.3275 Y61.2392
G01 X38.3155 Y61.2661
G01 X38.3012 Y61.2946
G01 X38.2867 Y61.3203
G01 X38.2697 Y61.3472
G01 X38.2513 Y61.3733
G01 X38.2332 Y61.3965
G01 X38.2139 Y61.4188
G01 X38.1920 Y61.4420
G01 X38.1688 Y61.4639
G01 X38.1465 Y61.4831
G01 X38.1233 Y61.5013
G01 X38.0973 Y61.5197
G01 X38.0703 Y61.5367
G01 X38.0447 Y61.5512
G01 X38.0183 Y61.5645
G01 X37.9892 Y61.5774
G01 X37.9594 Y61.5889
G01 X37.9315 Y61.5981
G01 X37.9007 Y61.6066
G01 X37.8720 Y61.6130
G01 X37.8429 Y61.6180
G01 X37.8113 Y61.6220
G01 X37.7819 Y61.6242
G01 X37.7500 Y61.6250
G01 X29.2500 Y61.6250
G01 X29.2194 Y61.6243
G01 X29.0233 Y61.6146
G01 X28.9940 Y61.6125
G01 X28.9623 Y61.6086
G01 X28.7681 Y61.5798
G01 X28.7391 Y61.5748
G01 X28.7080 Y61.5679
G01 X28.5176 Y61.5202
G01 X28.4869 Y61.5116
G01 X28.4589 Y61.5024
G01 X28.2741 Y61.4362
G01 X28.2466 Y61.4256
G01 X28.2174 Y61.4128
G01 X28.0400 Y61.3288
G01 X28.0115 Y61.3144
G01 X27.9859 Y61.2999
G01 X27.8176 Y61.1990
G01 X27.7906 Y61.1819
G01 X27.7666 Y61.1650
G01 X27.6089 Y61.0480
G01 X27.5857 Y61.0299
G01 X27.5615 Y61.0091
G01 X27.4161 Y60.8773
G01 X27.3948 Y60.8570
G01 X27.3727 Y60.8339
G01 X27.2409 Y60.6885
G01 X27.2201 Y60.6643
G01 X27.2020 Y60.6411
G01 X27.0851 Y60.4835
G01 X27.0681 Y60.4594
G01 X27.0510 Y60.4325
G01 X26.9501 Y60.2641
G01 X26.9344 Y60.2363
G01 X26.9212 Y60.2100
G01 X26.8311 Y60.0192
G01 X26.8244 Y60.0034
G01 X26.8138 Y59.9759
G01 X26.7477 Y59.7911
G01 X26.7384 Y59.7632
G01 X26.7299 Y59.7324
G01 X26.6822 Y59.5420
G01 X26.6757 Y59.5133
G01 X26.6702 Y59.4819
G01 X26.6414 Y59.2877
G01 X26.6378 Y59.2585
G01 X26.6354 Y59.2267
G01 X26.6258 Y59.0307
G01 X26.6250 Y59.0000
G01 X26.6252 Y1.9847
G00 Z1.0000
G00 X23.0000 Y25.1250
G01 F60.00
G01 Z-0.5000
G01 F120.00
G01 X23.0307 Y25.1242
G01 X23.0613 Y25.1220
G01 X23.0917 Y25.1182
G01 X23.1219 Y25.1130
G01 X23.1519 Y25.1063
G01 X23.1814 Y25.0981
G01 X23.2105 Y25.0885
G01 X23.2392 Y25.0774
G01 X23.2672 Y25.0650
G01 X23.2946 Y25.0512
G01 X23.3213 Y25.0361
G01 X23.3472 Y25.0197
G01 X23.3723 Y25.0020
G01 X23.3965 Y24.9831
G01 X23.4197 Y24.9631
G01 X23.4367 Y24.9471
G01 X23.4581 Y24.9251
G01 X23.4784 Y24.9022
G01 X23.4976 Y24.8782
G01 X23.5155 Y24.8533
G01 X23.5323 Y24.8276
G01 X23.5477 Y24.8011
G01 X23.5618 Y24.7739
G01 X23.5746 Y24.7460
G01 X23.5859 Y24.7175
G01 X23.5959 Y24.6885
G01 X23.6044 Y24.6590
G01 X23.6115 Y24.6291
G01 X23.6171 Y24.5990
G01 X23.6212 Y24.5686
G01 X23.6238 Y24.5386
G01 X23.6249 Y24.5080
G01 X23.6248 Y24.4847
G01 X23.6233 Y24.4540
G01 X23.6203 Y24.4235
G01 X23.6158 Y24.3932
G01 X23.6098 Y24.3631
G01 X23.6024 Y24.3333
G01 X23.5935 Y24.3039
G01 X23.5831 Y24.2751
G01 X23.5714 Y24.2467
G01 X23.5583 Y24.2190
G01 X23.5438 Y24.1919
G01 X23.5280 Y24.1656
G01 X23.5110 Y24.1401
G01 X23.4927 Y24.1155
G01 X23.4733 Y24.0918
G01 X23.4526 Y24.0690
G01 X23.4310 Y24.0474
G01 X23.4082 Y24.0267
G01 X23.3845 Y24.0073
G01 X23.3599 Y23.9890
G01 X23.3344 Y23.9720
G01 X23.3081 Y23.9562
G01 X23.2810 Y23.9417
G01 X23.2533 Y23.9286
G01 X23.2249 Y23.9169
G01 X23.1961 Y23.9065
G01 X23.1667 Y23.8976
G01 X23.1369 Y23.8902
G01 X23.1068 Y23.8842
G01 X23.0765 Y23.8797
G01 X23.0460 Y23.8767
G01 X23.0227 Y23.8754
G01 X23.0000 Y23.8750
G01 X3.9847 Y23.8752
G01 X3.9540 Y23.8767
G01 X3.9235 Y23.8797
G01 X3.8932 Y23.8842
G01 X3.8631 Y23.8902
G01 X3.8333 Y23.8976
G01 X3.8039 Y23.9065
G01 X3.7751 Y23.9169
G01 X3.7535 Y23.9257
G01 X3.7256 Y23.9385
G01 X3.6989 Y23.9523
G01 X3.6724 Y23.9677
G01 X3.6467 Y23.9845
G01 X3.6277 Y23.9980
G01 X3.6035 Y24.0169
G01 X3.5803 Y24.0369
G01 X3.5581 Y24.0581
G01 X3.5369 Y24.0803
G01 X3.5169 Y24.1035
G01 X3.4980 Y24.1277
G01 X3.4845 Y24.1467
G01 X3.4677 Y24.1724
G01 X3.4523 Y24.1989
G01 X3.4382 Y24.2261
G01 X3.4257 Y24.2535
G01 X3.4169 Y24.2751
G01 X3.4065 Y24.3040
G01 X3.3976 Y24.3333
G01 X3.3902 Y24.3631
G01 X3.3842 Y24.3931
G01 X3.3797 Y24.4235
G01 X3.3767 Y24.4540
G01 X3.3754 Y24.4773
G01 X3.3751 Y24.5080
G01 X3.3762 Y24.5386
G01 X3.3788 Y24.5692
G01 X3.3830 Y24.5996
G01 X3.3886 Y24.6297
G01 X3.3957 Y24.6596
G01 X3.4043 Y24.6890
G01 X3.4143 Y24.7180
G01 X3.4257 Y24.7465
G01 X3.4385 Y24.7744
G01 X3.4526 Y24.8016
G01 X3.4681 Y24.8281
G01 X3.4848 Y24.8538
G01 X3.5028 Y24.8787
G01 X3.5220 Y24.9026
G01 X3.5423 Y24.9256
G01 X3.5637 Y24.9475
G01 X3.5862 Y24.9684
G01 X3.6097 Y24.9882
G01 X3.6341 Y25.0067
G01 X3.6594 Y25.0241
G01 X3.6856 Y25.0401
G01 X3.7124 Y25.0549
G01 X3.7400 Y25.0684
G01 X3.7682 Y25.0804
G01 X3.7970 Y25.0911
G01 X3.8262 Y25.1004
G01 X3.8559 Y25.1082
G01 X3.8859 Y25.1145
G01 X3.9162 Y25.1194
G01 X3.9467 Y25.1227
G01 X3.9773 Y25.1246
G01 X4.0000 Y25.1250
G01 X23.0000 Y25.1250
G00 X23.0000 Y25.1250
G01 F60.00
G01 Z-1.0000
G01 F120.00
G01 X4.0000 Y25.1250
G01 X3.9773 Y25.1246
G01 X3.9467 Y25.1227
G01 X3.9162 Y25.1194
G01 X3.8859 Y25.1145
G01 X3.8559 Y25.1082
G01 X3.8262 Y25.1004
G01 X3.7970 Y25.0911
G01 X3.7682 Y25.0804
G01 X3.7400 Y25.0684
G01 X3.7124 Y25.0549
G01 X3.6856 Y25.0401
G01 X3.6594 Y25.0241
G01 X3.6341 Y25.0067
G01 X3.6097 Y24.9882
G01 X3.5862 Y24.9684
G01 X3.5637 Y24.9475
G01 X3.5423 Y24.9256
G01 X3.5220 Y24.9026
G01 X3.5028 Y24.8787
G01 X3.4848 Y24.8538
G01 X3.4681 Y24.8281
G01 X3.4526 Y24.8016
G01 X3.4385 Y24.7744
G01 X3.4257 Y24.7465
G01 X3.4143 Y24.7180
G01 X3.4043 Y24.6890
G01 X3.3957 Y24.6596
G01 X3.3886 Y24.6297
G01 X3.3830 Y24.5996
G01 X3.3788 Y24.5692
G01 X3.3762 Y24.5386
G01 X3.3751 Y24.5080
G01 X3.3754 Y24.4773
G01 X3.3767 Y24.4540
G01 X3.3797 Y24.4235
G01 X3.3842 Y24.3931
G01 X3.3902 Y24.3631
G01 X3.3976 Y24.3333
G01 X3.4065 Y24.3040
G01 X3.4169 Y24.2751
G01 X3.4257 Y24.2535
G01 X3.4382 Y24.2261
G01 X3.4523 Y24.1989
G01 X3.4677 Y24.1724
G01 X3.4845 Y24.1467
G01 X3.4980 Y24.1277
G01 X3.5169 Y24.1035
G01 X3.5369 Y24.0803
G01 X3.5581 Y24.0581
G01 X3.5803 Y24.0369
G01 X3.6035 Y24.0169
G01 X3.6277 Y23.9980
G01 X3.6467 Y23.9845
G01 X3.6724 Y23.9677
G01 X3.6989 Y23.9523
G01 X3.7256 Y23.9385
G01 X3.7535 Y23.9257
G01 X3.7751 Y23.9169
G01 X3.8039 Y23.9065
G01 X3.8333 Y23.8976
G01 X3.8631 Y23.8902
G01 X3.8932 Y23.8842
G01 X3.9235 Y23.8797
G01 X3.9540 Y23.8767
G01 X3.9847 Y23.8752
G01 X23.0000 Y23.8750
G01 X23.0227 Y23.8754
G01 X23.0460 Y23.8767
G01 X23.0765 Y23.8797
G01 X23.1068 Y23.8842
G01 X23.1369 Y23.8902
G01 X23.1667 Y23.8976
G01 X23.1961 Y23.9065
G01 X23.2249 Y23.9169
G01 X23.2533 Y23.9286
G01 X23.2810 Y23.9417
G01 X23.3081 Y23.9562
G01 X23.3344 Y23.9720
G01 X23.3599 Y23.9890
G01 X23.3845 Y24.0073
G01 X23.4082 Y24.0267
G01 X23.4310 Y24.0474
G01 X23.4526 Y24.0690
G01 X23.4733 Y24.0918
G01 X23.4927 Y24.1155
G01 X23.5110 Y24.1401
G01 X23.5280 Y24.1656
G01 X23.5438 Y24.1919
G01 X23.5583 Y24.2190
G01 X23.5714 Y24.2467
G01 X23.5831 Y24.2751
G01 X23.5935 Y24.3039
G01 X23.6024 Y24.3333
G01 X23.6098 Y24.3631
G01 X23.6158 Y24.3932
G01 X23.6203 Y24.4235
G01 X23.6233 Y24.4540
G01 X23.6248 Y24.4847
G01 X23.6249 Y24.5080
G01 X23.6238 Y24.5386
G01 X23.6212 Y24.5686
G01 X23.6171 Y24.5990
G01 X23.6115 Y24.6291
G01 X23.6044 Y24.6590
G01 X23.5959 Y24.6885
G01 X23.5859 Y24.7175
G01 X23.5746 Y24.7460
G01 X23.5618 Y24.7739
G01 X23.5477 Y24.8011
G01 X23.5323 Y24.8276
G01 X23.5155 Y24.8533
G01 X23.4976 Y24.8782
G01 X23.4784 Y24.9022
G01 X23.4581 Y24.9251
G01 X23.4367 Y24.9471
G01 X23.4197 Y24.9631
G01 X23.3965 Y24.9831
G01 X23.3723 Y25.0020
G01 X23.3472 Y25.0197
G01 X23.3213 Y25.0361
G01 X23.2946 Y25.0512
G01 X23.2672 Y25.0650
G01 X23.2392 Y25.0774
G01 X23.2105 Y25.0885
G01 X23.1814 Y25.0981
G01 X23.1519 Y25.1063
G01 X23.1219 Y25.1130
G01 X23.0917 Y25.1182
G01 X23.0613 Y25.1220
G01 X23.0307 Y25.1242
G01 X23.0000 Y25.1250
G00 X23.0000 Y25.1250
G01 F60.00
G01 Z-1.5000
G01 F120.00
G01 X23.0307 Y25.1242
G01 X23.0613 Y25.1220
G01 X23.0917 Y25.1182
G01 X23.1219 Y25.1130
G01 X23.1519 Y25.1063
G01 X23.1814 Y25.0981
G01 X23.2105 Y25.0885
G01 X23.2392 Y25.0774
G01 X23.2672 Y25.0650
G01 X23.2946 Y25.0512
G01 X23.3213 Y25.0361
G01 X23.3472 Y25.0197
G01 X23.3723 Y25.0020
G01 X23.3965 Y24.9831
G01 X23.4197 Y24.9631
G01 X23.4367 Y24.9471
G01 X23.4581 Y24.9251
G01 X23.4784 Y24.9022
G01 X23.4976 Y24.8782
G01 X23.5155 Y24.8533
G01 X23.5323 Y24.8276
G01 X23.5477 Y24.8011
G01 X23.5618 Y24.7739
G01 X23.5746 Y24.7460
G01 X23.5859 Y24.7175
G01 X23.5959 Y24.6885
G01 X23.6044 Y24.6590
G01 X23.6115 Y24.6291
G01 X23.6171 Y24.5990
G01 X23.6212 Y24.5686
G01 X23.6238 Y24.5386
G01 X23.6249 Y24.5080
G01 X23.6248 Y24.4847
G01 X23.6233 Y24.4540
G01 X23.6203 Y24.4235
G01 X23.6158 Y24.3932
G01 X23.6098 Y24.3631
G01 X23.6024 Y24.3333
G01 X23.5935 Y24.3039
G01 X23.5831 Y24.2751
G01 X23.5714 Y24.2467
G01 X23.5583 Y24.2190
G01 X23.5438 Y24.1919
G01 X23.5280 Y24.1656
G01 X23.5110 Y24.1401
G01 X23.4927 Y24.1155
G01 X23.4733 Y24.0918
G01 X23.4526 Y24.0690
G01 X23.4310 Y24.0474
G01 X23.4082 Y24.0267
G01 X23.3845 Y24.0073
G01 X23.3599 Y23.9890
G01 X23.3344 Y23.9720
G01 X23.3081 Y23.9562
G01 X23.2810 Y23.9417
G01 X23.2533 Y23.9286
G01 X23.2249 Y23.9169
G01 X23.1961 Y23.9065
G01 X23.1667 Y23.8976
G01 X23.1369 Y23.8902
G01 X23.1068 Y23.8842
G01 X23.0765 Y23.8797
G01 X23.0460 Y23.8767
G01 X23.0227 Y23.8754
G01 X23.0000 Y23.8750
G01 X3.9847 Y23.8752
G01 X3.9540 Y23.8767
G01 X3.9235 Y23.8797
G01 X3.8932 Y23.8842
G01 X3.8631 Y23.8902
G01 X3.8333 Y23.8976
G01 X3.8039 Y23.9065
G01 X3.7751 Y23.9169
G01 X3.7535 Y23.9257
G01 X3.7256 Y23.9385
G01 X3.6989 Y23.9523
G01 X3.6724 Y23.9677
G01 X3.6467 Y23.9845
G01 X3.6277 Y23.9980
G01 X3.6035 Y24.0169
G01 X3.5803 Y24.0369
G01 X3.5581 Y24.0581
G01 X3.5369 Y24.0803
G01 X3.5169 Y24.1035
G01 X3.4980 Y24.1277
G01 X3.4845 Y24.1467
G01 X3.4677 Y24.1724
G01 X3.4523 Y24.1989
G01 X3.4382 Y24.2261
G01 X3.4257 Y24.2535
G01 X3.4169 Y24.2751
G01 X3.4065 Y24.3040
G01 X3.3976 Y24.3333
G01 X3.3902 Y24.3631
G01 X3.3842 Y24.3931
G01 X3.3797 Y24.4235
G01 X3.3767 Y24.4540
G01 X3.3754 Y24.4773
G01 X3.3751 Y24.5080
G01 X3.3762 Y24.5386
G01 X3.3788 Y24.5692
G01 X3.3830 Y24.5996
G01 X3.3886 Y24.6297
G01 X3.3957 Y24.6596
G01 X3.4043 Y24.6890
G01 X3.4143 Y24.7180
G01 X3.4257 Y24.7465
G01 X3.4385 Y24.7744
G01 X3.4526 Y24.8016
G01 X3.4681 Y24.8281
G01 X3.4848 Y24.8538
G01 X3.5028 Y24.8787
G01 X3.5220 Y24.9026
G01 X3.5423 Y24.9256
G01 X3.5637 Y24.9475
G01 X3.5862 Y24.9684
G01 X3.6097 Y24.9882
G01 X3.6341 Y25.0067
G01 X3.6594 Y25.0241
G01 X3.6856 Y25.0401
G01 X3.7124 Y25.0549
G01 X3.7400 Y25.0684
G01 X3.7682 Y25.0804
G01 X3.7970 Y25.0911
G01 X3.8262 Y25.1004
G01 X3.8559 Y25.1082
G01 X3.8859 Y25.1145
G01 X3.9162 Y25.1194
G01 X3.9467 Y25.1227
G01 X3.9773 Y25.1246
G01 X4.0000 Y25.1250
G01 X23.0000 Y25.1250
G00 X23.0000 Y25.1250
G01 F60.00
G01 Z-1.8000
G01 F120.00
G01 X4.0000 Y25.1250
G01 X3.9773 Y25.1246
G01 X3.9467 Y25.1227
G01 X3.9162 Y25.1194
G01 X3.8859 Y25.1145
G01 X3.8559 Y25.1082
G01 X3.8262 Y25.1004
G01 X3.7970 Y25.0911
G01 X3.7682 Y25.0804
G01 X3.7400 Y25.0684
G01 X3.7124 Y25.0549
G01 X3.6856 Y25.0401
G01 X3.6594 Y25.0241
G01 X3.6341 Y25.0067
G01 X3.6097 Y24.9882
G01 X3.5862 Y24.9684
G01 X3.5637 Y24.9475
G01 X3.5423 Y24.9256
G01 X3.5220 Y24.9026
G01 X3.5028 Y24.8787
G01 X3.4848 Y24.8538
G01 X3.4681 Y24.8281
G01 X3.4526 Y24.8016
G01 X3.4385 Y24.7744
G01 X3.4257 Y24.7465
G01 X3.4143 Y24.7180
G01 X3.4043 Y24.6890
G01 X3.3957 Y24.6596
G01 X3.3886 Y24.6297
G01 X3.3830 Y24.5996
G01 X3.3788 Y24.5692
G01 X3.3762 Y24.5386
G01 X3.3751 Y24.5080
G01 X3.3754 Y24.4773
G01 X3.3767 Y24.4540
G01 X3.3797 Y24.4235
G01 X3.3842 Y24.3931
G01 X3.3902 Y24.3631
G01 X3.3976 Y24.3333
G01 X3.4065 Y24.3040
G01 X3.4169 Y24.2751
G01 X3.4257 Y24.2535
G01 X3.4382 Y24.2261
G01 X3.4523 Y24.1989
G01 X3.4677 Y24.1724
G01 X3.4845 Y24.1467
G01 X3.4980 Y24.1277
G01 X3.5169 Y24.1035
G01 X3.5369 Y24.0803
G01 X3.5581 Y24.0581
G01 X3.5803 Y24.0369
G01 X3.6035 Y24.0169
G01 X3.6277 Y23.9980
G01 X3.6467 Y23.9845
G01 X3.6724 Y23.9677
G01 X3.6989 Y23.9523
G01 X3.7256 Y23.9385
G01 X3.7535 Y23.9257
G01 X3.7751 Y23.9169
G01 X3.8039 Y23.9065
G01 X3.8333 Y23.8976
G01 X3.8631 Y23.8902
G01 X3.8932 Y23.8842
G01 X3.9235 Y23.8797
G01 X3.9540 Y23.8767
G01 X3.9847 Y23.8752
G01 X23.0000 Y23.8750
G01 X23.0227 Y23.8754
G01 X23.0460 Y23.8767
G01 X23.0765 Y23.8797
G01 X23.1068 Y23.8842
G01 X23.1369 Y23.8902
G01 X23.1667 Y23.8976
G01 X23.1961 Y23.9065
G01 X23.2249 Y23.9169
G01 X23.2533 Y23.9286
G01 X23.2810 Y23.9417
G01 X23.3081 Y23.9562
G01 X23.3344 Y23.9720
G01 X23.3599 Y23.9890
G01 X23.3845 Y24.0073
G01 X23.4082 Y24.0267
G01 X23.4310 Y24.0474
G01 X23.4526 Y24.0690
G01 X23.4733 Y24.0918
G01 X23.4927 Y24.1155
G01 X23.5110 Y24.1401
G01 X23.5280 Y24.1656
G01 X23.5438 Y24.1919
G01 X23.5583 Y24.2190
G01 X23.5714 Y24.2467
G01 X23.5831 Y24.2751
G01 X23.5935 Y24.3039
G01 X23.6024 Y24.3333
G01 X23.6098 Y24.3631
G01 X23.6158 Y24.3932
G01 X23.6203 Y24.4235
G01 X23.6233 Y24.4540
G01 X23.6248 Y24.4847
G01 X23.6249 Y24.5080
G01 X23.6238 Y24.5386
G01 X23.6212 Y24.5686
G01 X23.6171 Y24.5990
G01 X23.6115 Y24.6291
G01 X23.6044 Y24.6590
G01 X23.5959 Y24.6885
G01 X23.5859 Y24.7175
G01 X23.5746 Y24.7460
G01 X23.5618 Y24.7739
G01 X23.5477 Y24.8011
G01 X23.5323 Y24.8276
G01 X23.5155 Y24.8533
G01 X23.4976 Y24.8782
G01 X23.4784 Y24.9022
G01 X23.4581 Y24.9251
G01 X23.4367 Y24.9471
G01 X23.4197 Y24.9631
G01 X23.3965 Y24.9831
G01 X23.3723 Y25.0020
G01 X23.3472 Y25.0197
G01 X23.3213 Y25.0361
G01 X23.2946 Y25.0512
G01 X23.2672 Y25.0650
G01 X23.2392 Y25.0774
G01 X23.2105 Y25.0885
G01 X23.1814 Y25.0981
G01 X23.1519 Y25.1063
G01 X23.1219 Y25.1130
G01 X23.0917 Y25.1182
G01 X23.0613 Y25.1220
G01 X23.0307 Y25.1242
G01 X23.0000 Y25.1250
G00 Z1.0000
G00 X50.2500 Y25.1250
G01 F60.00
G01 Z-0.5000
G01 F120.00
G01 X50.2807 Y25.1242
G01 X50.3113 Y25.1220
G01 X50.3417 Y25.1182
G01 X50.3719 Y25.1130
G01 X50.4019 Y25.1063
G01 X50.4314 Y25.0981
G01 X50.4606 Y25.0885
G01 X50.4892 Y25.0774
G01 X50.5172 Y25.0650
G01 X50.5446 Y25.0512
G01 X50.5713 Y25.0361
G01 X50.5972 Y25.0197
G01 X50.6223 Y25.0020
G01 X50.6465 Y24.9831
G01 X50.6697 Y24.9631
G01 X50.6867 Y24.9471
G01 X50.7081 Y24.9251
G01 X50.7284 Y24.9022
G01 X50.7476 Y24.8782
G01 X50.7655 Y24.8533
G01 X50.7823 Y24.8276
G01 X50.7977 Y24.8011
G01 X50.8118 Y24.7739
G01 X50.8246 Y24.7460
G01 X50.8359 Y24.7175
G01 X50.8459 Y24.6885
G01 X50.8544 Y24.6590
G01 X50.8615 Y24.6291
G01 X50.8671 Y24.5990
G01 X50.8712 Y24.5692
G01 X50.8738 Y24.5386
G01 X50.8749 Y24.5080
G01 X50.8748 Y24.4847
G01 X50.8733 Y24.4540
G01 X50.8703 Y24.4235
G01 X50.8658 Y24.3931
G01 X50.8598 Y24.3631
G01 X50.8524 Y24.3333
G01 X50.8435 Y24.3040
G01 X50.8331 Y24.2751
G01 X50.8214 Y24.2467
G01 X50.8083 Y24.2190
G01 X50.7938 Y24.1920
G01 X50.7780 Y24.1656
G01 X50.7610 Y24.1401
G01 X50.7427 Y24.1155
G01 X50.7233 Y24.0918
G01 X50.7027 Y24.0690
G01 X50.6810 Y24.0474
G01 X50.6582 Y24.0268
G01 X50.6345 Y24.0073
G01 X50.6099 Y23.9890
G01 X50.5844 Y23.9720
G01 X50.5581 Y23.9562
G01 X50.5310 Y23.9417
G01 X50.5033 Y23.9286
G01 X50.4749 Y23.9169
G01 X50.4460 Y23.9065
G01 X50.4167 Y23.8976
G01 X50.3869 Y23.8902
G01 X50.3568 Y23.8842
G01 X50.3265 Y23.8797
G01 X50.2960 Y23.8767
G01 X50.2727 Y23.8754
G01 X50.2500 Y23.8750
G01 X31.2347 Y23.8752
G01 X31.2040 Y23.8767
G01 X31.1735 Y23.8797
G01 X31.1432 Y23.8842
G01 X31.1131 Y23.8902
G01 X31.0833 Y23.8976
G01 X31.0539 Y23.9065
G01 X31.0251 Y23.9169
G01 X31.0035 Y23.9257
G01 X30.9756 Y23.9385
G01 X30.9484 Y23.9526
G01 X30.9224 Y23.9677
G01 X30.8967 Y23.9845
G01 X30.8777 Y23.9980
G01 X30.8535 Y24.0169
G01 X30.8303 Y24.0369
G01 X30.8081 Y24.0581
G01 X30.7869 Y24.0803
G01 X30.7669 Y24.1035
G01 X30.7480 Y24.1277
G01 X30.7345 Y24.1467
G01 X30.7177 Y24.1724
G01 X30.7026 Y24.1984
G01 X30.6885 Y24.2256
G01 X30.6757 Y24.2535
G01 X30.6669 Y24.2751
G01 X30.6565 Y24.3039
G01 X30.6476 Y24.3333
G01 X30.6402 Y24.3631
G01 X30.6342 Y24.3932
G01 X30.6297 Y24.4235
G01 X30.6267 Y24.4540
G01 X30.6254 Y24.4773
G01 X30.6251 Y24.5080
G01 X30.6262 Y24.5386
G01 X30.6288 Y24.5692
G01 X30.6330 Y24.5996
G01 X30.6386 Y24.6297
G01 X30.6457 Y24.6596
G01 X30.6543 Y24.6890
G01 X30.6643 Y24.7180
G01 X30.6757 Y24.7465
G01 X30.6885 Y24.7744
G01 X30.7026 Y24.8016
G01 X30.7181 Y24.8281
G01 X30.7348 Y24.8538
G01 X30.7528 Y24.8787
G01 X30.7720 Y24.9026
G01 X30.7923 Y24.9256
G01 X30.8137 Y24.9475
G01 X30.8362 Y24.9684
G01 X30.8597 Y24.9882
G01 X30.8841 Y25.0067
G01 X30.9094 Y25.0241
G01 X30.9356 Y25.0401
G01 X30.9624 Y25.0549
G01 X30.9900 Y25.0684
G01 X31.0182 Y25.0804
G01 X31.0470 Y25.0911
G01 X31.0762 Y25.1004
G01 X31.1059 Y25.1082
G01 X31.1359 Y25.1145
G01 X31.1662 Y25.1194
G01 X31.1967 Y25.1227
G01 X31.2273 Y25.1246
G01 X31.2500 Y25.1250
G01 X50.2500 Y25.1250
G00 X50.2500 Y25.1250
G01 F60.00
G01 Z-1.0000
G01 F120.00
G01 X31.2500 Y25.1250
G01 X31.2273 Y25.1246
G01 X31.1967 Y25.1227
G01 X31.1662 Y25.1194
G01 X31.1359 Y25.1145
G01 X31.1059 Y25.1082
G01 X31.0762 Y25.1004
G01 X31.0470 Y25.0911
G01 X31.0182 Y25.0804
G01 X30.9900 Y25.0684
G01 X30.9624 Y25.0549
G01 X30.9356 Y25.0401
G01 X30.9094 Y25.0241
G01 X30.8841 Y25.0067
G01 X30.8597 Y24.9882
G01 X30.8362 Y24.9684
G01 X30.8137 Y24.9475
G01 X30.7923 Y24.9256
G01 X30.7720 Y24.9026
G01 X30.7528 Y24.8787
G01 X30.7348 Y24.8538
G01 X30.7181 Y24.8281
G01 X30.7026 Y24.8016
G01 X30.6885 Y24.7744
G01 X30.6757 Y24.7465
G01 X30.6643 Y24.7180
G01 X30.6543 Y24.6890
G01 X30.6457 Y24.6596
G01 X30.6386 Y24.6297
G01 X30.6330 Y24.5996
G01 X30.6288 Y24.5692
G01 X30.6262 Y24.5386
G01 X30.6251 Y24.5080
G01 X30.6254 Y24.4773
G01 X30.6267 Y24.4540
G01 X30.6297 Y24.4235
G01 X30.6342 Y24.3932
G01 X30.6402 Y24.3631
G01 X30.6476 Y24.3333
G01 X30.6565 Y24.3039
G01 X30.6669 Y24.2751
G01 X30.6757 Y24.2535
G01 X30.6885 Y24.2256
G01 X30.7026 Y24.1984
G01 X30.7177 Y24.1724
G01 X30.7345 Y24.1467
G01 X30.7480 Y24.1277
G01 X30.7669 Y24.1035
G01 X30.7869 Y24.0803
G01 X30.8081 Y24.0581
G01 X30.8303 Y24.0369
G01 X30.8535 Y24.0169
G01 X30.8777 Y23.9980
G01 X30.8967 Y23.9845
G01 X30.9224 Y23.9677
G01 X30.9484 Y23.9526
G01 X30.9756 Y23.9385
G01 X31.0035 Y23.9257
G01 X31.0251 Y23.9169
G01 X31.0539 Y23.9065
G01 X31.0833 Y23.8976
G01 X31.1131 Y23.8902
G01 X31.1432 Y23.8842
G01 X31.1735 Y23.8797
G01 X31.2040 Y23.8767
G01 X31.2347 Y23.8752
G01 X50.2500 Y23.8750
G01 X50.2727 Y23.8754
G01 X50.2960 Y23.8767
G01 X50.3265 Y23.8797
G01 X50.3568 Y23.8842
G01 X50.3869 Y23.8902
G01 X50.4167 Y23.8976
G01 X50.4460 Y23.9065
G01 X50.4749 Y23.9169
G01 X50.5033 Y23.9286
G01 X50.5310 Y23.9417
G01 X50.5581 Y23.9562
G01 X50.5844 Y23.9720
G01 X50.6099 Y23.9890
G01 X50.6345 Y24.0073
G01 X50.6582 Y24.0268
G01 X50.6810 Y24.0474
G01 X50.7027 Y24.0690
G01 X50.7233 Y24.0918
G01 X50.7427 Y24.1155
G01 X50.7610 Y24.1401
G01 X50.7780 Y24.1656
G01 X50.7938 Y24.1920
G01 X50.8083 Y24.2190
G01 X50.8214 Y24.2467
G01 X50.8331 Y24.2751
G01 X50.8435 Y24.3040
G01 X50.8524 Y24.3333
G01 X50.8598 Y24.3631
G01 X50.8658 Y24.3931
G01 X50.8703 Y24.4235
G01 X50.8733 Y24.4540
G01 X50.8748 Y24.4847
G01 X50.8749 Y24.5080
G01 X50.8738 Y24.5386
G01 X50.8712 Y24.5692
G01 X50.8671 Y24.5990
G01 X50.8615 Y24.6291
G01 X50.8544 Y24.6590
G01 X50.8459 Y24.6885
G01 X50.8359 Y24.7175
G01 X50.8246 Y24.7460
G01 X50.8118 Y24.7739
G01 X50.7977 Y24.8011
G01 X50.7823 Y24.8276
G01 X50.7655 Y24.8533
G01 X50.7476 Y24.8782
G01 X50.7284 Y24.9022
G01 X50.7081 Y24.9251
G01 X50.6867 Y24.9471
G01 X50.6697 Y24.9631
G01 X50.6465 Y24.9831
G01 X50.6223 Y25.0020
G01 X50.5972 Y25.0197
G01 X50.5713 Y25.0361
G01 X50.5446 Y25.0512
G01 X50.5172 Y25.0650
G01 X50.4892 Y25.0774
G01 X50.4606 Y25.0885
G01 X50.4314 Y25.0981
G01 X50.4019 Y25.1063
G01 X50.3719 Y25.1130
G01 X50.3417 Y25.1182
G01 X50.3113 Y25.1220
G01 X50.2807 Y25.1242
G01 X50.2500 Y25.1250
G00 X50.2500 Y25.1250
G01 F60.00
G01 Z-1.5000
G01 F120.00
G01 X50.2807 Y25.1242
G01 X50.3113 Y25.1220
G01 X50.3417 Y25.1182
G01 X50.3719 Y25.1130
G01 X50.4019 Y25.1063
G01 X50.4314 Y25.0981
G01 X50.4606 Y25.0885
G01 X50.4892 Y25.0774
G01 X50.5172 Y25.0650
G01 X50.5446 Y25.0512
G01 X50.5713 Y25.0361
G01 X50.5972 Y25.0197
G01 X50.6223 Y25.0020
G01 X50.6465 Y24.9831
G01 X50.6697 Y24.9631
G01 X50.6867 Y24.9471
G01 X50.7081 Y24.9251
G01 X50.7284 Y24.9022
G01 X50.7476 Y24.8782
G01 X50.7655 Y24.8533
G01 X50.7823 Y24.8276
G01 X50.7977 Y24.8011
G01 X50.8118 Y24.7739
G01 X50.8246 Y24.7460
G01 X50.8359 Y24.7175
G01 X50.8459 Y24.6885
G01 X50.8544 Y24.6590
G01 X50.8615 Y24.6291
G01 X50.8671 Y24.5990
G01 X50.8712 Y24.5692
G01 X50.8738 Y24.5386
G01 X50.8749 Y24.5080
G01 X50.8748 Y24.4847
G01 X50.8733 Y24.4540
G01 X50.8703 Y24.4235
G01 X50.8658 Y24.3931
G01 X50.8598 Y24.3631
G01 X50.8524 Y24.3333
G01 X50.8435 Y24.3040
G01 X50.8331 Y24.2751
G01 X50.8214 Y24.2467
G01 X50.8083 Y24.2190
G01 X50.7938 Y24.1920
G01 X50.7780 Y24.1656
G01 X50.7610 Y24.1401
G01 X50.7427 Y24.1155
G01 X50.7233 Y24.0918
G01 X50.7027 Y24.0690
G01 X50.6810 Y24.0474
G01 X50.6582 Y24.0268
G01 X50.6345 Y24.0073
G01 X50.6099 Y23.9890
G01 X50.5844 Y23.9720
G01 X50.5581 Y23.9562
G01 X50.5310 Y23.9417
G01 X50.5033 Y23.9286
G01 X50.4749 Y23.9169
G01 X50.4460 Y23.9065
G01 X50.4167 Y23.8976
G01 X50.3869 Y23.8902
G01 X50.3568 Y23.8842
G01 X50.3265 Y23.8797
G01 X50.2960 Y23.8767
G01 X50.2727 Y23.8754
G01 X50.2500 Y23.8750
G01 X31.2347 Y23.8752
G01 X31.2040 Y23.8767
G01 X31.1735 Y23.8797
G01 X31.1432 Y23.8842
G01 X31.1131 Y23.8902
G01 X31.0833 Y23.8976
G01 X31.0539 Y23.9065
G01 X31.0251 Y23.9169
G01 X31.0035 Y23.9257
G01 X30.9756 Y23.9385
G01 X30.9484 Y23.9526
G01 X30.9224 Y23.9677
G01 X30.8967 Y23.9845
G01 X30.8777 Y23.9980
G01 X30.8535 Y24.0169
G01 X30.8303 Y24.0369
G01 X30.8081 Y24.0581
G01 X30.7869 Y24.0803
G01 X30.7669 Y24.1035
G01 X30.7480 Y24.1277
G01 X30.7345 Y24.1467
G01 X30.7177 Y24.1724
G01 X30.7026 Y24.1984
G01 X30.6885 Y24.2256
G01 X30.6757 Y24.2535
G01 X30.6669 Y24.2751
G01 X30.6565 Y24.3039
G01 X30.6476 Y24.3333
G01 X30.6402 Y24.3631
G01 X30.6342 Y24.3932
G01 X30.6297 Y24.4235
G01 X30.6267 Y24.4540
G01 X30.6254 Y24.4773
G01 X30.6251 Y24.5080
G01 X30.6262 Y24.5386
G01 X30.6288 Y24.5692
G01 X30.6330 Y24.5996
G01 X30.6386 Y24.6297
G01 X30.6457 Y24.6596
G01 X30.6543 Y24.6890
G01 X30.6643 Y24.7180
G01 X30.6757 Y24.7465
G01 X30.6885 Y24.7744
G01 X30.7026 Y24.8016
G01 X30.7181 Y24.8281
G01 X30.7348 Y24.8538
G01 X30.7528 Y24.8787
G01 X30.7720 Y24.9026
G01 X30.7923 Y24.9256
G01 X30.8137 Y24.9475
G01 X30.8362 Y24.9684
G01 X30.8597 Y24.9882
G01 X30.8841 Y25.0067
G01 X30.9094 Y25.0241
G01 X30.9356 Y25.0401
G01 X30.9624 Y25.0549
G01 X30.9900 Y25.0684
G01 X31.0182 Y25.0804
G01 X31.0470 Y25.0911
G01 X31.0762 Y25.1004
G01 X31.1059 Y25.1082
G01 X31.1359 Y25.1145
G01 X31.1662 Y25.1194
G01 X31.1967 Y25.1227
G01 X31.2273 Y25.1246
G01 X31.2500 Y25.1250
G01 X50.2500 Y25.1250
G00 X50.2500 Y25.1250
G01 F60.00
G01 Z-1.8000
G01 F120.00
G01 X31.2500 Y25.1250
G01 X31.2273 Y25.1246
G01 X31.1967 Y25.1227
G01 X31.1662 Y25.1194
G01 X31.1359 Y25.1145
G01 X31.1059 Y25.1082
G01 X31.0762 Y25.1004
G01 X31.0470 Y25.0911
G01 X31.0182 Y25.0804
G01 X30.9900 Y25.0684
G01 X30.9624 Y25.0549
G01 X30.9356 Y25.0401
G01 X30.9094 Y25.0241
G01 X30.8841 Y25.0067
G01 X30.8597 Y24.9882
G01 X30.8362 Y24.9684
G01 X30.8137 Y24.9475
G01 X30.7923 Y24.9256
G01 X30.7720 Y24.9026
G01 X30.7528 Y24.8787
G01 X30.7348 Y24.8538
G01 X30.7181 Y24.8281
G01 X30.7026 Y24.8016
G01 X30.6885 Y24.7744
G01 X30.6757 Y24.7465
G01 X30.6643 Y24.7180
G01 X30.6543 Y24.6890
G01 X30.6457 Y24.6596
G01 X30.6386 Y24.6297
G01 X30.6330 Y24.5996
G01 X30.6288 Y24.5692
G01 X30.6262 Y24.5386
G01 X30.6251 Y24.5080
G01 X30.6254 Y24.4773
G01 X30.6267 Y24.4540
G01 X30.6297 Y24.4235
G01 X30.6342 Y24.3932
G01 X30.6402 Y24.3631
G01 X30.6476 Y24.3333
G01 X30.6565 Y24.3039
G01 X30.6669 Y24.2751
G01 X30.6757 Y24.2535
G01 X30.6885 Y24.2256
G01 X30.7026 Y24.1984
G01 X30.7177 Y24.1724
G01 X30.7345 Y24.1467
G01 X30.7480 Y24.1277
G01 X30.7669 Y24.1035
G01 X30.7869 Y24.0803
G01 X30.8081 Y24.0581
G01 X30.8303 Y24.0369
G01 X30.8535 Y24.0169
G01 X30.8777 Y23.9980
G01 X30.8967 Y23.9845
G01 X30.9224 Y23.9677
G01 X30.9484 Y23.9526
G01 X30.9756 Y23.9385
G01 X31.0035 Y23.9257
G01 X31.0251 Y23.9169
G01 X31.0539 Y23.9065
G01 X31.0833 Y23.8976
G01 X31.1131 Y23.8902
G01 X31.1432 Y23.8842
G01 X31.1735 Y23.8797
G01 X31.2040 Y23.8767
G01 X31.2347 Y23.8752
G01 X50.2500 Y23.8750
G01 X50.2727 Y23.8754
G01 X50.2960 Y23.8767
G01 X50.3265 Y23.8797
G01 X50.3568 Y23.8842
G01 X50.3869 Y23.8902
G01 X50.4167 Y23.8976
G01 X50.4460 Y23.9065
G01 X50.4749 Y23.9169
G01 X50.5033 Y23.9286
G01 X50.5310 Y23.9417
G01 X50.5581 Y23.9562
G01 X50.5844 Y23.9720
G01 X50.6099 Y23.9890
G01 X50.6345 Y24.0073
G01 X50.6582 Y24.0268
G01 X50.6810 Y24.0474
G01 X50.7027 Y24.0690
G01 X50.7233 Y24.0918
G01 X50.7427 Y24.1155
G01 X50.7610 Y24.1401
G01 X50.7780 Y24.1656
G01 X50.7938 Y24.1920
G01 X50.8083 Y24.2190
G01 X50.8214 Y24.2467
G01 X50.8331 Y24.2751
G01 X50.8435 Y24.3040
G01 X50.8524 Y24.3333
G01 X50.8598 Y24.3631
G01 X50.8658 Y24.3931
G01 X50.8703 Y24.4235
G01 X50.8733 Y24.4540
G01 X50.8748 Y24.4847
G01 X50.8749 Y24.5080
G01 X50.8738 Y24.5386
G01 X50.8712 Y24.5692
G01 X50.8671 Y24.5990
G01 X50.8615 Y24.6291
G01 X50.8544 Y24.6590
G01 X50.8459 Y24.6885
G01 X50.8359 Y24.7175
G01 X50.8246 Y24.7460
G01 X50.8118 Y24.7739
G01 X50.7977 Y24.8011
G01 X50.7823 Y24.8276
G01 X50.7655 Y24.8533
G01 X50.7476 Y24.8782
G01 X50.7284 Y24.9022
G01 X50.7081 Y24.9251
G01 X50.6867 Y24.9471
G01 X50.6697 Y24.9631
G01 X50.6465 Y24.9831
G01 X50.6223 Y25.0020
G01 X50.5972 Y25.0197
G01 X50.5713 Y25.0361
G01 X50.5446 Y25.0512
G01 X50.5172 Y25.0650
G01 X50.4892 Y25.0774
G01 X50.4606 Y25.0885
G01 X50.4314 Y25.0981
G01 X50.4019 Y25.1063
G01 X50.3719 Y25.1130
G01 X50.3417 Y25.1182
G01 X50.3113 Y25.1220
G01 X50.2807 Y25.1242
G01 X50.2500 Y25.1250
G00 Z1.0000
G00 X50.2500 Y3.1250
G01 F60.00
G01 Z-0.5000
G01 F120.00
G01 X50.2807 Y3.1242
G01 X50.3113 Y3.1220
G01 X50.3417 Y3.1182
G01 X50.3719 Y3.1130
G01 X50.4019 Y3.1063
G01 X50.4314 Y3.0981
G01 X50.4606 Y3.0885
G01 X50.4892 Y3.0774
G01 X50.5172 Y3.0650
G01 X50.5446 Y3.0512
G01 X50.5713 Y3.0361
G01 X50.5972 Y3.0197
G01 X50.6223 Y3.0020
G01 X50.6465 Y2.9831
G01 X50.6697 Y2.9631
G01 X50.6867 Y2.9471
G01 X50.7081 Y2.9251
G01 X50.7284 Y2.9022
G01 X50.7476 Y2.8782
G01 X50.7655 Y2.8533
G01 X50.7823 Y2.8276
G01 X50.7977 Y2.8011
G01 X50.8118 Y2.7739
G01 X50.8246 Y2.7460
G01 X50.8359 Y2.7175
G01 X50.8459 Y2.6885
G01 X50.8544 Y2.6590
G01 X50.8615 Y2.6291
G01 X50.8671 Y2.5990
G01 X50.8712 Y2.5686
G01 X50.8738 Y2.5380
G01 X50.8749 Y2.5080
G01 X50.8748 Y2.4847
G01 X50.8733 Y2.4540
G01 X50.8703 Y2.4235
G01 X50.8658 Y2.3932
G01 X50.8598 Y2.3631
G01 X50.8524 Y2.3333
G01 X50.8435 Y2.3040
G01 X50.8331 Y2.2751
G01 X50.8214 Y2.2467
G01 X50.8083 Y2.2190
G01 X50.7938 Y2.1919
G01 X50.7780 Y2.1656
G01 X50.7610 Y2.1401
G01 X50.7427 Y2.1155
G01 X50.7233 Y2.0918
G01 X50.7026 Y2.0690
G01 X50.6810 Y2.0474
G01 X50.6582 Y2.0267
G01 X50.6345 Y2.0073
G01 X50.6099 Y1.9890
G01 X50.5844 Y1.9720
G01 X50.5581 Y1.9562
G01 X50.5310 Y1.9417
G01 X50.5033 Y1.9286
G01 X50.4749 Y1.9169
G01 X50.4460 Y1.9065
G01 X50.4167 Y1.8976
G01 X50.3869 Y1.8902
G01 X50.3569 Y1.8842
G01 X50.3265 Y1.8797
G01 X50.2960 Y1.8767
G01 X50.2727 Y1.8754
G01 X50.2500 Y1.8750
G01 X31.2347 Y1.8752
G01 X31.2040 Y1.8767
G01 X31.1735 Y1.8797
G01 X31.1431 Y1.8842
G01 X31.1203 Y1.8886
G01 X31.0910 Y1.8956
G01 X31.0615 Y1.9041
G01 X31.0325 Y1.9141
G01 X31.0040 Y1.9254
G01 X30.9828 Y1.9350
G01 X30.9554 Y1.9488
G01 X30.9287 Y1.9639
G01 X30.9028 Y1.9803
G01 X30.8777 Y1.9980
G01 X30.8535 Y2.0169
G01 X30.8303 Y2.0369
G01 X30.8081 Y2.0581
G01 X30.7869 Y2.0803
G01 X30.7669 Y2.1035
G01 X30.7480 Y2.1277
G01 X30.7345 Y2.1467
G01 X30.7177 Y2.1724
G01 X30.7023 Y2.1989
G01 X30.6885 Y2.2256
G01 X30.6757 Y2.2535
G01 X30.6669 Y2.2751
G01 X30.6565 Y2.3039
G01 X30.6476 Y2.3333
G01 X30.6402 Y2.3631
G01 X30.6342 Y2.3932
G01 X30.6297 Y2.4235
G01 X30.6267 Y2.4540
G01 X30.6254 Y2.4773
G01 X30.6251 Y2.5080
G01 X30.6262 Y2.5386
G01 X30.6288 Y2.5692
G01 X30.6330 Y2.5996
G01 X30.6386 Y2.6297
G01 X30.6457 Y2.6596
G01 X30.6543 Y2.6890
G01 X30.6643 Y2.7180
G01 X30.6757 Y2.7465
G01 X30.6885 Y2.7744
G01 X30.7026 Y2.8016
G01 X30.7181 Y2.8281
G01 X30.7348 Y2.8538
G01 X30.7528 Y2.8787
G01 X30.7720 Y2.9026
G01 X30.7923 Y2.9256
G01 X30.8137 Y2.9475
G01 X30.8362 Y2.9684
G01 X30.8597 Y2.9882
G01 X30.8841 Y3.0067
G01 X30.9094 Y3.0241
G01 X30.9356 Y3.0401
G01 X30.9624 Y3.0549
G01 X30.9900 Y3.0684
G01 X31.0182 Y3.0804
G01 X31.0470 Y3.0911
G01 X31.0762 Y3.1004
G01 X31.1059 Y3.1082
G01 X31.1359 Y3.1145
G01 X31.1662 Y3.1194
G01 X31.1967 Y3.1227
G01 X31.2273 Y3.1246
G01 X31.2500 Y3.1250
G01 X50.2500 Y3.1250
G00 X50.2500 Y3.1250
G01 F60.00
G01 Z-1.0000
G01 F120.00
G01 X31.2500 Y3.1250
G01 X31.2273 Y3.1246
G01 X31.1967 Y3.1227
G01 X31.1662 Y3.1194
G01 X31.1359 Y3.1145
G01 X31.1059 Y3.1082
G01 X31.0762 Y3.1004
G01 X31.0470 Y3.0911
G01 X31.0182 Y3.0804
G01 X30.9900 Y3.0684
G01 X30.9624 Y3.0549
G01 X30.9356 Y3.0401
G01 X30.9094 Y3.0241
G01 X30.8841 Y3.0067
G01 X30.8597 Y2.9882
G01 X30.8362 Y2.9684
G01 X30.8137 Y2.9475
G01 X30.7923 Y2.9256
G01 X30.7720 Y2.9026
G01 X30.7528 Y2.8787
G01 X30.7348 Y2.8538
G01 X30.7181 Y2.8281
G01 X30.7026 Y2.8016
G01 X30.6885 Y2.7744
G01 X30.6757 Y2.7465
G01 X30.6643 Y2.7180
G01 X30.6543 Y2.6890
G01 X30.6457 Y2.6596
G01 X30.6386 Y2.6297
G01 X30.6330 Y2.5996
G01 X30.6288 Y2.5692
G01 X30.6262 Y2.5386
G01 X30.6251 Y2.5080
G01 X30.6254 Y2.4773
G01 X30.6267 Y2.4540
G01 X30.6297 Y2.4235
G01 X30.6342 Y2.3932
G01 X30.6402 Y2.3631
G01 X30.6476 Y2.3333
G01 X30.6565 Y2.3039
G01 X30.6669 Y2.2751
G01 X30.6757 Y2.2535
G01 X30.6885 Y2.2256
G01 X30.7023 Y2.1989
G01 X30.7177 Y2.1724
G01 X30.7345 Y2.1467
G01 X30.7480 Y2.1277
G01 X30.7669 Y2.1035
G01 X30.7869 Y2.0803
G01 X30.8081 Y2.0581
G01 X30.8303 Y2.0369
G01 X30.8535 Y2.0169
G01 X30.8777 Y1.9980
G01 X30.9028 Y1.9803
G01 X30.9287 Y1.9639
G01 X30.9554 Y1.9488
G01 X30.9828 Y1.9350
G01 X31.0040 Y1.9254
G01 X31.0325 Y1.9141
G01 X31.0615 Y1.9041
G01 X31.0910 Y1.8956
G01 X31.1203 Y1.8886
G01 X31.1431 Y1.8842
G01 X31.1735 Y1.8797
G01 X31.2040 Y1.8767
G01 X31.2347 Y1.8752
G01 X50.2500 Y1.8750
G01 X50.2727 Y1.8754
G01 X50.2960 Y1.8767
G01 X50.3265 Y1.8797
G01 X50.3569 Y1.8842
G01 X50.3869 Y1.8902
G01 X50.4167 Y1.8976
G01 X50.4460 Y1.9065
G01 X50.4749 Y1.9169
G01 X50.5033 Y1.9286
G01 X50.5310 Y1.9417
G01 X50.5581 Y1.9562
G01 X50.5844 Y1.9720
G01 X50.6099 Y1.9890
G01 X50.6345 Y2.0073
G01 X50.6582 Y2.0267
G01 X50.6810 Y2.0474
G01 X50.7026 Y2.0690
G01 X50.7233 Y2.0918
G01 X50.7427 Y2.1155
G01 X50.7610 Y2.1401
G01 X50.7780 Y2.1656
G01 X50.7938 Y2.1919
G01 X50.8083 Y2.2190
G01 X50.8214 Y2.2467
G01 X50.8331 Y2.2751
G01 X50.8435 Y2.3040
G01 X50.8524 Y2.3333
G01 X50.8598 Y2.3631
G01 X50.8658 Y2.3932
G01 X50.8703 Y2.4235
G01 X50.8733 Y2.4540
G01 X50.8748 Y2.4847
G01 X50.8749 Y2.5080
G01 X50.8738 Y2.5380
G01 X50.8712 Y2.5686
G01 X50.8671 Y2.5990
G01 X50.8615 Y2.6291
G01 X50.8544 Y2.6590
G01 X50.8459 Y2.6885
G01 X50.8359 Y2.7175
G01 X50.8246 Y2.7460
G01 X50.8118 Y2.7739
G01 X50.7977 Y2.8011
G01 X50.7823 Y2.8276
G01 X50.7655 Y2.8533
G01 X50.7476 Y2.8782
G01 X50.7284 Y2.9022
G01 X50.7081 Y2.9251
G01 X50.6867 Y2.9471
G01 X50.6697 Y2.9631
G01 X50.6465 Y2.9831
G01 X50.6223 Y3.0020
G01 X50.5972 Y3.0197
G01 X50.5713 Y3.0361
G01 X50.5446 Y3.0512
G01 X50.5172 Y3.0650
G01 X50.4892 Y3.0774
G01 X50.4606 Y3.0885
G01 X50.4314 Y3.0981
G01 X50.4019 Y3.1063
G01 X50.3719 Y3.1130
G01 X50.3417 Y3.1182
G01 X50.3113 Y3.1220
G01 X50.2807 Y3.1242
G01 X50.2500 Y3.1250
G00 X50.2500 Y3.1250
G01 F60.00
G01 Z-1.5000
G01 F120.00
G01 X50.2807 Y3.1242
G01 X50.3113 Y3.1220
G01 X50.3417 Y3.1182
G01 X50.3719 Y3.1130
G01 X50.4019 Y3.1063
G01 X50.4314 Y3.0981
G01 X50.4606 Y3.0885
G01 X50.4892 Y3.0774
G01 X50.5172 Y3.0650
G01 X50.5446 Y3.0512
G01 X50.5713 Y3.0361
G01 X50.5972 Y3.0197
G01 X50.6223 Y3.0020
G01 X50.6465 Y2.9831
G01 X50.6697 Y2.9631
G01 X50.6867 Y2.9471
G01 X50.7081 Y2.9251
G01 X50.7284 Y2.9022
G01 X50.7476 Y2.8782
G01 X50.7655 Y2.8533
G01 X50.7823 Y2.8276
G01 X50.7977 Y2.8011
G01 X50.8118 Y2.7739
G01 X50.8246 Y2.7460
G01 X50.8359 Y2.7175
G01 X50.8459 Y2.6885
G01 X50.8544 Y2.6590
G01 X50.8615 Y2.6291
G01 X50.8671 Y2.5990
G01 X50.8712 Y2.5686
G01 X50.8738 Y2.5380
G01 X50.8749 Y2.5080
G01 X50.8748 Y2.4847
G01 X50.8733 Y2.4540
G01 X50.8703 Y2.4235
G01 X50.8658 Y2.3932
G01 X50.8598 Y2.3631
G01 X50.8524 Y2.3333
G01 X50.8435 Y2.3040
G01 X50.8331 Y2.2751
G01 X50.8214 Y2.2467
G01 X50.8083 Y2.2190
G01 X50.7938 Y2.1919
G01 X50.7780 Y2.1656
G01 X50.7610 Y2.1401
G01 X50.7427 Y2.1155
G01 X50.7233 Y2.0918
G01 X50.7026 Y2.0690
G01 X50.6810 Y2.0474
G01 X50.6582 Y2.0267
G01 X50.6345 Y2.0073
G01 X50.6099 Y1.9890
G01 X50.5844 Y1.9720
G01 X50.5581 Y1.9562
G01 X50.5310 Y1.9417
G01 X50.5033 Y1.9286
G01 X50.4749 Y1.9169
G01 X50.4460 Y1.9065
G01 X50.4167 Y1.8976
G01 X50.3869 Y1.8902
G01 X50.3569 Y1.8842
G01 X50.3265 Y1.8797
G01 X50.2960 Y1.8767
G01 X50.2727 Y1.8754
G01 X50.2500 Y1.8750
G01 X31.2347 Y1.8752
G01 X31.2040 Y1.8767
G01 X31.1735 Y1.8797
G01 X31.1431 Y1.8842
G01 X31.1203 Y1.8886
G01 X31.0910 Y1.8956
G01 X31.0615 Y1.9041
G01 X31.0325 Y1.9141
G01 X31.0040 Y1.9254
G01 X30.9828 Y1.9350
G01 X30.9554 Y1.9488
G01 X30.9287 Y1.9639
G01 X30.9028 Y1.9803
G01 X30.8777 Y1.9980
G01 X30.8535 Y2.0169
G01 X30.8303 Y2.0369
G01 X30.8081 Y2.0581
G01 X30.7869 Y2.0803
G01 X30.7669 Y2.1035
G01 X30.7480 Y2.1277
G01 X30.7345 Y2.1467
G01 X30.7177 Y2.1724
G01 X30.7023 Y2.1989
G01 X30.6885 Y2.2256
G01 X30.6757 Y2.2535
G01 X30.6669 Y2.2751
G01 X30.6565 Y2.3039
G01 X30.6476 Y2.3333
G01 X30.6402 Y2.3631
G01 X30.6342 Y2.3932
G01 X30.6297 Y2.4235
G01 X30.6267 Y2.4540
G01 X30.6254 Y2.4773
G01 X30.6251 Y2.5080
G01 X30.6262 Y2.5386
G01 X30.6288 Y2.5692
G01 X30.6330 Y2.5996
G01 X30.6386 Y2.6297
G01 X30.6457 Y2.6596
G01 X30.6543 Y2.6890
G01 X30.6643 Y2.7180
G01 X30.6757 Y2.7465
G01 X30.6885 Y2.7744
G01 X30.7026 Y2.8016
G01 X30.7181 Y2.8281
G01 X30.7348 Y2.8538
G01 X30.7528 Y2.8787
G01 X30.7720 Y2.9026
G01 X30.7923 Y2.9256
G01 X30.8137 Y2.9475
G01 X30.8362 Y2.9684
G01 X30.8597 Y2.9882
G01 X30.8841 Y3.0067
G01 X30.9094 Y3.0241
G01 X30.9356 Y3.0401
G01 X30.9624 Y3.0549
G01 X30.9900 Y3.0684
G01 X31.0182 Y3.0804
G01 X31.0470 Y3.0911
G01 X31.0762 Y3.1004
G01 X31.1059 Y3.1082
G01 X31.1359 Y3.1145
G01 X31.1662 Y3.1194
G01 X31.1967 Y3.1227
G01 X31.2273 Y3.1246
G01 X31.2500 Y3.1250
G01 X50.2500 Y3.1250
G00 X50.2500 Y3.1250
G01 F60.00
G01 Z-1.8000
G01 F120.00
G01 X31.2500 Y3.1250
G01 X31.2273 Y3.1246
G01 X31.1967 Y3.1227
G01 X31.1662 Y3.1194
G01 X31.1359 Y3.1145
G01 X31.1059 Y3.1082
G01 X31.0762 Y3.1004
G01 X31.0470 Y3.0911
G01 X31.0182 Y3.0804
G01 X30.9900 Y3.0684
G01 X30.9624 Y3.0549
G01 X30.9356 Y3.0401
G01 X30.9094 Y3.0241
G01 X30.8841 Y3.0067
G01 X30.8597 Y2.9882
G01 X30.8362 Y2.9684
G01 X30.8137 Y2.9475
G01 X30.7923 Y2.9256
G01 X30.7720 Y2.9026
G01 X30.7528 Y2.8787
G01 X30.7348 Y2.8538
G01 X30.7181 Y2.8281
G01 X30.7026 Y2.8016
G01 X30.6885 Y2.7744
G01 X30.6757 Y2.7465
G01 X30.6643 Y2.7180
G01 X30.6543 Y2.6890
G01 X30.6457 Y2.6596
G01 X30.6386 Y2.6297
G01 X30.6330 Y2.5996
G01 X30.6288 Y2.5692
G01 X30.6262 Y2.5386
G01 X30.6251 Y2.5080
G01 X30.6254 Y2.4773
G01 X30.6267 Y2.4540
G01 X30.6297 Y2.4235
G01 X30.6342 Y2.3932
G01 X30.6402 Y2.3631
G01 X30.6476 Y2.3333
G01 X30.6565 Y2.3039
G01 X30.6669 Y2.2751
G01 X30.6757 Y2.2535
G01 X30.6885 Y2.2256
G01 X30.7023 Y2.1989
G01 X30.7177 Y2.1724
G01 X30.7345 Y2.1467
G01 X30.7480 Y2.1277
G01 X30.7669 Y2.1035
G01 X30.7869 Y2.0803
G01 X30.8081 Y2.0581
G01 X30.8303 Y2.0369
G01 X30.8535 Y2.0169
G01 X30.8777 Y1.9980
G01 X30.9028 Y1.9803
G01 X30.9287 Y1.9639
G01 X30.9554 Y1.9488
G01 X30.9828 Y1.9350
G01 X31.0040 Y1.9254
G01 X31.0325 Y1.9141
G01 X31.0615 Y1.9041
G01 X31.0910 Y1.8956
G01 X31.1203 Y1.8886
G01 X31.1431 Y1.8842
G01 X31.1735 Y1.8797
G01 X31.2040 Y1.8767
G01 X31.2347 Y1.8752
G01 X50.2500 Y1.8750
G01 X50.2727 Y1.8754
G01 X50.2960 Y1.8767
G01 X50.3265 Y1.8797
G01 X50.3569 Y1.8842
G01 X50.3869 Y1.8902
G01 X50.4167 Y1.8976
G01 X50.4460 Y1.9065
G01 X50.4749 Y1.9169
G01 X50.5033 Y1.9286
G01 X50.5310 Y1.9417
G01 X50.5581 Y1.9562
G01 X50.5844 Y1.9720
G01 X50.6099 Y1.9890
G01 X50.6345 Y2.0073
G01 X50.6582 Y2.0267
G01 X50.6810 Y2.0474
G01 X50.7026 Y2.0690
G01 X50.7233 Y2.0918
G01 X50.7427 Y2.1155
G01 X50.7610 Y2.1401
G01 X50.7780 Y2.1656
G01 X50.7938 Y2.1919
G01 X50.8083 Y2.2190
G01 X50.8214 Y2.2467
G01 X50.8331 Y2.2751
G01 X50.8435 Y2.3040
G01 X50.8524 Y2.3333
G01 X50.8598 Y2.3631
G01 X50.8658 Y2.3932
G01 X50.8703 Y2.4235
G01 X50.8733 Y2.4540
G01 X50.8748 Y2.4847
G01 X50.8749 Y2.5080
G01 X50.8738 Y2.5380
G01 X50.8712 Y2.5686
G01 X50.8671 Y2.5990
G01 X50.8615 Y2.6291
G01 X50.8544 Y2.6590
G01 X50.8459 Y2.6885
G01 X50.8359 Y2.7175
G01 X50.8246 Y2.7460
G01 X50.8118 Y2.7739
G01 X50.7977 Y2.8011
G01 X50.7823 Y2.8276
G01 X50.7655 Y2.8533
G01 X50.7476 Y2.8782
G01 X50.7284 Y2.9022
G01 X50.7081 Y2.9251
G01 X50.6867 Y2.9471
G01 X50.6697 Y2.9631
G01 X50.6465 Y2.9831
G01 X50.6223 Y3.0020
G01 X50.5972 Y3.0197
G01 X50.5713 Y3.0361
G01 X50.5446 Y3.0512
G01 X50.5172 Y3.0650
G01 X50.4892 Y3.0774
G01 X50.4606 Y3.0885
G01 X50.4314 Y3.0981
G01 X50.4019 Y3.1063
G01 X50.3719 Y3.1130
G01 X50.3417 Y3.1182
G01 X50.3113 Y3.1220
G01 X50.2807 Y3.1242
G01 X50.2500 Y3.1250
G00 Z1.0000
G00 X53.8752 Y1.9847
G01 F60.00
G01 Z-0.5000
G01 F120.00
G01 X53.8750 Y59.0000
G01 X53.8758 Y59.0307
G01 X53.8854 Y59.2267
G01 X53.8878 Y59.2585
G01 X53.8914 Y59.2877
G01 X53.9202 Y59.4819
G01 X53.9257 Y59.5133
G01 X53.9322 Y59.5420
G01 X53.9799 Y59.7324
G01 X53.9885 Y59.7632
G01 X53.9977 Y59.7911
G01 X54.0638 Y59.9759
G01 X54.0744 Y60.0034
G01 X54.0812 Y60.0192
G01 X54.1712 Y60.2100
G01 X54.1844 Y60.2363
G01 X54.2001 Y60.2641
G01 X54.3010 Y60.4325
G01 X54.3181 Y60.4594
G01 X54.3351 Y60.4835
G01 X54.4520 Y60.6411
G01 X54.4701 Y60.6643
G01 X54.4909 Y60.6885
G01 X54.6227 Y60.8339
G01 X54.6430 Y60.8553
G01 X54.6661 Y60.8773
G01 X54.8115 Y61.0091
G01 X54.8357 Y61.0299
G01 X54.8589 Y61.0480
G01 X55.0166 Y61.1650
G01 X55.0407 Y61.1819
G01 X55.0676 Y61.1990
G01 X55.2359 Y61.2999
G01 X55.2637 Y61.3156
G01 X55.2900 Y61.3288
G01 X55.4675 Y61.4128
G01 X55.4966 Y61.4256
G01 X55.5241 Y61.4362
G01 X55.7089 Y61.5024
G01 X55.7369 Y61.5116
G01 X55.7676 Y61.5202
G01 X55.9580 Y61.5679
G01 X55.9891 Y61.5748
G01 X56.0182 Y61.5798
G01 X56.2123 Y61.6086
G01 X56.2440 Y61.6125
G01 X56.2733 Y61.6146
G01 X56.4694 Y61.6243
G01 X56.5001 Y61.6250
G01 X65.0001 Y61.6250
G01 X65.0319 Y61.6242
G01 X65.0613 Y61.6220
G01 X65.0930 Y61.6180
G01 X65.1220 Y61.6130
G01 X65.1507 Y61.6066
G01 X65.1815 Y61.5981
G01 X65.2094 Y61.5889
G01 X65.2392 Y61.5774
G01 X65.2684 Y61.5645
G01 X65.2947 Y61.5512
G01 X65.3203 Y61.5367
G01 X65.3473 Y61.5197
G01 X65.3733 Y61.5013
G01 X65.3965 Y61.4831
G01 X65.4189 Y61.4639
G01 X65.4420 Y61.4419
G01 X65.4640 Y61.4188
G01 X65.4832 Y61.3965
G01 X65.5013 Y61.3733
G01 X65.5197 Y61.3472
G01 X65.5367 Y61.3203
G01 X65.5513 Y61.2946
G01 X65.5645 Y61.2683
G01 X65.5775 Y61.2392
G01 X65.5881 Y61.2117
G01 X65.5981 Y61.1814
G01 X65.6066 Y61.1507
G01 X65.6131 Y61.1219
G01 X65.6181 Y61.0929
G01 X65.6221 Y61.0613
G01 X65.6243 Y61.0294
G01 X65.6251 Y61.0000
G01 X65.6249 Y53.9853
G01 X65.6242 Y53.9681
G01 X65.6221 Y53.9387
G01 X65.6184 Y53.9095
G01 X65.6131 Y53.8781
G01 X65.6060 Y53.8470
G01 X65.5981 Y53.8186
G01 X65.5881 Y53.7883
G01 X65.5775 Y53.7608
G01 X65.5656 Y53.7339
G01 X65.5513 Y53.7054
G01 X65.5367 Y53.6797
G01 X65.5197 Y53.6528
G01 X65.5013 Y53.6267
